%
(Heatsink fixture plate)
(Yeah.)
(T1  D=0.25 CR=0 - ZMIN=-0.0599 - flat end mill)
G90
G17
G20
G28 G91 Z0
G90

(Fixture plate facing)
T1 M6
(Speeds and feeds for WOOD)
S24000 M3
G54
G0 X7.9278 Y8.1625
Z0.6
Z0.24
G1 Z0.005 F6
G19 G2 Y8.1375 Z-0.02 J-0.025 K0 F64
G1 Y8.125
Y-0.125 F96
G17 G2 X7.7326 I-0.0976 J0
G1 Y8.125
G3 X7.5376 I-0.0975 J0
G1 X7.5375 Y-0.125
G2 X7.3423 I-0.0976 J0
G1 Y8.125
G3 X7.1471 I-0.0976 J0
G1 Y-0.125
G2 X6.9519 I-0.0976 J0
G1 Y8.125
G3 X6.7569 I-0.0975 J0
G1 X6.7568 Y-0.125
G2 X6.5616 I-0.0976 J0
G1 Y8.125
G3 X6.3664 I-0.0976 J0
G1 Y-0.125
G2 X6.1712 I-0.0976 J0
G1 Y8.125
G3 X5.976 I-0.0976 J0
G1 X5.9761 Y-0.125
G2 X5.7809 I-0.0976 J0
G1 Y8.125
G3 X5.5857 I-0.0976 J0
G1 Y-0.125
G2 X5.3905 I-0.0976 J0
G1 Y8.125
G3 X5.1953 I-0.0976 J0
G1 Y-0.125
G2 X5.0003 I-0.0975 J0
G1 X5.0002 Y8.125
G3 X4.805 I-0.0976 J0
G1 Y-0.125
G2 X4.6098 I-0.0976 J0
G1 Y8.125
G3 X4.4146 I-0.0976 J0
G1 Y-0.125
G2 X4.2196 I-0.0975 J0
G1 X4.2195 Y8.125
G3 X4.0243 I-0.0976 J0
G1 Y-0.125
G2 X3.8291 I-0.0976 J0
G1 Y8.125
G3 X3.6339 I-0.0976 J0
G1 Y-0.125
G2 X3.4387 I-0.0976 J0
G1 X3.4388 Y8.125
G3 X3.2436 I-0.0976 J0
G1 Y-0.125
G2 X3.0484 I-0.0976 J0
G1 Y8.125
G3 X2.8532 I-0.0976 J0
G1 Y-0.125
G2 X2.658 I-0.0976 J0
G1 Y8.125
G3 X2.463 I-0.0975 J0
G1 X2.4629 Y-0.125
G2 X2.2677 I-0.0976 J0
G1 Y8.125
G3 X2.0725 I-0.0976 J0
G1 Y-0.125
G2 X1.8773 I-0.0976 J0
G1 Y8.125
G3 X1.6823 I-0.0975 J0
G1 X1.6822 Y-0.125
G2 X1.487 I-0.0976 J0
G1 Y8.125
G3 X1.2918 I-0.0976 J0
G1 Y-0.125
G2 X1.0966 I-0.0976 J0
G1 Y8.125
G3 X0.9014 I-0.0976 J0
G1 X0.9015 Y-0.125
G2 X0.7063 I-0.0976 J0
G1 Y8.125
G3 X0.5111 I-0.0976 J0
G1 Y-0.125
G2 X0.3159 I-0.0976 J0
G1 Y8.125
G3 X0.1207 I-0.0976 J0
G1 Y-0.125
G19 G2 Y-0.15 Z0.005 J0 K0.025 F64
G0 Z0.6
G17

(Fixture plate reference corners)
G0 X8.1562 Y4.1197
Z0.6
Z0.2
Z-0.0099
G1 Z-0.0349 F64
X8.1559 Z-0.0388
X8.155 Y4.1196 Z-0.0426
X8.1535 Z-0.0462
X8.1515 Y4.1195 Z-0.0496
X8.1489 Y4.1194 Z-0.0526
X8.1459 Y4.1192 Z-0.0551
X8.1426 Y4.1191 Z-0.0572
X8.139 Y4.1189 Z-0.0587
X8.1352 Y4.1187 Z-0.0596
X8.1313 Y4.1185 Z-0.0599
X8.1292 Y4.1182
X8.1273 Y4.1172
X8.1257 Y4.1158
X8.1245 Y4.114
X8.1239 Y4.112
X8.1219 Y4.0975 F96
X8.1198 Y4.0897
X8.1154 Y4.0772
X8.1102 Y4.0663
X8.1056 Y4.0585
X8.0998 Y4.0499
X8.0941 Y4.0429
X8.0879 Y4.0351
X8.0806 Y4.0243
X8.0728 Y4.0103
X8.0644 Y3.9922
X8.0557 Y3.9684
X8.0466 Y3.9355
X8.0401 Y3.9018
X8.0354 Y3.8678
X8.0321 Y3.8336
X8.0298 Y3.7994
X8.0281 Y3.7651
X8.026 Y3.6964
X8.0246 Y3.5934
X8.0239 Y3.353
X8.0238 Y2.0825
Y0.1166
X8.0226 Y0.1081
X8.0176 Y0.0917
X7.9996 Y0.0624
X7.9738 Y0.0397
X7.9441 Y0.0226
X7.9122 Y0.0099
X7.8792 Y0.0005
X7.8455 Y-0.0064
X7.8115 Y-0.0115
X7.7774 Y-0.0151
X7.7432 Y-0.0178
X7.7089 Y-0.0197
X7.6402 Y-0.0221
X7.5372 Y-0.0237
X7.3312 Y-0.0245
X6.493 Y-0.0246
X6.4802 Y-0.026
X6.4681 Y-0.0302
X6.4571 Y-0.0369
X6.4479 Y-0.0459
X6.4409 Y-0.0566
X6.4397 Y-0.0597 F64
X6.439 Y-0.0628
X6.4386 Y-0.0661
X6.4387 Y-0.069 F96
X6.4391 Y-0.072
X6.4396 Y-0.0734
X6.4406 Y-0.0747
X6.4419 Y-0.0755
X6.4434 Y-0.076
X6.445 Y-0.0759
X6.4464
X6.4477 Y-0.0765
X6.4487 Y-0.0776
X6.4491 Y-0.0789
X6.449 Y-0.0804
X6.4483 Y-0.0816
X6.4472 Y-0.0825
X6.4461 Y-0.0828
X6.445
X6.444 Y-0.0823
X6.4431 Y-0.0815
G2 X6.4386 Y-0.0661 I0.0205 J0.0144
G1 X6.439 Y-0.0628 F64
X6.4397 Y-0.0597
X6.4409 Y-0.0566
X6.4462 Y-0.0452 F72
X6.4489 Y-0.0374
X6.4507 Y-0.0323
X6.4535 Y-0.0277
X6.457 Y-0.0235
X6.4609 Y-0.0198
X6.4652 Y-0.0166
X6.4745 Y-0.011
X6.4877 Y-0.005
X6.4967 Y-0.0016
X6.508 Y0.002
X6.5225 Y0.0059
X6.5414 Y0.01
X6.5673 Y0.0143
X6.6014 Y0.0183
X6.6357 Y0.0208
X6.67 Y0.0224
X6.7386 Y0.0241
X6.8416 Y0.025
X7.4254 Y0.0258
X7.5628 Y0.0269
X7.6314 Y0.0283
X7.6657 Y0.0295
X7.7 Y0.0311
X7.7343 Y0.0333
X7.7685 Y0.0365
X7.8025 Y0.0412
X7.8362 Y0.0478
X7.8678 Y0.0612
X7.8946 Y0.0827
X7.9161 Y0.1095
X7.9327 Y0.1395
X7.9451 Y0.1716
X7.9541 Y0.2047
X7.9604 Y0.2385
X7.9648 Y0.2725
X7.9678 Y0.3067
X7.9698 Y0.341
X7.9712 Y0.3753
X7.9727 Y0.444
X7.9736 Y0.5813
X7.9738 Y2.573
X7.9741 Y3.4658
X7.9749 Y3.6032
X7.9759 Y3.6718
X7.9779 Y3.7405
X7.9795 Y3.7748
X7.9817 Y3.8091
X7.9847 Y3.8433
X7.9888 Y3.8774
X7.9941 Y3.9083
X7.9997 Y3.9339
X8.0055 Y3.9554
X8.0107 Y3.9715
X8.0161 Y3.9834
X8.0238 Y3.9939
X8.0337 Y4.0024
X8.0452 Y4.0087
X8.0483 Y4.0096 F64
X8.0515 Y4.0101
X8.0548 Y4.0102
G2 X8.0698 Y4.0045 I-0.001 J-0.025 F96
G1 X8.0708 Y4.0033
X8.0715 Y4.0019
X8.0716 Y4.0003
X8.0713 Y3.9988
X8.0705 Y3.9974
X8.0697 Y3.9961
X8.0693 Y3.9946
X8.0694 Y3.993
X8.07 Y3.9915
X8.071 Y3.9903
X8.0724 Y3.9895
X8.0739 Y3.9891
X8.0749 Y3.9892
X8.0758 Y3.9897
X8.0765 Y3.9905
X8.0767 Y3.9915
X8.0766 Y3.9925
G3 X8.0549 Y4.0098 I-0.0238 J-0.0076
G1 X8.0516 F64
X8.0483 Y4.0095
X8.0452 Y4.0087
X8.0374 Y4.0059 F96
X8.0296 Y4.0037
X8.0218 Y4.002
X8.014 Y4.0009
X8.0086 Y4
X8.0035 Y3.9984
X7.9979 Y3.996
X7.992 Y3.993
X7.9851 Y3.9886
X7.9779 Y3.9832
X7.97 Y3.9762
X7.9614 Y3.9674
X7.9526 Y3.9566
X7.943 Y3.943
X7.9332 Y3.9262
X7.9231 Y3.905
X7.9126 Y3.8778
X7.9029 Y3.8449
X7.8956 Y3.8113
X7.8902 Y3.7774
X7.8861 Y3.7433
X7.883 Y3.7091
X7.8807 Y3.6749
X7.8789 Y3.6406
X7.8767 Y3.5719
X7.875 Y3.4689
X7.8741 Y3.2972
X7.8738 Y2.061
X7.8736 Y0.6188
X7.8727 Y0.4814
X7.8711 Y0.4128
X7.8697 Y0.3785
X7.8675 Y0.3442
X7.864 Y0.31
X7.8584 Y0.2762
X7.8478 Y0.2435
X7.8271 Y0.2161
X7.8006 Y0.1942
X7.7708 Y0.1772
X7.739 Y0.1642
X7.7061 Y0.1543
X7.6726 Y0.1469
X7.6387 Y0.1413
X7.6046 Y0.1372
X7.5704 Y0.1341
X7.5361 Y0.1318
X7.5018 Y0.1301
X7.4332 Y0.1279
X7.3302 Y0.1264
X7.1242 Y0.1255
X6.8495 Y0.1249
X6.7465 Y0.1236
X6.7121 Y0.1226
X6.6778 Y0.1212
X6.6435 Y0.1191
X6.6093 Y0.116
X6.5753 Y0.1116
X6.5415 Y0.1055
X6.513 Y0.0983
X6.4899 Y0.0903
X6.48 Y0.0849
X6.4714 Y0.0776
X6.4643 Y0.0688
X6.459 Y0.0588
X6.4558 Y0.048
X6.4547 Y0.0368
Y0.0094
X6.4543 Y-0.0027
X6.4545 Y-0.0059 F64
X6.4551 Y-0.0091
X6.4562 Y-0.0122
G3 X6.4667 Y-0.0243 I0.0231 J0.0095 F96
X6.4873 Y-0.0083 I0.0071 J0.0121
X6.468 Y0.0157 I-0.0379 J-0.0108
G2 X6.457 Y0.0273 I0.0117 J0.022
G1 X6.4558 Y0.0304 F64
X6.4551 Y0.0336
X6.4547 Y0.0368
Y0.0641 F72
X6.455 Y0.0694
X6.4561 Y0.0747
X6.4579 Y0.0798
X6.4603 Y0.0846
X6.4633 Y0.0892
X6.4702 Y0.0975
X6.4785 Y0.1053
X6.489 Y0.1133
X6.4958 Y0.1177
X6.5041 Y0.1226
X6.5129 Y0.1272
X6.524 Y0.1323
X6.5367 Y0.1375
X6.552 Y0.1428
X6.5702 Y0.1482
X6.5931 Y0.1538
X6.6217 Y0.1593
X6.6557 Y0.1641
X6.6899 Y0.1675
X6.7242 Y0.1699
X6.7585 Y0.1715
X6.8271 Y0.1735
X6.9301 Y0.1748
X7.2735 Y0.1761
X7.3765 Y0.1772
X7.4452 Y0.1789
X7.4795 Y0.1801
X7.5138 Y0.1819
X7.548 Y0.1842
X7.5822 Y0.1875
X7.6163 Y0.1919
X7.6501 Y0.1981
X7.6832 Y0.207
X7.7139 Y0.2224
X7.7401 Y0.2446
X7.7615 Y0.2715
X7.7784 Y0.3014
X7.7913 Y0.3332
X7.8008 Y0.3662
X7.8078 Y0.3998
X7.8127 Y0.4338
X7.8162 Y0.468
X7.8186 Y0.5022
X7.8203 Y0.5365
X7.8222 Y0.6052
X7.8233 Y0.7082
X7.8238 Y0.8799
Y2.8715
X7.8242 Y3.3179
X7.8251 Y3.4553
X7.8268 Y3.5583
X7.8292 Y3.6269
X7.8309 Y3.6612
X7.8333 Y3.6955
X7.8363 Y3.7297
X7.8403 Y3.7638
X7.8455 Y3.7977
X7.8515 Y3.8268
X7.858 Y3.8526
X7.8649 Y3.875
X7.8719 Y3.8944
X7.879 Y3.9114
X7.886 Y3.9261
X7.8929 Y3.9389
X7.8998 Y3.9504
X7.9067 Y3.9607
X7.9136 Y3.9699
X7.9228 Y3.9808
X7.9319 Y3.9889
X7.9424 Y3.995
X7.9539 Y3.9987
X7.966 Y4
X7.9906
X8.014 Y4.0009
X8.0173 Y4.0006 F64
X8.0204 Y4
X8.0235 Y3.999
G2 X8.0356 Y3.9884 I-0.0095 J-0.0231 F96
X8.0231 Y3.966 I-0.0129 J-0.0075
X7.9873 Y3.9868 I-0.0011 J0.0393
G3 X7.9756 Y3.9979 I-0.0222 J-0.0118
G1 X7.9725 Y3.9989 F64
X7.9693 Y3.9997
X7.966 Y4
X7.9203 F96
X7.9136 Y3.9997
X7.9076 Y3.9989
X7.901 Y3.9975
X7.8936 Y3.9953
X7.8854 Y3.9921
X7.8768 Y3.9879
X7.8673 Y3.9823
X7.8571 Y3.9751
X7.8466 Y3.9664
X7.8352 Y3.9553
X7.8234 Y3.9417
X7.8115 Y3.9256
X7.7991 Y3.9057
X7.7864 Y3.8812
X7.7737 Y3.8509
X7.7631 Y3.8182
X7.7546 Y3.7849
X7.7479 Y3.7513
X7.7426 Y3.7173
X7.7385 Y3.6832
X7.7352 Y3.6491
X7.7326 Y3.6148
X7.7306 Y3.5805
X7.7279 Y3.5119
X7.7256 Y3.4089
X7.7244 Y3.2716
X7.7238 Y2.8938
Y2.104
X7.7236 Y0.7992
X7.7226 Y0.6618
X7.721 Y0.5932
X7.7196 Y0.5588
X7.7174 Y0.5246
X7.7143 Y0.4904
X7.7094 Y0.4564
X7.7019 Y0.4229
X7.6877 Y0.3916
X7.6654 Y0.3654
X7.6383 Y0.3444
X7.6082 Y0.3279
X7.5763 Y0.3152
X7.5434 Y0.3054
X7.5099 Y0.2979
X7.476 Y0.2923
X7.4419 Y0.288
X7.4077 Y0.2848
X7.3735 Y0.2824
X7.3392 Y0.2806
X7.2705 Y0.2783
X7.1675 Y0.2765
X6.8928 Y0.2742
X6.8242 Y0.2727
X6.7899 Y0.2716
X6.7556 Y0.2699
X6.7213 Y0.2677
X6.6871 Y0.2647
X6.653 Y0.2606
X6.6191 Y0.2552
X6.5854 Y0.2483
X6.5523 Y0.2394
X6.5225 Y0.2291
X6.498 Y0.2184
X6.4854 Y0.2116
X6.4751 Y0.2045
X6.4665 Y0.1953
X6.4601 Y0.1846
X6.4561 Y0.1727
X6.4547 Y0.1602
Y0.0641
X6.4551 Y0.0608 F64
X6.4558 Y0.0576
X6.457 Y0.0546
G3 X6.468 Y0.0429 I0.0227 J0.0103 F96
X6.5096 Y0.0669 I0.0133 J0.025
X6.4679 Y0.139 I-0.0787 J0.0026
G2 X6.4569 Y0.1507 I0.0118 J0.0221
G1 X6.4558 Y0.1538 F64
X6.4551 Y0.157
X6.4547 Y0.1602
Y0.1873 F72
X6.455 Y0.1927
X6.4561 Y0.198
X6.4579 Y0.2031
X6.4602 Y0.2079
X6.463 Y0.2126
X6.4694 Y0.2213
X6.4772 Y0.2298
X6.4885 Y0.24
X6.495 Y0.2451
X6.5032 Y0.2508
X6.5127 Y0.2568
X6.523 Y0.2626
X6.5362 Y0.2692
X6.5501 Y0.2754
X6.5678 Y0.2822
X6.5876 Y0.2888
X6.6117 Y0.2955
X6.6415 Y0.3022
X6.6753 Y0.3081
X6.7094 Y0.3126
X6.7435 Y0.316
X6.7778 Y0.3185
X6.8121 Y0.3204
X6.8807 Y0.3228
X6.9837 Y0.3247
X7.1897 Y0.327
X7.2584 Y0.3285
X7.327 Y0.3311
X7.3613 Y0.3331
X7.3955 Y0.3357
X7.4297 Y0.3394
X7.4637 Y0.3444
X7.4973 Y0.3513
X7.5303 Y0.3609
X7.5608 Y0.3766
X7.5871 Y0.3986
X7.6087 Y0.4253
X7.6259 Y0.4551
X7.6391 Y0.4868
X7.649 Y0.5196
X7.6563 Y0.5532
X7.6616 Y0.5871
X7.6654 Y0.6213
X7.668 Y0.6555
X7.6698 Y0.6898
X7.6719 Y0.7584
X7.6732 Y0.8614
X7.6738 Y1.1361
Y1.1705
X7.674 Y3.1278
X7.6741 Y3.1621
X7.675 Y3.3338
X7.6764 Y3.4368
X7.6782 Y3.5055
X7.6812 Y3.5741
X7.6833 Y3.6084
X7.6859 Y3.6426
X7.6893 Y3.6768
X7.6936 Y3.7109
X7.6989 Y3.7448
X7.7054 Y3.7785
X7.7122 Y3.8064
X7.7199 Y3.8325
X7.7282 Y3.8562
X7.7368 Y3.8774
X7.7453 Y3.8957
X7.7536 Y3.9115
X7.7621 Y3.926
X7.7708 Y3.9394
X7.7795 Y3.9514
X7.788 Y3.9619
X7.7962 Y3.9711
X7.8044 Y3.9795
X7.8097 Y3.9844
X7.8183 Y3.9911
X7.828 Y3.996
X7.8385 Y3.999
X7.8493 Y4
X7.9203
X7.9236 Y3.9997 F64
X7.9268 Y3.9989
X7.9298 Y3.9978
G2 X7.9416 Y3.9868 I-0.0103 J-0.0228 F96
X7.9091 Y3.9514 I-0.0225 J-0.012
X7.8705 Y3.9868 I0.0309 J0.0724
G3 X7.8588 Y3.9977 I-0.022 J-0.0118
G1 X7.8558 Y3.9989 F64
X7.8526 Y3.9997
X7.8493 Y4
X7.7955 F96
X7.7901 Y3.9997
X7.783 Y3.9987
X7.7751 Y3.9968
X7.7663 Y3.994
X7.7569 Y3.9902
X7.7466 Y3.985
X7.7354 Y3.9781
X7.7238 Y3.9697
X7.7114 Y3.959
X7.6981 Y3.9456
X7.6846 Y3.9295
X7.6707 Y3.9101
X7.6565 Y3.8864
X7.6421 Y3.8572
X7.6294 Y3.8252
X7.6189 Y3.7925
X7.6103 Y3.7593
X7.6033 Y3.7257
X7.5975 Y3.6918
X7.5928 Y3.6578
X7.589 Y3.6237
X7.5859 Y3.5895
X7.5834 Y3.5552
X7.5798 Y3.4867
X7.5775 Y3.418
X7.5756 Y3.315
X7.5743 Y3.1433
X7.5738 Y2.6626
Y2.1132
X7.5736 Y0.98
X7.5727 Y0.8426
X7.5714 Y0.774
X7.5703 Y0.7396
X7.5686 Y0.7053
X7.5661 Y0.6711
X7.5624 Y0.637
X7.5568 Y0.6031
X7.548 Y0.5699
X7.532 Y0.5395
X7.5088 Y0.5141
X7.4812 Y0.4937
X7.4509 Y0.4776
X7.4189 Y0.4651
X7.3859 Y0.4555
X7.3524 Y0.4481
X7.3185 Y0.4425
X7.2845 Y0.4382
X7.2503 Y0.435
X7.216 Y0.4325
X7.1817 Y0.4306
X7.1474 Y0.4292
X7.0444 Y0.4263
X6.9071 Y0.4231
X6.8385 Y0.4205
X6.8042 Y0.4186
X6.77 Y0.4162
X6.7358 Y0.413
X6.7017 Y0.409
X6.6677 Y0.4039
X6.634 Y0.3975
X6.6006 Y0.3896
X6.5676 Y0.3799
X6.5354 Y0.3681
X6.5074 Y0.3553
X6.4844 Y0.3426
X6.4807 Y0.3401
X6.4718 Y0.3328
X6.4646 Y0.324
X6.4592 Y0.3139
X6.4558 Y0.3029
X6.4547 Y0.2915
Y0.1873
X6.4551 Y0.184 F64
X6.4558 Y0.1809
X6.457 Y0.1778
G3 X6.468 Y0.1662 I0.0227 J0.0104 F96
X6.508 Y0.1849 I0.013 J0.0243
X6.4679 Y0.2703 I-0.0771 J0.0159
G2 X6.4569 Y0.282 I0.0118 J0.0221
G1 X6.4558 Y0.2851 F64
X6.4551 Y0.2883
X6.4547 Y0.2915
Y0.318 F72
X6.455 Y0.3234
X6.456 Y0.3287
X6.4577 Y0.3338
X6.46 Y0.3387
X6.4655 Y0.348
X6.4728 Y0.3573
X6.482 Y0.3672
X6.4883 Y0.3729
X6.4958 Y0.3792
X6.5036 Y0.3851
X6.5135 Y0.3918
X6.5248 Y0.3987
X6.5377 Y0.4057
X6.5532 Y0.4132
X6.5709 Y0.4207
X6.5915 Y0.4283
X6.6166 Y0.4362
X6.6465 Y0.444
X6.6801 Y0.451
X6.714 Y0.4566
X6.748 Y0.461
X6.7822 Y0.4645
X6.8164 Y0.4672
X6.8507 Y0.4693
X6.9193 Y0.4724
X7.1252 Y0.4788
X7.1595 Y0.4804
X7.1938 Y0.4824
X7.228 Y0.4849
X7.2622 Y0.4883
X7.2963 Y0.4929
X7.33 Y0.499
X7.3633 Y0.5076
X7.3953 Y0.5199
X7.4237 Y0.5392
X7.4477 Y0.5639
X7.467 Y0.5922
X7.4822 Y0.623
X7.4938 Y0.6554
X7.5024 Y0.6886
X7.5087 Y0.7223
X7.5132 Y0.7564
X7.5164 Y0.7906
X7.5187 Y0.8248
X7.5203 Y0.8591
X7.5222 Y0.9278
X7.5233 Y1.0308
X7.5238 Y1.3399
Y1.4772
X7.524 Y3.0225
X7.5249 Y3.2285
X7.5261 Y3.3315
X7.5285 Y3.4345
X7.5297 Y3.4688
X7.5332 Y3.5374
X7.5356 Y3.5717
X7.5385 Y3.6059
X7.5421 Y3.64
X7.5465 Y3.6741
X7.5518 Y3.708
X7.5583 Y3.7417
X7.5661 Y3.7752
X7.5746 Y3.8052
X7.5839 Y3.8325
X7.5933 Y3.8564
X7.6023 Y3.8764
X7.6117 Y3.8949
X7.6215 Y3.9119
X7.6315 Y3.9274
X7.641 Y3.9409
X7.6503 Y3.9527
X7.6597 Y3.9635
X7.6692 Y3.9733
X7.6829 Y3.9859
X7.6913 Y3.9919
X7.7006 Y3.9964
X7.7106 Y3.9991
X7.7209 Y4
X7.7955
X7.7988 Y3.9997 F64
X7.802 Y3.9989
X7.805 Y3.9978
G2 X7.8167 Y3.9868 I-0.0104 J-0.0228 F96
X7.7846 Y3.9498 I-0.0231 J-0.0124
X7.7421 Y3.9868 I0.027 J0.074
G3 X7.7304 Y3.9978 I-0.0221 J-0.0118
G1 X7.7273 Y3.9989 F64
X7.7241 Y3.9997
X7.7209 Y4
X7.6664 F96
X7.6605 Y3.9997
X7.653 Y3.9987
X7.6449 Y3.997
X7.6357 Y3.9942
X7.6258 Y3.9904
X7.615 Y3.9851
X7.6031 Y3.9782
X7.5908 Y3.9695
X7.5777 Y3.9586
X7.5637 Y3.9449
X7.5489 Y3.928
X7.534 Y3.9079
X7.5185 Y3.883
X7.5028 Y3.8525
X7.4895 Y3.8208
X7.4784 Y3.7884
X7.469 Y3.7553
X7.4611 Y3.7219
X7.4545 Y3.6882
X7.449 Y3.6543
X7.4445 Y3.6203
X7.4407 Y3.5861
X7.4375 Y3.552
X7.4349 Y3.5177
X7.4311 Y3.4491
X7.4285 Y3.3805
X7.4262 Y3.2775
X7.4247 Y3.1402
X7.4239 Y2.8655
X7.4238 Y2.11
X7.4236 Y1.1485
X7.4228 Y1.0112
X7.4217 Y0.9425
X7.4207 Y0.9082
X7.4192 Y0.8739
X7.4171 Y0.8396
X7.414 Y0.8054
X7.4093 Y0.7714
X7.4022 Y0.7378
X7.3904 Y0.7055
X7.3704 Y0.6776
X7.3449 Y0.6547
X7.3158 Y0.6364
X7.2846 Y0.622
X7.2522 Y0.6108
X7.2189 Y0.6021
X7.1853 Y0.5954
X7.1513 Y0.5903
X7.1172 Y0.5862
X7.083 Y0.5831
X7.0488 Y0.5805
X6.9459 Y0.5745
X6.8774 Y0.5706
X6.8431 Y0.5683
X6.8089 Y0.5655
X6.7747 Y0.5622
X6.7406 Y0.5581
X6.7066 Y0.5531
X6.6728 Y0.5471
X6.6393 Y0.5398
X6.6061 Y0.531
X6.5734 Y0.5205
X6.5414 Y0.5081
X6.5116 Y0.4941
X6.4869 Y0.4799
X6.4801 Y0.4752
X6.4714 Y0.468
X6.4643 Y0.4592
X6.4591 Y0.4492
X6.4558 Y0.4384
X6.4547 Y0.4271
Y0.318
X6.4551 Y0.3147 F64
X6.4558 Y0.3116
X6.457 Y0.3085
G3 X6.468 Y0.2969 I0.0227 J0.0104 F96
X6.5057 Y0.3121 I0.0125 J0.0234
X6.4679 Y0.4058 I-0.0748 J0.0243
G2 X6.4568 Y0.4176 I0.0118 J0.0222
G1 X6.4558 Y0.4207 F64
X6.4551 Y0.4239
X6.4547 Y0.4271
Y0.4541 F72
X6.455 Y0.4595
X6.4561 Y0.4648
X6.4578 Y0.4699
X6.4601 Y0.4748
X6.4655 Y0.4841
X6.4726 Y0.4936
X6.4826 Y0.5045
X6.4889 Y0.5104
X6.4969 Y0.5173
X6.5052 Y0.5236
X6.5153 Y0.5308
X6.5274 Y0.5384
X6.541 Y0.546
X6.5574 Y0.5542
X6.5765 Y0.5626
X6.5983 Y0.571
X6.6248 Y0.5798
X6.6567 Y0.5886
X6.6902 Y0.5961
X6.724 Y0.6022
X6.758 Y0.6073
X6.7921 Y0.6115
X6.8262 Y0.615
X6.8947 Y0.6205
X7.0317 Y0.6298
X7.0659 Y0.6327
X7.1001 Y0.6363
X7.1341 Y0.6408
X7.168 Y0.6467
X7.2014 Y0.6546
X7.2339 Y0.6655
X7.2637 Y0.6826
X7.2892 Y0.7056
X7.3102 Y0.7328
X7.3268 Y0.7629
X7.3396 Y0.7947
X7.3493 Y0.8277
X7.3564 Y0.8613
X7.3615 Y0.8952
X7.3652 Y0.9293
X7.3678 Y0.9636
X7.3697 Y0.9979
X7.3718 Y1.0665
X7.3732 Y1.1695
X7.3738 Y1.4099
Y1.7533
X7.3741 Y2.9552
X7.375 Y3.1612
X7.3769 Y3.2985
X7.3786 Y3.3672
X7.3811 Y3.4358
X7.3849 Y3.5044
X7.3875 Y3.5386
X7.3905 Y3.5728
X7.3942 Y3.607
X7.3986 Y3.641
X7.4038 Y3.675
X7.41 Y3.7088
X7.4173 Y3.7423
X7.426 Y3.7755
X7.4312 Y3.7919
X7.4405 Y3.8195
X7.4499 Y3.8435
X7.4602 Y3.8663
X7.4708 Y3.887
X7.4812 Y3.9052
X7.4912 Y3.9208
X7.5014 Y3.9352
X7.5118 Y3.9484
X7.5221 Y3.9602
X7.5319 Y3.9704
X7.5414 Y3.9794
X7.5511 Y3.9877
X7.562 Y3.9944
X7.5741 Y3.9986
X7.5869 Y4
X7.6664
X7.6697 Y3.9997 F64
X7.6728 Y3.9989
X7.6759 Y3.9978
G2 X7.6876 Y3.9868 I-0.0104 J-0.0228 F96
X7.6564 Y3.9479 I-0.0239 J-0.0128
X7.608 Y3.9867 I0.0211 J0.0759
G3 X7.5963 Y3.9977 I-0.022 J-0.0117
G1 X7.5933 Y3.9989 F64
X7.5901 Y3.9997
X7.5869 Y4
X7.5303 F96
X7.5249 Y3.9997
X7.5173 Y3.9987
X7.5087 Y3.9969
X7.4992 Y3.994
X7.489 Y3.9901
X7.4776 Y3.9845
X7.4656 Y3.9774
X7.4526 Y3.9683
X7.4385 Y3.9566
X7.4239 Y3.9423
X7.4088 Y3.9249
X7.3922 Y3.9025
X7.376 Y3.8764
X7.3603 Y3.8458
X7.3469 Y3.8142
X7.3355 Y3.7818
X7.3257 Y3.7489
X7.3174 Y3.7156
X7.3104 Y3.682
X7.3044 Y3.6482
X7.2993 Y3.6142
X7.295 Y3.5801
X7.2914 Y3.546
X7.2883 Y3.5118
X7.2858 Y3.4775
X7.2819 Y3.409
X7.2792 Y3.3404
X7.2767 Y3.2374
X7.275 Y3.1
X7.2741 Y2.8596
X7.2738 Y2.1042
X7.2735 Y1.2801
X7.2725 Y1.1427
X7.2711 Y1.074
X7.2698 Y1.0397
X7.268 Y1.0054
X7.2653 Y0.9712
X7.2614 Y0.9371
X7.2554 Y0.9033
X7.2461 Y0.8702
X7.2297 Y0.8401
X7.2065 Y0.8147
X7.1789 Y0.7942
X7.1488 Y0.7778
X7.117 Y0.7649
X7.0842 Y0.7547
X7.0508 Y0.7466
X7.0171 Y0.74
X6.9832 Y0.7347
X6.9491 Y0.7301
X6.8127 Y0.7141
X6.7787 Y0.7096
X6.7447 Y0.7045
X6.7109 Y0.6986
X6.6773 Y0.6917
X6.6439 Y0.6836
X6.6109 Y0.6742
X6.5783 Y0.6632
X6.5465 Y0.6504
X6.5155 Y0.6355
X6.4894 Y0.6204
X6.4798 Y0.6137
X6.4712 Y0.6064
X6.4642 Y0.5976
X6.459 Y0.5877
X6.4558 Y0.5769
X6.4547 Y0.5658
Y0.4541
X6.4551 Y0.4509 F64
X6.4558 Y0.4477
X6.457 Y0.4446
G3 X6.468 Y0.433 I0.0227 J0.0104 F96
X6.5041 Y0.4464 I0.0121 J0.0228
X6.4679 Y0.5445 I-0.0732 J0.0287
G2 X6.4569 Y0.5562 I0.0118 J0.0221
G1 X6.4558 Y0.5593 F64
X6.4551 Y0.5625
X6.4547 Y0.5658
Y0.593 F72
X6.455 Y0.5984
X6.4561 Y0.6037
X6.4578 Y0.6088
X6.4601 Y0.6137
X6.4655 Y0.623
X6.4724 Y0.6325
X6.4829 Y0.6441
X6.4891 Y0.6501
X6.4971 Y0.6571
X6.506 Y0.6642
X6.5164 Y0.6716
X6.5291 Y0.6799
X6.5431 Y0.688
X6.5604 Y0.6969
X6.5806 Y0.7061
X6.6039 Y0.7153
X6.6325 Y0.7251
X6.6655 Y0.7346
X6.6989 Y0.7427
X6.7326 Y0.7495
X6.7664 Y0.7554
X6.8003 Y0.7607
X6.9364 Y0.7792
X6.9704 Y0.7844
X7.0041 Y0.7907
X7.0375 Y0.7986
X7.0704 Y0.8086
X7.1016 Y0.823
X7.1288 Y0.8438
X7.1516 Y0.8695
X7.17 Y0.8985
X7.1844 Y0.9297
X7.1953 Y0.9623
X7.2034 Y0.9957
X7.2094 Y1.0295
X7.2137 Y1.0635
X7.2167 Y1.0977
X7.2189 Y1.132
X7.2204 Y1.1663
X7.2222 Y1.235
X7.2233 Y1.338
X7.2238 Y1.647
Y2.0591
X7.2241 Y2.8832
X7.225 Y3.0893
X7.2267 Y3.2266
X7.2293 Y3.3296
X7.232 Y3.3982
X7.2359 Y3.4668
X7.2384 Y3.501
X7.2414 Y3.5352
X7.245 Y3.5694
X7.2491 Y3.6035
X7.2541 Y3.6375
X7.2598 Y3.6713
X7.2665 Y3.705
X7.2743 Y3.7384
X7.2835 Y3.7715
X7.2888 Y3.7879
X7.2992 Y3.8175
X7.309 Y3.8416
X7.3196 Y3.8643
X7.3308 Y3.8857
X7.342 Y3.9047
X7.3526 Y3.9208
X7.3632 Y3.9352
X7.374 Y3.9486
X7.3847 Y3.9607
X7.395 Y3.9712
X7.4049 Y3.9803
X7.4146 Y3.9885
X7.4243 Y3.9958
X7.4285 Y3.9981
X7.4332 Y3.9995
X7.438 Y4
X7.5303
X7.5335 Y3.9997 F64
X7.5367 Y3.9989
X7.5398 Y3.9978
G2 X7.5515 Y3.9868 I-0.0104 J-0.0228 F96
X7.5252 Y3.9451 I-0.025 J-0.0134
X7.4592 Y3.9868 I0.0035 J0.0787
G3 X7.4475 Y3.9978 I-0.0221 J-0.0118
G1 X7.4444 Y3.9989 F64
X7.4412 Y3.9997
X7.438 Y4
X7.3933 F96
X7.3866 Y3.9997
X7.3788 Y3.9986
X7.3701 Y3.9968
X7.3604 Y3.9939
X7.35 Y3.9898
X7.3383 Y3.9841
X7.3259 Y3.9768
X7.3125 Y3.9674
X7.298 Y3.9554
X7.2828 Y3.9406
X7.2673 Y3.9228
X7.2501 Y3.8995
X7.2331 Y3.8722
X7.2173 Y3.8417
X7.2038 Y3.8101
X7.1921 Y3.7778
X7.1821 Y3.745
X7.1735 Y3.7118
X7.166 Y3.6782
X7.1596 Y3.6445
X7.1541 Y3.6106
X7.1494 Y3.5766
X7.1453 Y3.5425
X7.1419 Y3.5083
X7.1389 Y3.4741
X7.1343 Y3.4056
X7.131 Y3.337
X7.1278 Y3.234
X7.126 Y3.131
X7.1246 Y2.9593
X7.1239 Y2.5816
X7.1238 Y2.1009
X7.1236 Y1.4484
X7.1228 Y1.3111
X7.1216 Y1.2424
X7.1205 Y1.2081
X7.119 Y1.1738
X7.1169 Y1.1395
X7.1137 Y1.1053
X7.1089 Y1.0713
X7.1018 Y1.0377
X7.0902 Y1.0054
X7.0708 Y0.977
X7.046 Y0.9533
X7.0176 Y0.9339
X6.9871 Y0.9182
X6.9553 Y0.9053
X6.9226 Y0.8947
X6.8895 Y0.8856
X6.8561 Y0.8777
X6.7218 Y0.849
X6.6884 Y0.8411
X6.6552 Y0.8322
X6.6223 Y0.8223
X6.5899 Y0.811
X6.5581 Y0.7981
X6.527 Y0.7834
X6.498 Y0.7671
X6.4805 Y0.7554
X6.4717 Y0.7481
X6.4645 Y0.7393
X6.4591 Y0.7292
X6.4558 Y0.7183
X6.4547 Y0.707
Y0.593
X6.4551 Y0.5897 F64
X6.4558 Y0.5865
X6.457 Y0.5835
G3 X6.468 Y0.5719 I0.0227 J0.0104 F96
X6.5023 Y0.5835 I0.0117 J0.022
X6.4679 Y0.6856 I-0.0714 J0.0328
G2 X6.4568 Y0.6974 I0.0118 J0.0222
G1 X6.4558 Y0.7005 F64
X6.4551 Y0.7037
X6.4547 Y0.707
Y0.7334 F72
X6.455 Y0.7388
X6.456 Y0.7441
X6.4577 Y0.7492
X6.4598 Y0.7542
X6.4651 Y0.7636
X6.4722 Y0.7737
X6.4825 Y0.7855
X6.4892 Y0.7921
X6.4966 Y0.7988
X6.5062 Y0.8067
X6.5167 Y0.8145
X6.5298 Y0.8231
X6.5447 Y0.8321
X6.5634 Y0.8421
X6.5847 Y0.8521
X6.6114 Y0.8633
X6.6438 Y0.8749
X6.6766 Y0.885
X6.7097 Y0.894
X6.7764 Y0.9103
X6.8099 Y0.9182
X6.8432 Y0.9265
X6.8762 Y0.9357
X6.9088 Y0.9465
X6.9404 Y0.96
X6.9691 Y0.979
X6.9934 Y1.0032
X7.0133 Y1.0312
X7.0291 Y1.0617
X7.0412 Y1.0938
X7.0503 Y1.1269
X7.0571 Y1.1606
X7.062 Y1.1945
X7.0655 Y1.2287
X7.068 Y1.263
X7.0698 Y1.2972
X7.0719 Y1.3659
X7.0732 Y1.4689
X7.0738 Y1.7093
Y2.3617
X7.0743 Y2.8768
X7.0756 Y3.0828
X7.0771 Y3.1858
X7.0797 Y3.2888
X7.0825 Y3.3574
X7.0863 Y3.426
X7.0887 Y3.4603
X7.0915 Y3.4945
X7.0949 Y3.5287
X7.0988 Y3.5628
X7.1033 Y3.5968
X7.1085 Y3.6308
X7.1145 Y3.6646
X7.1215 Y3.6982
X7.1296 Y3.7316
X7.139 Y3.7646
X7.1443 Y3.7809
X7.155 Y3.8111
X7.1651 Y3.8358
X7.1762 Y3.8597
X7.1879 Y3.882
X7.1994 Y3.9015
X7.2102 Y3.9179
X7.2213 Y3.933
X7.2325 Y3.9469
X7.2435 Y3.9593
X7.2541 Y3.97
X7.2641 Y3.9793
X7.2748 Y3.9882
X7.2856 Y3.9946
X7.2975 Y3.9986
X7.31 Y4
X7.3933
X7.3966 Y3.9997 F64
X7.3998 Y3.9989
X7.4028 Y3.9978
G2 X7.4146 Y3.9868 I-0.0103 J-0.0228 F96
X7.3845 Y3.9468 I-0.0244 J-0.013
X7.3313 Y3.9868 I0.0162 J0.077
G3 X7.3196 Y3.9978 I-0.0221 J-0.0118
G1 X7.3165 Y3.9989 F64
X7.3133 Y3.9997
X7.31 Y4
X7.2572 F96
X7.2462 Y3.9994
X7.2384 Y3.9984
X7.2295 Y3.9965
X7.2197 Y3.9936
X7.209 Y3.9894
X7.1971 Y3.9836
X7.1846 Y3.9763
X7.1708 Y3.9666
X7.156 Y3.9543
X7.1407 Y3.9394
X7.1246 Y3.921
X7.1071 Y3.8972
X7.0893 Y3.8687
X7.0736 Y3.8382
X7.06 Y3.8067
X7.0481 Y3.7745
X7.0379 Y3.7417
X7.0289 Y3.7086
X7.0212 Y3.6751
X7.0144 Y3.6414
X7.0086 Y3.6076
X7.0035 Y3.5736
X6.9991 Y3.5396
X6.9953 Y3.5055
X6.992 Y3.4713
X6.9892 Y3.437
X6.9847 Y3.3685
X6.9815 Y3.2999
X6.9782 Y3.1969
X6.9763 Y3.094
X6.9747 Y2.9223
X6.9739 Y2.5789
X6.9738 Y2.1325
X6.9735 Y1.583
X6.9726 Y1.4457
X6.9712 Y1.377
X6.9701 Y1.3427
X6.9684 Y1.3084
X6.966 Y1.2742
X6.9624 Y1.24
X6.957 Y1.2061
X6.9489 Y1.1727
X6.9356 Y1.1411
X6.9155 Y1.1132
X6.8906 Y1.0896
X6.8627 Y1.0696
X6.8328 Y1.0527
X6.8017 Y1.0381
X6.7699 Y1.0252
X6.7377 Y1.0133
X6.6728 Y0.9907
X6.6405 Y0.979
X6.6085 Y0.9667
X6.5768 Y0.9534
X6.5458 Y0.9388
X6.5155 Y0.9225
X6.4872 Y0.9046
X6.4781 Y0.8978
X6.4701 Y0.8905
X6.4635 Y0.8819
X6.4587 Y0.8723
X6.4557 Y0.8619
X6.4547 Y0.8511
Y0.7334
X6.4551 Y0.7302 F64
X6.4558 Y0.727
X6.457 Y0.7239
G3 X6.468 Y0.7123 I0.0227 J0.0104 F96
X6.499 Y0.7213 I0.0109 J0.0205
X6.4678 Y0.8297 I-0.0681 J0.0391
G2 X6.4567 Y0.8415 I0.0119 J0.0223
G1 X6.4558 Y0.8447 F64
X6.4551 Y0.8479
X6.4547 Y0.8511
Y0.8778 F72
X6.455 Y0.8832
X6.456 Y0.8885
X6.4576 Y0.8936
X6.4622 Y0.9034
X6.468 Y0.9127
X6.477 Y0.9246
X6.4826 Y0.9308
X6.4894 Y0.9378
X6.4981 Y0.9459
X6.5075 Y0.9539
X6.5199 Y0.9633
X6.5341 Y0.9731
X6.5525 Y0.9845
X6.576 Y0.9975
X6.6068 Y1.0127
X6.6383 Y1.0265
X6.7338 Y1.0651
X6.7651 Y1.0792
X6.7953 Y1.0955
X6.8229 Y1.116
X6.8462 Y1.1412
X6.8653 Y1.1697
X6.8804 Y1.2006
X6.8921 Y1.2329
X6.9009 Y1.266
X6.9074 Y1.2998
X6.9121 Y1.3338
X6.9156 Y1.3679
X6.918 Y1.4022
X6.9198 Y1.4365
X6.9218 Y1.5051
X6.9232 Y1.6081
X6.9238 Y1.8485
X6.924 Y2.6383
X6.9248 Y2.913
X6.9264 Y3.0847
X6.9283 Y3.1877
X6.9316 Y3.2907
X6.9349 Y3.3593
X6.9393 Y3.4278
X6.9421 Y3.462
X6.9453 Y3.4962
X6.949 Y3.5303
X6.9533 Y3.5644
X6.9583 Y3.5984
X6.964 Y3.6323
X6.9704 Y3.666
X6.9779 Y3.6995
X6.9863 Y3.7328
X6.996 Y3.7657
X7.007 Y3.7976
X7.0181 Y3.8257
X7.03 Y3.8518
X7.0421 Y3.8752
X7.0533 Y3.8946
X7.0647 Y3.9123
X7.0763 Y3.9285
X7.088 Y3.9432
X7.099 Y3.9558
X7.1096 Y3.9667
X7.1202 Y3.9767
X7.1336 Y3.9879
X7.1445 Y3.9945
X7.1565 Y3.9986
X7.1692 Y4
X7.2572
X7.2605 Y3.9997 F64
X7.2636 Y3.9989
X7.2667 Y3.9978
G2 X7.2784 Y3.9868 I-0.0104 J-0.0228 F96
X7.2501 Y3.9457 I-0.0248 J-0.0132
X7.1904 Y3.9868 I0.0098 J0.0781
G3 X7.1787 Y3.9978 I-0.0221 J-0.0118
G1 X7.1756 Y3.9989 F64
X7.1725 Y3.9997
X7.1692 Y4
X7.1125 F96
X7.1049 Y3.9996
X7.0969 Y3.9986
X7.0879 Y3.9966
X7.078 Y3.9937
X7.0669 Y3.9894
X7.0551 Y3.9837
X7.0423 Y3.9761
X7.0282 Y3.9662
X7.0135 Y3.954
X6.9977 Y3.9385
X6.9808 Y3.9192
X6.9632 Y3.8954
X6.945 Y3.8662
X6.9293 Y3.8357
X6.9156 Y3.8042
X6.9036 Y3.772
X6.8932 Y3.7393
X6.8841 Y3.7062
X6.876 Y3.6728
X6.869 Y3.6392
X6.8629 Y3.6054
X6.8575 Y3.5715
X6.8528 Y3.5375
X6.8487 Y3.5034
X6.8452 Y3.4693
X6.8421 Y3.4351
X6.837 Y3.3666
X6.8333 Y3.298
X6.8306 Y3.2294
X6.8278 Y3.1264
X6.8257 Y2.9891
X6.8244 Y2.783
X6.8238 Y2.2679
Y2.1306
X6.8235 Y1.7185
X6.8225 Y1.5812
X6.8211 Y1.5125
X6.8199 Y1.4782
X6.8182 Y1.4439
X6.8158 Y1.4096
X6.8122 Y1.3755
X6.8068 Y1.3416
X6.7988 Y1.3082
X6.7863 Y1.2762
X6.7678 Y1.2473
X6.7448 Y1.2218
X6.7189 Y1.1992
X6.691 Y1.1792
X6.662 Y1.1608
X6.6323 Y1.1436
X6.5724 Y1.11
X6.5427 Y1.0927
X6.5137 Y1.0743
X6.4856 Y1.0546
X6.4763 Y1.047
X6.4672 Y1.0378
X6.4604 Y1.0268
X6.4562 Y1.0146
X6.4547 Y1.0017
Y0.8778
X6.4551 Y0.8745 F64
X6.4558 Y0.8713
X6.457 Y0.8683
G3 X6.468 Y0.8567 I0.0227 J0.0104 F96
X6.4921 Y0.8615 I0.0091 J0.017
X6.468 Y0.9806 I-0.0612 J0.0496
G2 X6.457 Y0.9923 I0.0117 J0.022
G1 X6.4558 Y0.9953 F64
X6.4551 Y0.9985
X6.4547 Y1.0017
Y1.0279 F72
X6.455 Y1.0333
X6.4559 Y1.0387
X6.4575 Y1.0438
X6.4617 Y1.0537
X6.4675 Y1.0639
X6.4769 Y1.0772
X6.4832 Y1.0848
X6.4913 Y1.0938
X6.5012 Y1.1038
X6.5144 Y1.1158
X6.5327 Y1.1309
X6.5602 Y1.1514
X6.617 Y1.19
X6.645 Y1.21
X6.6713 Y1.232
X6.6941 Y1.2577
X6.7131 Y1.2863
X6.7282 Y1.3171
X6.7401 Y1.3493
X6.7492 Y1.3824
X6.756 Y1.4161
X6.761 Y1.4501
X6.7647 Y1.4842
X6.7673 Y1.5185
X6.7692 Y1.5527
X6.7715 Y1.6214
X6.773 Y1.7244
X6.7737 Y1.9304
X6.7743 Y2.7202
X6.775 Y2.8919
X6.7769 Y3.0636
X6.779 Y3.1666
X6.7825 Y3.2695
X6.7859 Y3.3381
X6.7905 Y3.4067
X6.7933 Y3.4409
X6.7966 Y3.4751
X6.8003 Y3.5092
X6.8046 Y3.5433
X6.8094 Y3.5773
X6.815 Y3.6112
X6.8213 Y3.6449
X6.8284 Y3.6785
X6.8366 Y3.7119
X6.8458 Y3.7449
X6.8563 Y3.7776
X6.868 Y3.8096
X6.8791 Y3.8356
X6.8906 Y3.8595
X6.9028 Y3.8818
X6.9151 Y3.902
X6.9268 Y3.9192
X6.9381 Y3.9342
X6.9495 Y3.948
X6.961 Y3.9605
X6.9721 Y3.9714
X6.9825 Y3.9808
X6.9901 Y3.9869
X6.9983 Y3.9925
X7.0074 Y3.9966
X7.017 Y3.9992
X7.0269 Y4
X7.1125
X7.1157 Y3.9997 F64
X7.1189 Y3.9989
X7.122 Y3.9978
G2 X7.1337 Y3.9868 I-0.0104 J-0.0228 F96
X7.1044 Y3.9462 I-0.0246 J-0.0131
X7.0481 Y3.9868 I0.0132 J0.0776
G3 X7.0364 Y3.9978 I-0.0221 J-0.0118
G1 X7.0333 Y3.9989 F64
X7.0301 Y3.9997
X7.0269 Y4
X6.9685 F96
X6.9623 Y3.9997
X6.9542 Y3.9986
X6.9452 Y3.9967
X6.9351 Y3.9937
X6.9242 Y3.9894
X6.912 Y3.9835
X6.8991 Y3.9759
X6.885 Y3.966
X6.8697 Y3.9533
X6.8538 Y3.9378
X6.8372 Y3.9188
X6.8193 Y3.8946
X6.8012 Y3.8655
X6.7854 Y3.835
X6.7715 Y3.8036
X6.7593 Y3.7715
X6.7487 Y3.7389
X6.7392 Y3.7058
X6.7309 Y3.6725
X6.7236 Y3.639
X6.7172 Y3.6052
X6.7115 Y3.5714
X6.7065 Y3.5374
X6.7022 Y3.5033
X6.6983 Y3.4692
X6.6949 Y3.435
X6.6894 Y3.3666
X6.6852 Y3.298
X6.6821 Y3.2294
X6.6788 Y3.1265
X6.6768 Y3.0235
X6.675 Y2.8518
X6.6741 Y2.5771
X6.6738 Y2.1307
X6.6734 Y1.8216
X6.6726 Y1.7186
X6.6714 Y1.6499
X6.6703 Y1.6156
X6.6688 Y1.5813
X6.6667 Y1.547
X6.6636 Y1.5128
X6.6591 Y1.4788
X6.6527 Y1.445
X6.6432 Y1.412
X6.6292 Y1.3807
X6.6108 Y1.3517
X6.5893 Y1.3249
X6.5658 Y1.2999
X6.5411 Y1.276
X6.4906 Y1.2295
X6.4725 Y1.2121
X6.465 Y1.2032
X6.4594 Y1.1929
X6.4559 Y1.1818
X6.4547 Y1.1701
Y1.0279
X6.4551 Y1.0247 F64
X6.4558 Y1.0215
X6.457 Y1.0185
G3 X6.468 Y1.0068 I0.0227 J0.0103 F96
X6.5305 Y1.0441 I0.02 J0.0375
X6.4679 Y1.1489 I-0.1181 J0.0006
G2 X6.4569 Y1.1606 I0.0118 J0.0221
G1 X6.4558 Y1.1637 F64
X6.4551 Y1.1669
X6.4547 Y1.1701
Y1.1966 F72
X6.455 Y1.202
X6.4558 Y1.2073
X6.4587 Y1.2177
X6.4639 Y1.2305
X6.4679 Y1.2387
X6.4737 Y1.2491
X6.4819 Y1.2625
X6.5008 Y1.2901
X6.5215 Y1.3175
X6.5418 Y1.3452
X6.5596 Y1.3745
X6.5745 Y1.4055
X6.5865 Y1.4377
X6.5959 Y1.4707
X6.6032 Y1.5042
X6.6087 Y1.5381
X6.6128 Y1.5722
X6.6158 Y1.6064
X6.6181 Y1.6407
X6.6197 Y1.675
X6.6217 Y1.7436
X6.6231 Y1.8466
X6.6238 Y2.087
X6.6244 Y2.7051
X6.6256 Y2.9111
X6.6274 Y3.0485
X6.6298 Y3.1515
X6.6336 Y3.2544
X6.6372 Y3.323
X6.642 Y3.3915
X6.6449 Y3.4257
X6.6482 Y3.4599
X6.652 Y3.494
X6.6562 Y3.5281
X6.6611 Y3.5621
X6.6666 Y3.596
X6.6728 Y3.6298
X6.6798 Y3.6634
X6.6878 Y3.6968
X6.6967 Y3.73
X6.7068 Y3.7628
X6.7183 Y3.7951
X6.7301 Y3.8241
X6.7426 Y3.8509
X6.7552 Y3.8749
X6.767 Y3.8949
X6.7787 Y3.9126
X6.7905 Y3.9289
X6.8025 Y3.9437
X6.814 Y3.9566
X6.8249 Y3.9677
X6.8356 Y3.9775
X6.8485 Y3.9882
X6.8593 Y3.9946
X6.8712 Y3.9986
X6.8837 Y4
X6.9685
X6.9718 Y3.9997 F64
X6.975 Y3.9989
X6.978 Y3.9978
G2 X6.9898 Y3.9868 I-0.0103 J-0.0228 F96
X6.9602 Y3.9463 I-0.0246 J-0.0131
X6.9049 Y3.9867 I0.0142 J0.0775
G3 X6.8932 Y3.9977 I-0.022 J-0.0117
G1 X6.8902 Y3.9989 F64
X6.887 Y3.9997
X6.8837 Y4
X6.8281 F96
X6.8188 Y3.9995
X6.8107 Y3.9985
X6.8015 Y3.9965
X6.7916 Y3.9935
X6.7803 Y3.9891
X6.7683 Y3.9833
X6.7553 Y3.9756
X6.7409 Y3.9655
X6.7259 Y3.9531
X6.7097 Y3.9373
X6.6923 Y3.9174
X6.6741 Y3.8927
X6.6559 Y3.8635
X6.64 Y3.8331
X6.6261 Y3.8017
X6.6139 Y3.7696
X6.6031 Y3.737
X6.5936 Y3.704
X6.5851 Y3.6707
X6.5776 Y3.6372
X6.571 Y3.6035
X6.5651 Y3.5697
X6.5599 Y3.5357
X6.5553 Y3.5017
X6.5513 Y3.4676
X6.5477 Y3.4335
X6.5417 Y3.365
X6.5372 Y3.2965
X6.5337 Y3.2279
X6.53 Y3.125
X6.5276 Y3.022
X6.5257 Y2.8846
X6.5244 Y2.6786
X6.5238 Y2.1292
X6.5231 Y1.8888
X6.5219 Y1.7858
X6.52 Y1.7172
X6.5184 Y1.6829
X6.5162 Y1.6486
X6.5132 Y1.6144
X6.5089 Y1.5803
X6.5029 Y1.5465
X6.4947 Y1.5132
X6.4835 Y1.4807
X6.4696 Y1.4493
X6.4612 Y1.4328
X6.4576 Y1.4243
X6.4555 Y1.4154
X6.4547 Y1.4062
Y1.1966
X6.4551 Y1.1933 F64
X6.4558 Y1.1902
X6.457 Y1.1871
G3 X6.468 Y1.1755 I0.0227 J0.0104 F96
X6.5476 Y1.2122 I0.0259 J0.0485
X6.4679 Y1.3849 I-0.1537 J0.0338
G2 X6.4568 Y1.3966 I0.0118 J0.0222
G1 X6.4558 Y1.3998 F64
X6.4551 Y1.4029
X6.4547 Y1.4062
Y1.4762 F72
X6.4584 Y1.5447
X6.4655 Y1.6475
X6.4689 Y1.7161
X6.471 Y1.7847
X6.4727 Y1.8877
X6.4736 Y2.0594
X6.4745 Y2.6775
X6.4758 Y2.8836
X6.4778 Y3.0209
X6.4802 Y3.1239
X6.4841 Y3.2268
X6.4877 Y3.2954
X6.4923 Y3.3639
X6.4984 Y3.4324
X6.502 Y3.4665
X6.5061 Y3.5006
X6.5107 Y3.5346
X6.5159 Y3.5686
X6.5218 Y3.6024
X6.5284 Y3.6361
X6.5358 Y3.6696
X6.5441 Y3.7029
X6.5535 Y3.736
X6.564 Y3.7687
X6.5758 Y3.8009
X6.5872 Y3.8281
X6.5996 Y3.8538
X6.6124 Y3.8774
X6.625 Y3.8983
X6.6367 Y3.9156
X6.6486 Y3.9315
X6.6605 Y3.9458
X6.6723 Y3.9588
X6.6835 Y3.9699
X6.6941 Y3.9795
X6.7053 Y3.9886
X6.716 Y3.9948
X6.7277 Y3.9987
X6.74 Y4
X6.8281
X6.8314 Y3.9997 F64
X6.8345 Y3.9989
X6.8376 Y3.9978
G2 X6.8493 Y3.9868 I-0.0104 J-0.0228 F96
X6.8211 Y3.9457 I-0.0248 J-0.0132
X6.7613 Y3.9868 I0.0096 J0.0781
G3 X6.7495 Y3.9979 I-0.0222 J-0.0118
G1 X6.7464 Y3.9989 F64
X6.7433 Y3.9997
X6.74 Y4
X6.6799 F96
X6.6745 Y3.9997
X6.6664 Y3.9986
X6.6571 Y3.9966
X6.6469 Y3.9935
X6.6357 Y3.9891
X6.6233 Y3.9829
X6.6101 Y3.9751
X6.5956 Y3.9648
X6.58 Y3.9518
X6.5638 Y3.9358
X6.5465 Y3.9157
X6.528 Y3.8905
X6.51 Y3.8613
X6.4942 Y3.8308
X6.4803 Y3.7994
X6.468 Y3.7673
X6.4571 Y3.7345
X6.4558 Y3.7291
X6.455 Y3.7236
X6.4547 Y3.7181
Y1.4762
X6.4551 Y1.4729 F64
X6.4558 Y1.4697
X6.457 Y1.4667
X6.4586 Y1.4631 Z-0.0596
X6.4602 Y1.4596 Z-0.0587
X6.4617 Y1.4563 Z-0.0572
X6.4631 Y1.4533 Z-0.0551
X6.4643 Y1.4506 Z-0.0526
X6.4653 Y1.4483 Z-0.0496
X6.4662 Y1.4464 Z-0.0462
X6.4668 Y1.445 Z-0.0426
X6.4672 Y1.4442 Z-0.0388
X6.4673 Y1.4439 Z-0.0349
G0 Z0.2
X6.6917 Y3.969
Z-0.0099
G1 Z-0.0349 F64
Y3.9693 Z-0.0388
X6.6915 Y3.9702 Z-0.0426
X6.6912 Y3.9716 Z-0.0462
X6.6909 Y3.9737 Z-0.0496
X6.6904 Y3.9762 Z-0.0526
X6.6899 Y3.9791 Z-0.0551
X6.6893 Y3.9824 Z-0.0572
X6.6887 Y3.986 Z-0.0587
X6.688 Y3.9897 Z-0.0596
X6.6873 Y3.9936 Z-0.0599
X6.6866 Y3.9956
X6.6855 Y3.9973
X6.6839 Y3.9987
X6.682 Y3.9996
X6.6799 Y4
X6.5941 Y4.0002 F96
X6.5887 Y4
X6.5797 Y3.9991
X6.5698 Y3.9972
X6.5593 Y3.9943
X6.5469 Y3.9898
X6.5346 Y3.9842
X6.5206 Y3.9763
X6.506 Y3.9666
X6.49 Y3.9539
X6.4737 Y3.9387
X6.467 Y3.9313
X6.4604 Y3.9226
X6.4556 Y3.913
X6.4527 Y3.9025
X6.4517 Y3.8917
X6.4528 Y3.881
X6.4537 Y3.8778 F64
X6.455 Y3.8748
X6.4568 Y3.8721
G3 X6.4923 Y3.8668 I0.0203 J0.0144 F96
G1 X6.6077 Y3.9554
G3 X6.6035 Y3.9976 I-0.0153 J0.0198
G1 X6.6005 Y3.9989 F64
X6.5973 Y3.9997
X6.5941 Y4.0002
X6.5863 Y4.0004 F96
X6.5785 Y4.0012
X6.5707 Y4.0025
X6.5629 Y4.0046
X6.5458 Y4.0103
X6.5407 Y4.0121
X6.5344 Y4.0135
X6.527 Y4.0146
X6.5192 Y4.015
X6.5098 Y4.0148
X6.5001 Y4.0138
X6.4902 Y4.012
X6.4798 Y4.0092
X6.4704 Y4.0058
X6.4594 Y4.0007
X6.4488 Y3.9932
X6.4403 Y3.9835
X6.4341 Y3.9721
X6.4307 Y3.9596
X6.4303 Y3.9467
X6.4327 Y3.934
X6.438 Y3.9222
X6.4398 Y3.9194 F64
X6.4419 Y3.9169
X6.4444 Y3.9147
G3 X6.4742 Y3.914 I0.0154 J0.0197 F96
G1 X6.5497 Y3.9672
G3 X6.5537 Y4.0045 I-0.0144 J0.0204
G1 X6.5513 Y4.0068 F64
X6.5487 Y4.0087
X6.5458 Y4.0103
X6.5394 Y4.0132 F96
X6.5282 Y4.0195
X6.5238 Y4.0222
X6.5118 Y4.0311
X6.5062 Y4.0348
X6.5015 Y4.0375
X6.4965 Y4.0397
X6.4915 Y4.0415
X6.4855 Y4.0431
X6.4796 Y4.0442
X6.4739 Y4.0448
X6.4672 Y4.0449
X6.4606 Y4.0445
X6.4544 Y4.0436
X6.4476 Y4.0421
X6.4407 Y4.04
X6.4344 Y4.0375
X6.4247 Y4.0313
X6.4163 Y4.0234
X6.4097 Y4.0139
X6.4051 Y4.0034
X6.4027 Y3.9921
X6.4025 Y3.9806
X6.4031 Y3.9782 F64
X6.4042 Y3.976
X6.4057 Y3.9741
X6.4076 Y3.9725
G3 X6.418 Y3.9718 I0.0059 J0.0094 F96
G1 X6.5093 Y4.0124
G3 X6.5159 Y4.0226 I-0.0045 J0.0101
G1 X6.5156 Y4.025 F64
X6.5148 Y4.0273
X6.5135 Y4.0294
X6.5118 Y4.0311
X6.4926 Y4.0453 F96
X6.4887 Y4.0472
X6.477 Y4.0515
X6.4731 Y4.0523
X6.4614 Y4.0532
X6.4575
X6.4452 Y4.0507
X6.4416 Y4.0497
X6.438 Y4.0482
X6.4285 Y4.0429
X6.4254 Y4.0409
X6.4193 Y4.0351
X6.4146 Y4.0302
X6.4124 Y4.0273
X6.4055 Y4.0144
X6.4046 Y4.0117
X6.4028 Y4.0039
X6.4015 Y3.9961
X6.4025 Y3.9805
X6.4035 Y3.9766
X6.408 Y3.9649
X6.4102 Y3.961
X6.4302 Y3.9337
X6.4324 Y3.9312 F64
X6.4348 Y3.9291
X6.4376 Y3.9273
X6.439 Y3.9265 F96
X6.4581 Y3.9171
G2 X6.457 Y3.893 I-0.0058 J-0.0118
G1 X6.4563 Y3.8927
X6.4547 Y3.8916 F64
X6.4534 Y3.8901
X6.4525 Y3.8884
X6.452 Y3.8865
X6.4521 Y3.8845
X6.4531 Y3.8791 F96
X6.4547 Y3.8557
Y3.7181
X6.4551 Y3.7149 F64
X6.4558 Y3.7117
X6.457 Y3.7086
X6.4586 Y3.7051 Z-0.0596
X6.4602 Y3.7016 Z-0.0587
X6.4617 Y3.6983 Z-0.0572
X6.4631 Y3.6952 Z-0.0551
X6.4643 Y3.6925 Z-0.0526
X6.4653 Y3.6902 Z-0.0496
X6.4662 Y3.6883 Z-0.0462
X6.4668 Y3.687 Z-0.0426
X6.4672 Y3.6861 Z-0.0388
X6.4673 Y3.6859 Z-0.0349
G0 Z0.2
X6.1303 Y-0.1561
Z-0.0099
G1 Z-0.0349 F64
X6.1302 Y-0.1558 Z-0.0388
X6.1301 Y-0.1549 Z-0.0426
X6.1299 Y-0.1535 Z-0.0462
X6.1296 Y-0.1514 Z-0.0496
X6.1293 Y-0.1489 Z-0.0526
X6.1289 Y-0.1459 Z-0.0551
X6.1284 Y-0.1426 Z-0.0572
X6.1279 Y-0.139 Z-0.0587
X6.1274 Y-0.1353 Z-0.0596
X6.1269 Y-0.1314 Z-0.0599
X6.1263 Y-0.1293
X6.1252 Y-0.1275
X6.1237 Y-0.1261
X6.1218 Y-0.1251
X6.1197 Y-0.1247
X6.1026 Y-0.1226 F96
X6.0948 Y-0.1211
X6.087 Y-0.119
X6.0771 Y-0.1154
X6.0635 Y-0.1087
X6.0557 Y-0.104
X6.0479 Y-0.0982
X6.0405 Y-0.092
X6.0364 Y-0.0885
X6.0254 Y-0.0812
X6.0113 Y-0.0733
X5.9931 Y-0.0649
X5.969 Y-0.0562
X5.9359 Y-0.0471
X5.9021 Y-0.0407
X5.8681 Y-0.0361
X5.8339 Y-0.0329
X5.7996 Y-0.0305
X5.7653 Y-0.0289
X5.6967 Y-0.0268
X5.5937 Y-0.0254
X5.3533 Y-0.0247
X4.6171 Y-0.0246
X4.6043 Y-0.0261
X4.5921 Y-0.0304
X4.5813 Y-0.0374
X4.5723 Y-0.0466
X4.5656 Y-0.0576
X4.5644 Y-0.0607 F64
X4.5635 Y-0.0638
X4.5631 Y-0.0671
X4.563 Y-0.07 F96
X4.5633 Y-0.0729
X4.5638 Y-0.0744
X4.5648 Y-0.0757
X4.566 Y-0.0766
X4.5675 Y-0.077
X4.5691
X4.5705 Y-0.0771
X4.5718 Y-0.0777
X4.5728 Y-0.0788
X4.5732 Y-0.0802
X4.573 Y-0.0816
X4.5723 Y-0.0829
X4.5711 Y-0.0837
X4.5701 Y-0.084
X4.5689 Y-0.0839
X4.5679 Y-0.0834
X4.5671 Y-0.0826
G2 X4.563 Y-0.0671 I0.0209 J0.0138
G1 X4.5635 Y-0.0638 F64
X4.5644 Y-0.0607
X4.5656 Y-0.0576
X4.5712 Y-0.0452 F72
X4.5739 Y-0.0374
X4.5757 Y-0.0323
X4.5785 Y-0.0277
X4.5819 Y-0.0235
X4.5859 Y-0.0198
X4.5902 Y-0.0165
X4.5995 Y-0.011
X4.6127 Y-0.005
X4.6217 Y-0.0016
X4.6331 Y0.0021
X4.6476 Y0.006
X4.6666 Y0.01
X4.6926 Y0.0144
X4.7267 Y0.0183
X4.761 Y0.0208
X4.7953 Y0.0224
X4.8639 Y0.0241
X4.9669 Y0.025
X5.3447 Y0.0253
X5.5507 Y0.0247
X5.6537 Y0.0236
X5.7224 Y0.0219
X5.7567 Y0.0206
X5.791 Y0.0188
X5.8252 Y0.0163
X5.8594 Y0.0128
X5.8764 Y0.0105
X5.9075 Y0.0054
X5.9333 Y-0.0001
X5.9551 Y-0.0058
X5.9751 Y-0.0123
X5.9862 Y-0.0178
X5.9959 Y-0.0256
X6.0037 Y-0.0352
X6.0093 Y-0.0463
X6.0101 Y-0.0495 F64
X6.0106 Y-0.0527
Y-0.056
X6.0102 Y-0.0589 F96
X6.0095 Y-0.0618
X6.0088 Y-0.0632
X6.0077 Y-0.0643
X6.0063 Y-0.065
X6.0048 Y-0.0653
X6.0032 Y-0.065
X6.0018 Y-0.0649
X6.0004 Y-0.0654
X5.9993 Y-0.0663
X5.9987 Y-0.0676
Y-0.0691
X5.9992 Y-0.0704
X6.0003 Y-0.0714
X6.0013 Y-0.0718
X6.0025 Y-0.0719
X6.0035 Y-0.0715
X6.0044 Y-0.0708
G3 X6.0106 Y-0.056 I-0.0188 J0.0165
G1 Y-0.0527 F64
X6.0101 Y-0.0495
X6.0093 Y-0.0463
X6.0059 Y-0.0374 F96
X6.0037 Y-0.0296
X6.0011 Y-0.016
X6.0009 Y-0.014
X6.0001 Y-0.0086
X5.9984 Y-0.0035
X5.996 Y0.0021
X5.9929 Y0.008
X5.9884 Y0.0149
X5.9829 Y0.0222
X5.9758 Y0.0301
X5.9667 Y0.0388
X5.9555 Y0.0478
X5.9418 Y0.0572
X5.9245 Y0.067
X5.9026 Y0.0773
X5.8746 Y0.0878
X5.8416 Y0.0972
X5.808 Y0.1043
X5.7741 Y0.1096
X5.74 Y0.1135
X5.7058 Y0.1165
X5.6715 Y0.1188
X5.6372 Y0.1204
X5.5686 Y0.1226
X5.4656 Y0.1242
X5.2939 Y0.1251
X5.0192
X4.9161 Y0.1243
X4.8475 Y0.123
X4.8132 Y0.1217
X4.7789 Y0.1198
X4.7446 Y0.117
X4.7105 Y0.1131
X4.6766 Y0.1076
X4.6454 Y0.1005
X4.6222 Y0.0932
X4.6162 Y0.0907
X4.606 Y0.0854
X4.597 Y0.0781
X4.5897 Y0.0693
X4.5842 Y0.0591
X4.5809 Y0.0481
X4.5797 Y0.0367
Y0.0094
X4.5793 Y-0.0027
X4.5795 Y-0.0059 F64
X4.5801 Y-0.0091
X4.5812 Y-0.0122
G3 X4.5917 Y-0.0243 I0.0231 J0.0095 F96
X4.6123 Y-0.0083 I0.0071 J0.0121
X4.593 Y0.0155 I-0.0379 J-0.011
G2 X4.582 Y0.0272 I0.0117 J0.0221
G1 X4.5808 Y0.0302 F64
X4.5801 Y0.0334
X4.5797 Y0.0367
Y0.0625 F72
X4.58 Y0.0679
X4.5809 Y0.0732
X4.5825 Y0.0783
X4.5848 Y0.0832
X4.5876 Y0.0879
X4.5907 Y0.0922
X4.598 Y0.1002
X4.6068 Y0.1079
X4.6187 Y0.1163
X4.6262 Y0.1209
X4.6354 Y0.1259
X4.6452 Y0.1306
X4.6575 Y0.1358
X4.6718 Y0.141
X4.6894 Y0.1465
X4.7102 Y0.1519
X4.7369 Y0.1575
X4.7708 Y0.1629
X4.8049 Y0.1666
X4.8391 Y0.1693
X4.8734 Y0.1711
X4.9421 Y0.1733
X5.0451 Y0.1747
X5.2511 Y0.1751
X5.4228 Y0.1744
X5.5258 Y0.1731
X5.5945 Y0.1713
X5.6288 Y0.17
X5.6631 Y0.1682
X5.6973 Y0.1658
X5.7315 Y0.1627
X5.7656 Y0.1586
X5.7996 Y0.1534
X5.8277 Y0.1476
X5.8529 Y0.1412
X5.8752 Y0.1344
X5.8946 Y0.1273
X5.9116 Y0.1202
X5.9265 Y0.1132
X5.9394 Y0.1062
X5.9508 Y0.0993
X5.9611 Y0.0925
X5.9702 Y0.0857
X5.9808 Y0.0768
X5.9889 Y0.0677
X5.995 Y0.0572
X5.9987 Y0.0456
X6 Y0.0335
Y0.0094
X6.0009 Y-0.014
X6.0006 Y-0.0173 F64
X6 Y-0.0204
X5.999 Y-0.0235
G2 X5.9884 Y-0.0356 I-0.0231 J0.0095 F96
X5.966 Y-0.0228 I-0.0075 J0.0129
X5.9868 Y0.0123 I0.0393 J0.0004
G3 X5.9978 Y0.024 I-0.0118 J0.0221
G1 X5.9989 Y0.0271 F64
X5.9997 Y0.0303
X6 Y0.0335
Y0.0797 F96
X5.9997 Y0.0858
X5.9989 Y0.0918
X5.9975 Y0.0984
X5.9953 Y0.1057
X5.9921 Y0.1139
X5.9879 Y0.1226
X5.9824 Y0.132
X5.9752 Y0.1422
X5.9664 Y0.1528
X5.9554 Y0.1641
X5.9418 Y0.1759
X5.9258 Y0.1878
X5.906 Y0.2001
X5.8815 Y0.2127
X5.8511 Y0.2255
X5.8184 Y0.2361
X5.7851 Y0.2446
X5.7515 Y0.2513
X5.7175 Y0.2566
X5.6834 Y0.2607
X5.6493 Y0.264
X5.615 Y0.2666
X5.5807 Y0.2686
X5.5121 Y0.2713
X5.4091 Y0.2735
X5.2718 Y0.2747
X5.1001
X4.9971 Y0.2737
X4.9284 Y0.272
X4.8941 Y0.2706
X4.8598 Y0.2686
X4.8256 Y0.2659
X4.7914 Y0.2623
X4.7574 Y0.2574
X4.7237 Y0.2512
X4.6903 Y0.2431
X4.6582 Y0.2331
X4.6317 Y0.2224
X4.6104 Y0.2117
X4.6079 Y0.2102
X4.5983 Y0.203
X4.5904 Y0.194
X4.5846 Y0.1836
X4.5809 Y0.1722
X4.5797 Y0.1603
Y0.0625
X4.5801 Y0.0592 F64
X4.5808 Y0.056
X4.582 Y0.053
G3 X4.593 Y0.0413 I0.0227 J0.0103 F96
X4.6345 Y0.0644 I0.0133 J0.0249
X4.593 Y0.1391 I-0.0786 J0.0052
G2 X4.582 Y0.1508 I0.0117 J0.0221
G1 X4.5808 Y0.1538 F64
X4.5801 Y0.157
X4.5797 Y0.1603
Y0.1873 F72
X4.58 Y0.1927
X4.5811 Y0.198
X4.5829 Y0.2031
X4.5852 Y0.2079
X4.5911 Y0.217
X4.5985 Y0.2259
X4.6075 Y0.2348
X4.6137 Y0.2401
X4.621 Y0.2457
X4.6285 Y0.251
X4.6381 Y0.257
X4.6491 Y0.2631
X4.6614 Y0.2692
X4.6764 Y0.2759
X4.6935 Y0.2824
X4.7139 Y0.2891
X4.7389 Y0.2959
X4.7692 Y0.3027
X4.803 Y0.3085
X4.8371 Y0.3129
X4.8713 Y0.3162
X4.9055 Y0.3186
X4.9398 Y0.3204
X5.0085 Y0.3227
X5.1115 Y0.3242
X5.2488 Y0.3245
X5.3862 Y0.3236
X5.4892 Y0.3215
X5.5578 Y0.3189
X5.5921 Y0.3171
X5.6263 Y0.3147
X5.6605 Y0.3117
X5.6947 Y0.3079
X5.7287 Y0.3031
X5.7625 Y0.2971
X5.7945 Y0.29
X5.8231 Y0.2822
X5.8481 Y0.274
X5.869 Y0.2661
X5.8878 Y0.2578
X5.905 Y0.2493
X5.9206 Y0.2405
X5.9345 Y0.2318
X5.9466 Y0.2234
X5.9574 Y0.2151
X5.9673 Y0.2066
X5.9763 Y0.1982
X5.9855 Y0.1885
X5.9917 Y0.1801
X5.9963 Y0.1706
X5.9991 Y0.1605
X6 Y0.1501
Y0.0797
X5.9997 Y0.0764 F64
X5.9989 Y0.0732
X5.9978 Y0.0702
G2 X5.9868 Y0.0584 I-0.0228 J0.0103 F96
X5.9749 Y0.0554 I-0.0119 J0.0224
G1 Y0.0555
G2 X5.9517 Y0.0909 I0 J0.0253
X5.9868 Y0.1288 I0.0721 J-0.0315
G3 X5.9978 Y0.1406 I-0.0118 J0.0221
G1 X5.9989 Y0.1436 F64
X5.9997 Y0.1468
X6 Y0.1501
Y0.201 F96
X5.9997 Y0.2079
X5.9987 Y0.2148
X5.9971 Y0.2226
X5.9946 Y0.231
X5.9909 Y0.2405
X5.986 Y0.2506
X5.9796 Y0.2614
X5.9714 Y0.2731
X5.9612 Y0.2854
X5.9488 Y0.2981
X5.9333 Y0.3116
X5.9142 Y0.3257
X5.8917 Y0.3398
X5.8638 Y0.3541
X5.8321 Y0.3674
X5.7995 Y0.3783
X5.7664 Y0.3873
X5.7328 Y0.3946
X5.699 Y0.4006
X5.665 Y0.4055
X5.6309 Y0.4095
X5.5967 Y0.4127
X5.5625 Y0.4153
X5.5282 Y0.4174
X5.4596 Y0.4204
X5.391 Y0.4222
X5.288 Y0.4237
X5.1849 Y0.424
X5.0819 Y0.4233
X5.0133 Y0.4219
X4.9789 Y0.4208
X4.9446 Y0.4192
X4.9104 Y0.4172
X4.8761 Y0.4144
X4.842 Y0.4109
X4.8079 Y0.4062
X4.7741 Y0.4005
X4.7405 Y0.3933
X4.7073 Y0.3844
X4.6748 Y0.3736
X4.6443 Y0.361
X4.6193 Y0.3483
X4.6075 Y0.341
X4.5981 Y0.3338
X4.5903 Y0.3248
X4.5845 Y0.3144
X4.5809 Y0.3031
X4.5797 Y0.2913
Y0.1873
X4.5801 Y0.184 F64
X4.5808 Y0.1809
X4.582 Y0.1778
G3 X4.593 Y0.1662 I0.0227 J0.0104 F96
X4.633 Y0.1851 I0.013 J0.0243
X4.5929 Y0.27 I-0.0771 J0.0155
G2 X4.5818 Y0.2818 I0.0118 J0.0222
G1 X4.5808 Y0.2849 F64
X4.5801 Y0.2881
X4.5797 Y0.2913
Y0.318 F72
X4.58 Y0.3234
X4.5811 Y0.3287
X4.5828 Y0.3338
X4.585 Y0.3387
X4.5906 Y0.348
X4.5972 Y0.3566
X4.6073 Y0.3673
X4.613 Y0.3726
X4.6199 Y0.3784
X4.6288 Y0.3851
X4.6379 Y0.3913
X4.6491 Y0.3982
X4.6622 Y0.4054
X4.6771 Y0.4126
X4.6948 Y0.4202
X4.7161 Y0.4281
X4.74 Y0.4357
X4.7694 Y0.4434
X4.803 Y0.4505
X4.8369 Y0.4562
X4.8709 Y0.4606
X4.9051 Y0.464
X4.9393 Y0.4666
X4.9736 Y0.4687
X5.0422 Y0.4714
X5.1109 Y0.4729
X5.2139 Y0.4736
X5.3169 Y0.473
X5.4199 Y0.471
X5.4885 Y0.4686
X5.5228 Y0.4668
X5.5571 Y0.4647
X5.5914 Y0.462
X5.6255 Y0.4587
X5.6596 Y0.4547
X5.6936 Y0.4498
X5.7274 Y0.4438
X5.761 Y0.4366
X5.7914 Y0.4288
X5.8185 Y0.4203
X5.8437 Y0.4111
X5.8666 Y0.4015
X5.8865 Y0.3919
X5.9036 Y0.3826
X5.9195 Y0.373
X5.934 Y0.3632
X5.947 Y0.3534
X5.9583 Y0.3441
X5.9684 Y0.3349
X5.9775 Y0.3257
X5.9869 Y0.3152
X5.9925 Y0.307
X5.9966 Y0.2979
X5.9991 Y0.2882
X6 Y0.2783
Y0.201
X5.9997 Y0.1977 F64
X5.9989 Y0.1945
X5.9978 Y0.1915
G2 X5.9868 Y0.1797 I-0.0228 J0.0103 F96
X5.9487 Y0.2114 I-0.0126 J0.0236
X5.9868 Y0.2571 I0.0751 J-0.0238
G3 X5.9978 Y0.2688 I-0.0118 J0.0221
G1 X5.9989 Y0.2719 F64
X5.9997 Y0.275
X6 Y0.2783
Y0.3293 F96
X5.9995 Y0.3389
X5.9986 Y0.3462
X5.9968 Y0.3546
X5.9941 Y0.3636
X5.9902 Y0.3735
X5.9849 Y0.3845
X5.9781 Y0.3959
X5.9694 Y0.4084
X5.9582 Y0.4219
X5.9448 Y0.4356
X5.9281 Y0.4502
X5.9076 Y0.4654
X5.8826 Y0.4809
X5.8521 Y0.4966
X5.8204 Y0.5099
X5.788 Y0.521
X5.7549 Y0.5304
X5.7215 Y0.5382
X5.6878 Y0.5448
X5.6539 Y0.5503
X5.6198 Y0.5548
X5.5857 Y0.5586
X5.5515 Y0.5617
X5.5173 Y0.5642
X5.4487 Y0.568
X5.3801 Y0.5705
X5.3114 Y0.5719
X5.2084 Y0.5728
X5.1397 Y0.5724
X5.071 Y0.5711
X5.0024 Y0.5687
X4.9681 Y0.5668
X4.9339 Y0.5644
X4.8997 Y0.5613
X4.8655 Y0.5575
X4.8315 Y0.5527
X4.7977 Y0.5467
X4.7641 Y0.5395
X4.7309 Y0.5307
X4.6982 Y0.5203
X4.6662 Y0.5079
X4.6365 Y0.4939
X4.6118 Y0.4797
X4.6051 Y0.4751
X4.5964 Y0.4678
X4.5893 Y0.459
X4.5841 Y0.449
X4.5808 Y0.4382
X4.5797 Y0.427
Y0.318
X4.5801 Y0.3147 F64
X4.5808 Y0.3116
X4.582 Y0.3085
G3 X4.593 Y0.2969 I0.0227 J0.0104 F96
X4.6308 Y0.3122 I0.0125 J0.0234
X4.5929 Y0.4057 I-0.0749 J0.0241
G2 X4.5818 Y0.4174 I0.0118 J0.0222
G1 X4.5808 Y0.4205 F64
X4.5801 Y0.4237
X4.5797 Y0.427
Y0.4541 F72
X4.58 Y0.4595
X4.5811 Y0.4648
X4.5828 Y0.4699
X4.5877 Y0.4796
X4.5937 Y0.4885
X4.6027 Y0.4992
X4.6141 Y0.5104
X4.6221 Y0.5173
X4.6303 Y0.5236
X4.6406 Y0.5307
X4.6526 Y0.5383
X4.6662 Y0.5459
X4.6826 Y0.5541
X4.7016 Y0.5625
X4.7232 Y0.5707
X4.7495 Y0.5793
X4.7807 Y0.5879
X4.8142 Y0.5954
X4.848 Y0.6014
X4.882 Y0.6063
X4.9161 Y0.6102
X4.9503 Y0.6134
X4.9846 Y0.6158
X5.0189 Y0.6178
X5.0875 Y0.6204
X5.1561 Y0.6217
X5.2248 Y0.6221
X5.2935 Y0.6216
X5.3622 Y0.6203
X5.4308 Y0.6181
X5.4994 Y0.6145
X5.5336 Y0.6121
X5.5679 Y0.6091
X5.602 Y0.6056
X5.6361 Y0.6014
X5.6701 Y0.5963
X5.7039 Y0.5903
X5.7374 Y0.5831
X5.7707 Y0.5745
X5.8012 Y0.5652
X5.8292 Y0.5551
X5.8536 Y0.545
X5.8741 Y0.5353
X5.8935 Y0.5249
X5.9112 Y0.5143
X5.9271 Y0.5037
X5.9406 Y0.4936
X5.9528 Y0.4837
X5.964 Y0.4736
X5.9741 Y0.4635
X5.9867 Y0.4493
X5.9924 Y0.441
X5.9966 Y0.4319
X5.9991 Y0.4221
X6 Y0.4121
Y0.3293
X5.9997 Y0.3261 F64
X5.9989 Y0.3229
X5.9978 Y0.3198
G2 X5.9868 Y0.3081 I-0.0228 J0.0104 F96
X5.9469 Y0.3383 I-0.013 J0.0243
X5.9868 Y0.391 I0.0769 J-0.0168
G3 X5.9977 Y0.4027 I-0.0118 J0.022
G1 X5.9989 Y0.4057 F64
X5.9997 Y0.4089
X6 Y0.4121
Y0.4697 F96
X5.9997 Y0.4751
X5.9986 Y0.483
X5.9967 Y0.4916
X5.9937 Y0.5012
X5.9894 Y0.5118
X5.9838 Y0.523
X5.9763 Y0.5355
X5.9667 Y0.5487
X5.9551 Y0.5625
X5.9403 Y0.5772
X5.9219 Y0.5929
X5.8997 Y0.609
X5.8726 Y0.6254
X5.8419 Y0.6408
X5.8102 Y0.6539
X5.7778 Y0.6651
X5.7448 Y0.6746
X5.7114 Y0.6828
X5.6778 Y0.6897
X5.6439 Y0.6955
X5.6099 Y0.7005
X5.5759 Y0.7046
X5.5417 Y0.7081
X5.5075 Y0.7111
X5.4732 Y0.7135
X5.4047 Y0.7171
X5.336 Y0.7194
X5.2673 Y0.7207
X5.1987 Y0.7209
X5.13 Y0.7202
X5.0613 Y0.7182
X5.027 Y0.7167
X4.9928 Y0.7147
X4.9585 Y0.7122
X4.9243 Y0.709
X4.8902 Y0.7051
X4.8562 Y0.7002
X4.8224 Y0.6944
X4.7888 Y0.6873
X4.7555 Y0.679
X4.7226 Y0.6692
X4.6902 Y0.6576
X4.6587 Y0.6441
X4.6294 Y0.629
X4.6033 Y0.6125
X4.5952 Y0.6053
X4.5886 Y0.5966
X4.5837 Y0.5869
X4.5807 Y0.5765
X4.5797 Y0.5656
Y0.4541
X4.5801 Y0.4509 F64
X4.5808 Y0.4477
X4.582 Y0.4446
G3 X4.593 Y0.433 I0.0227 J0.0104 F96
X4.6292 Y0.4465 I0.0121 J0.0228
X4.5929 Y0.5444 I-0.0733 J0.0285
G2 X4.5819 Y0.5561 I0.0118 J0.0221
G1 X4.5808 Y0.5592 F64
X4.5801 Y0.5624
X4.5797 Y0.5656
Y0.5921 F72
X4.58 Y0.5975
X4.581 Y0.6028
X4.5827 Y0.6079
X4.5874 Y0.6177
X4.5936 Y0.627
X4.6021 Y0.6375
X4.6074 Y0.6432
X4.6142 Y0.6498
X4.6216 Y0.6563
X4.6303 Y0.6632
X4.6413 Y0.6711
X4.6527 Y0.6784
X4.6675 Y0.687
X4.6833 Y0.6951
X4.7031 Y0.7041
X4.7262 Y0.7133
X4.7528 Y0.7224
X4.785 Y0.7317
X4.8184 Y0.7396
X4.8521 Y0.7462
X4.8861 Y0.7516
X4.9201 Y0.756
X4.9543 Y0.7596
X4.9885 Y0.7625
X5.0227 Y0.7648
X5.057 Y0.7666
X5.1257 Y0.769
X5.1943 Y0.77
X5.263 Y0.7699
X5.3317 Y0.7688
X5.4003 Y0.7665
X5.4689 Y0.7628
X5.5031 Y0.7604
X5.5374 Y0.7574
X5.5715 Y0.7539
X5.6056 Y0.7497
X5.6396 Y0.7448
X5.6734 Y0.739
X5.7071 Y0.7322
X5.7405 Y0.7243
X5.7736 Y0.7151
X5.7899 Y0.7098
X5.8193 Y0.6993
X5.8453 Y0.6886
X5.8667 Y0.6785
X5.8871 Y0.6677
X5.9059 Y0.6565
X5.9227 Y0.6453
X5.937 Y0.6348
X5.9497 Y0.6244
X5.9615 Y0.6139
X5.9721 Y0.6033
X5.9813 Y0.5933
X5.9866 Y0.5869
X5.9923 Y0.5786
X5.9965 Y0.5695
X5.9991 Y0.5597
X6 Y0.5497
Y0.4697
X5.9997 Y0.4665 F64
X5.9989 Y0.4633
X5.9978 Y0.4602
G2 X5.9868 Y0.4485 I-0.0228 J0.0104 F96
X5.9477 Y0.4796 I-0.0128 J0.024
X5.9867 Y0.5286 I0.0761 J-0.0206
G3 X5.9977 Y0.5402 I-0.0117 J0.022
G1 X5.9989 Y0.5432 F64
X5.9997 Y0.5464
X6 Y0.5497
Y0.6024 F96
X5.9995 Y0.6128
X5.9985 Y0.6206
X5.9966 Y0.6292
X5.9937 Y0.639
X5.9896 Y0.6494
X5.984 Y0.6611
X5.9766 Y0.6736
X5.9673 Y0.6869
X5.9554 Y0.7012
X5.9405 Y0.7164
X5.9226 Y0.732
X5.8995 Y0.7491
X5.8722 Y0.7661
X5.8417 Y0.7819
X5.8102 Y0.7954
X5.7779 Y0.807
X5.745 Y0.8171
X5.7118 Y0.8257
X5.6783 Y0.8331
X5.6445 Y0.8395
X5.6106 Y0.845
X5.5766 Y0.8497
X5.5425 Y0.8537
X5.5083 Y0.857
X5.4741 Y0.8599
X5.4398 Y0.8622
X5.3713 Y0.8657
X5.3026 Y0.8678
X5.2339 Y0.8687
X5.1653 Y0.8683
X5.0966 Y0.8667
X5.0623 Y0.8653
X5.028 Y0.8634
X4.9937 Y0.861
X4.9595 Y0.8581
X4.9254 Y0.8545
X4.8913 Y0.8501
X4.8574 Y0.8447
X4.8237 Y0.8384
X4.7902 Y0.8309
X4.757 Y0.8221
X4.7242 Y0.8118
X4.692 Y0.7999
X4.6605 Y0.7861
X4.6308 Y0.7705
X4.606 Y0.7548
X4.603 Y0.7526
X4.595 Y0.7454
X4.5885 Y0.7368
X4.5837 Y0.7271
X4.5807 Y0.7167
X4.5797 Y0.706
Y0.5921
X4.5801 Y0.5889 F64
X4.5808 Y0.5857
X4.582 Y0.5826
G3 X4.593 Y0.571 I0.0227 J0.0104 F96
X4.6275 Y0.5827 I0.0117 J0.0221
X4.5929 Y0.6847 I-0.0716 J0.0326
G2 X4.5819 Y0.6964 I0.0118 J0.0221
G1 X4.5808 Y0.6995 F64
X4.5801 Y0.7027
X4.5797 Y0.706
Y0.7325 F72
X4.58 Y0.7379
X4.581 Y0.7432
X4.5827 Y0.7484
X4.5874 Y0.7581
X4.5935 Y0.7675
X4.6021 Y0.7784
X4.6075 Y0.7841
X4.6144 Y0.7909
X4.622 Y0.7976
X4.6308 Y0.8047
X4.6421 Y0.8129
X4.6538 Y0.8206
X4.669 Y0.8295
X4.6853 Y0.838
X4.7056 Y0.8474
X4.7297 Y0.8572
X4.7573 Y0.8669
X4.7903 Y0.8766
X4.8236 Y0.8847
X4.8573 Y0.8916
X4.8911 Y0.8973
X4.9252 Y0.902
X4.9593 Y0.9059
X4.9935 Y0.9091
X5.0277 Y0.9117
X5.062 Y0.9137
X5.0963 Y0.9153
X5.1649 Y0.9172
X5.2336 Y0.9177
X5.3023 Y0.9169
X5.3709 Y0.9148
X5.4395 Y0.9113
X5.4738 Y0.9089
X5.508 Y0.906
X5.5422 Y0.9025
X5.5762 Y0.8985
X5.6103 Y0.8937
X5.6442 Y0.8882
X5.6779 Y0.8818
X5.7114 Y0.8744
X5.7447 Y0.8659
X5.7776 Y0.8561
X5.7938 Y0.8504
X5.8226 Y0.8396
X5.8488 Y0.8282
X5.8703 Y0.8176
X5.8904 Y0.8064
X5.9088 Y0.795
X5.9255 Y0.7835
X5.9399 Y0.7725
X5.9524 Y0.7619
X5.9639 Y0.7512
X5.9742 Y0.7405
X5.9834 Y0.7302
X5.9872 Y0.7254
X5.9942 Y0.7143
X5.9985 Y0.702
X6 Y0.689
Y0.6024
X5.9997 Y0.5991 F64
X5.9989 Y0.5959
X5.9978 Y0.5929
G2 X5.9868 Y0.5811 I-0.0228 J0.0103 F96
X5.9458 Y0.6101 I-0.0132 J0.0248
X5.9867 Y0.6679 I0.078 J-0.0118
G3 X5.9976 Y0.6795 I-0.0117 J0.0219
G1 X5.9989 Y0.6825 F64
X5.9997 Y0.6857
X6 Y0.689
Y0.7428 F96
X5.9995 Y0.7528
X5.9984 Y0.7608
X5.9966 Y0.7695
X5.9936 Y0.7794
X5.9894 Y0.7902
X5.9838 Y0.8019
X5.9761 Y0.8148
X5.9666 Y0.8283
X5.9547 Y0.8428
X5.9395 Y0.8584
X5.9206 Y0.8748
X5.8975 Y0.8919
X5.869 Y0.9097
X5.8384 Y0.9254
X5.8069 Y0.939
X5.7747 Y0.9509
X5.7419 Y0.9612
X5.7088 Y0.9701
X5.6753 Y0.9778
X5.6416 Y0.9845
X5.6078 Y0.9903
X5.5738 Y0.9953
X5.5397 Y0.9996
X5.5056 Y1.0033
X5.4714 Y1.0064
X5.4372 Y1.009
X5.4029 Y1.0112
X5.3343 Y1.0142
X5.2656 Y1.0158
X5.1969 Y1.016
X5.1283 Y1.0147
X5.094 Y1.0135
X5.0597 Y1.0118
X5.0254 Y1.0096
X4.9912 Y1.0069
X4.957 Y1.0036
X4.9229 Y0.9996
X4.8889 Y0.9947
X4.855 Y0.989
X4.8214 Y0.9822
X4.788 Y0.9742
X4.7549 Y0.9649
X4.7223 Y0.9542
X4.6903 Y0.9418
X4.659 Y0.9276
X4.6291 Y0.9114
X4.6025 Y0.894
X4.5947 Y0.8867
X4.5883 Y0.8782
X4.5836 Y0.8686
X4.5807 Y0.8584
X4.5797 Y0.8477
Y0.7325
X4.5801 Y0.7293 F64
X4.5808 Y0.7261
X4.582 Y0.7231
G3 X4.593 Y0.7114 I0.0227 J0.0103 F96
X4.6264 Y0.7221 I0.0115 J0.0216
X4.5929 Y0.8265 I-0.0705 J0.035
G2 X4.5819 Y0.8382 I0.0118 J0.0221
G1 X4.5808 Y0.8413 F64
X4.5801 Y0.8445
X4.5797 Y0.8477
Y0.8738 F72
X4.58 Y0.8792
X4.5809 Y0.8846
X4.5826 Y0.8897
X4.5872 Y0.8995
X4.5932 Y0.909
X4.6017 Y0.9199
X4.6071 Y0.9258
X4.6141 Y0.9327
X4.6216 Y0.9395
X4.6305 Y0.9468
X4.6417 Y0.955
X4.6535 Y0.9629
X4.6687 Y0.972
X4.6853 Y0.9809
X4.7057 Y0.9906
X4.73 Y1.0007
X4.7585 Y1.0109
X4.7914 Y1.021
X4.8246 Y1.0294
X4.8582 Y1.0366
X4.892 Y1.0426
X4.926 Y1.0476
X4.9601 Y1.0518
X4.9943 Y1.0553
X5.0285 Y1.0581
X5.0627 Y1.0604
X5.097 Y1.0622
X5.1313 Y1.0635
X5.2 Y1.0649
X5.2687 Y1.0647
X5.3373 Y1.0631
X5.3717 Y1.0618
X5.4059 Y1.06
X5.4402 Y1.0578
X5.4744 Y1.0551
X5.5086 Y1.0519
X5.5428 Y1.0481
X5.5768 Y1.0437
X5.6108 Y1.0386
X5.6446 Y1.0327
X5.6783 Y1.0259
X5.7117 Y1.0181
X5.7449 Y1.0092
X5.7777 Y0.999
X5.8091 Y0.9877
X5.8343 Y0.9772
X5.8587 Y0.9657
X5.8811 Y0.9537
X5.9011 Y0.9417
X5.9178 Y0.9306
X5.9331 Y0.9193
X5.947 Y0.9079
X5.9594 Y0.8967
X5.9703 Y0.8859
X5.9796 Y0.8756
X5.9884 Y0.865
X5.9947 Y0.8543
X5.9987 Y0.8424
X6 Y0.8301
Y0.7428
X5.9997 Y0.7395 F64
X5.9989 Y0.7364
X5.9978 Y0.7333
G2 X5.9868 Y0.7216 I-0.0228 J0.0104 F96
X5.9459 Y0.7502 I-0.0132 J0.0247
X5.9868 Y0.8088 I0.0779 J-0.0108
G3 X5.9978 Y0.8205 I-0.0118 J0.0221
G1 X5.9989 Y0.8236 F64
X5.9997 Y0.8268
X6 Y0.8301
Y0.8832 F96
X5.9994 Y0.8944
X5.9984 Y0.9023
X5.9965 Y0.9113
X5.9935 Y0.9213
X5.9893 Y0.9321
X5.9834 Y0.9442
X5.976 Y0.9569
X5.9661 Y0.9708
X5.9536 Y0.9859
X5.9384 Y1.0015
X5.9196 Y1.0179
X5.896 Y1.0354
X5.8668 Y1.0535
X5.8363 Y1.0693
X5.8048 Y1.0831
X5.7727 Y1.0951
X5.74 Y1.1055
X5.7069 Y1.1147
X5.6735 Y1.1227
X5.6399 Y1.1297
X5.6061 Y1.1358
X5.5721 Y1.141
X5.5381 Y1.1456
X5.504 Y1.1495
X5.4698 Y1.1528
X5.4356 Y1.1556
X5.4013 Y1.1579
X5.367 Y1.1598
X5.3327 Y1.1612
X5.2641 Y1.1629
X5.1954 Y1.163
X5.161 Y1.1625
X5.1267 Y1.1615
X5.0924 Y1.1601
X5.0581 Y1.1582
X5.0239 Y1.1558
X4.9897 Y1.1528
X4.9555 Y1.1492
X4.9214 Y1.1449
X4.8875 Y1.1397
X4.8537 Y1.1336
X4.8201 Y1.1265
X4.7868 Y1.1181
X4.7538 Y1.1085
X4.7213 Y1.0975
X4.6894 Y1.0849
X4.6583 Y1.0704
X4.6282 Y1.0539
X4.6021 Y1.0365
X4.5927 Y1.0272
X4.5856 Y1.0161
X4.5812 Y1.0036
X4.5797 Y0.9905
Y0.8738
X4.5801 Y0.8706 F64
X4.5808 Y0.8674
X4.582 Y0.8644
G3 X4.593 Y0.8527 I0.0227 J0.0103 F96
X4.6251 Y0.8624 I0.0112 J0.021
X4.5929 Y0.9692 I-0.0692 J0.0374
G2 X4.5818 Y0.981 I0.0118 J0.0222
G1 X4.5808 Y0.9841 F64
X4.5801 Y0.9873
X4.5797 Y0.9905
Y1.0172 F72
X4.58 Y1.0225
X4.581 Y1.0279
X4.5827 Y1.033
X4.5874 Y1.0427
X4.5936 Y1.0524
X4.6022 Y1.0634
X4.6078 Y1.0695
X4.615 Y1.0767
X4.6225 Y1.0834
X4.6319 Y1.0911
X4.6431 Y1.0993
X4.6556 Y1.1076
X4.671 Y1.1168
X4.6888 Y1.1263
X4.7094 Y1.1361
X4.7345 Y1.1464
X4.764 Y1.157
X4.7969 Y1.167
X4.8301 Y1.1754
X4.8637 Y1.1826
X4.8975 Y1.1887
X4.9315 Y1.1939
X4.9655 Y1.1982
X4.9997 Y1.2019
X5.0339 Y1.2048
X5.0681 Y1.2072
X5.1024 Y1.2091
X5.1367 Y1.2105
X5.1711 Y1.2114
X5.2054 Y1.2119
X5.2397 Y1.212
X5.2741 Y1.2117
X5.3084 Y1.2109
X5.3427 Y1.2098
X5.377 Y1.2082
X5.4113 Y1.2062
X5.4456 Y1.2038
X5.4798 Y1.2008
X5.5139 Y1.1973
X5.548 Y1.1932
X5.582 Y1.1884
X5.6159 Y1.1829
X5.6497 Y1.1766
X5.6832 Y1.1693
X5.7166 Y1.1611
X5.7496 Y1.1517
X5.7822 Y1.141
X5.8136 Y1.1292
X5.8408 Y1.1174
X5.8635 Y1.1062
X5.8851 Y1.0943
X5.9047 Y1.0821
X5.922 Y1.0702
X5.9366 Y1.059
X5.9498 Y1.0478
X5.962 Y1.0365
X5.9728 Y1.0254
X5.9821 Y1.0149
X5.9872 Y1.0085
X5.9927 Y1.0003
X5.9967 Y0.9914
X5.9992 Y0.9818
X6 Y0.972
Y0.8832
X5.9997 Y0.88 F64
X5.9989 Y0.8768
X5.9978 Y0.8737
G2 X5.9868 Y0.862 I-0.0228 J0.0104 F96
X5.9454 Y0.89 I-0.0133 J0.0249
X5.9867 Y0.951 I0.0784 J-0.0086
G3 X5.9976 Y0.9626 I-0.0117 J0.0219
G1 X5.9989 Y0.9656 F64
X5.9997 Y0.9688
X6 Y0.972
Y1.0315 F96
X5.9997 Y1.0369
X5.9986 Y1.0451
X5.9967 Y1.054
X5.9936 Y1.0642
X5.9893 Y1.0751
X5.9834 Y1.0872
X5.9756 Y1.1004
X5.9657 Y1.1144
X5.9531 Y1.1295
X5.9372 Y1.1457
X5.9181 Y1.1623
X5.8939 Y1.1801
X5.8647 Y1.1982
X5.8341 Y1.2139
X5.8027 Y1.2277
X5.7706 Y1.2398
X5.7379 Y1.2504
X5.7049 Y1.2598
X5.6715 Y1.2679
X5.6379 Y1.2751
X5.6042 Y1.2814
X5.5703 Y1.2869
X5.5363 Y1.2916
X5.5022 Y1.2957
X5.468 Y1.2992
X5.4338 Y1.3022
X5.3995 Y1.3046
X5.3653 Y1.3066
X5.331 Y1.3081
X5.2966 Y1.3092
X5.2623 Y1.3098
X5.228 Y1.31
X5.1936 Y1.3098
X5.1593 Y1.3092
X5.125 Y1.3081
X5.0907 Y1.3065
X5.0564 Y1.3045
X5.0222 Y1.3018
X4.988 Y1.2986
X4.9538 Y1.2947
X4.9198 Y1.2901
X4.8859 Y1.2847
X4.8522 Y1.2784
X4.8186 Y1.271
X4.7854 Y1.2624
X4.7525 Y1.2526
X4.72 Y1.2413
X4.6882 Y1.2283
X4.6572 Y1.2136
X4.6272 Y1.1969
X4.6018 Y1.1798
X4.5925 Y1.1705
X4.5855 Y1.1594
X4.5812 Y1.1471
X4.5797 Y1.134
Y1.0172
X4.5801 Y1.0139 F64
X4.5808 Y1.0107
X4.582 Y1.0077
G3 X4.593 Y0.996 I0.0227 J0.0103 F96
X4.6249 Y1.0055 I0.0111 J0.0209
X4.593 Y1.1129 I-0.069 J0.0379
G2 X4.582 Y1.1246 I0.0117 J0.022
G1 X4.5808 Y1.1276 F64
X4.5801 Y1.1308
X4.5797 Y1.134
Y1.1606 F72
X4.58 Y1.166
X4.581 Y1.1713
X4.5827 Y1.1764
X4.5873 Y1.1862
X4.5935 Y1.196
X4.6021 Y1.2069
X4.6078 Y1.2132
X4.615 Y1.2204
X4.6225 Y1.2272
X4.6321 Y1.235
X4.6431 Y1.2432
X4.656 Y1.2519
X4.6713 Y1.2611
X4.6895 Y1.2708
X4.7101 Y1.2807
X4.7352 Y1.2911
X4.7648 Y1.3019
X4.7976 Y1.312
X4.8309 Y1.3206
X4.8644 Y1.3279
X4.8982 Y1.3342
X4.9321 Y1.3396
X4.9661 Y1.3441
X5.0003 Y1.3479
X5.0345 Y1.3511
X5.0687 Y1.3536
X5.103 Y1.3556
X5.1373 Y1.3571
X5.1716 Y1.3581
X5.206 Y1.3586
X5.2403 Y1.3588
X5.2746 Y1.3584
X5.309 Y1.3577
X5.3433 Y1.3564
X5.3776 Y1.3548
X5.4119 Y1.3527
X5.4461 Y1.35
X5.4803 Y1.3469
X5.5144 Y1.3432
X5.5485 Y1.3389
X5.5825 Y1.3338
X5.6163 Y1.3281
X5.65 Y1.3215
X5.6835 Y1.3141
X5.7168 Y1.3056
X5.7498 Y1.296
X5.7823 Y1.2851
X5.8137 Y1.273
X5.8419 Y1.2606
X5.8648 Y1.2492
X5.886 Y1.2372
X5.9054 Y1.225
X5.923 Y1.2128
X5.938 Y1.2011
X5.951 Y1.19
X5.9629 Y1.1788
X5.9737 Y1.1676
X5.9832 Y1.1568
X5.9874 Y1.1514
X5.9943 Y1.1403
X5.9986 Y1.1281
X6 Y1.1152
Y1.0315
X5.9997 Y1.0282 F64
X5.9989 Y1.025
X5.9978 Y1.022
G2 X5.9868 Y1.0102 I-0.0228 J0.0103 F96
X5.9466 Y1.0402 I-0.013 J0.0245
X5.9868 Y1.094 I0.0772 J-0.0157
G3 X5.9978 Y1.1057 I-0.0118 J0.0221
G1 X5.9989 Y1.1088 F64
X5.9997 Y1.1119
X6 Y1.1152
Y1.1719 F96
X5.9996 Y1.18
X5.9985 Y1.1882
X5.9966 Y1.1971
X5.9935 Y1.2074
X5.9893 Y1.2183
X5.9834 Y1.2305
X5.9755 Y1.2438
X5.9658 Y1.2577
X5.9532 Y1.2729
X5.9372 Y1.2893
X5.9179 Y1.3061
X5.8935 Y1.3241
X5.8644 Y1.3422
X5.8339 Y1.3581
X5.8026 Y1.3721
X5.7705 Y1.3843
X5.7379 Y1.3951
X5.7049 Y1.4046
X5.6716 Y1.413
X5.638 Y1.4204
X5.6043 Y1.4269
X5.5705 Y1.4325
X5.5365 Y1.4375
X5.5024 Y1.4417
X5.4683 Y1.4454
X5.4341 Y1.4485
X5.3998 Y1.4511
X5.3655 Y1.4531
X5.3312 Y1.4547
X5.2969 Y1.4558
X5.2626 Y1.4565
X5.2282 Y1.4567
X5.1939 Y1.4565
X5.1596 Y1.4558
X5.1253 Y1.4546
X5.091 Y1.4529
X5.0567 Y1.4507
X5.0225 Y1.4479
X4.9883 Y1.4446
X4.9542 Y1.4405
X4.9202 Y1.4357
X4.8863 Y1.4301
X4.8526 Y1.4237
X4.8191 Y1.4161
X4.7859 Y1.4074
X4.753 Y1.3975
X4.7206 Y1.386
X4.6888 Y1.373
X4.6578 Y1.3582
X4.6279 Y1.3414
X4.6018 Y1.3237
X4.5925 Y1.3145
X4.5855 Y1.3034
X4.5812 Y1.2911
X4.5797 Y1.2781
Y1.1606
X4.5801 Y1.1573 F64
X4.5808 Y1.1541
X4.582 Y1.1511
G3 X4.593 Y1.1394 I0.0227 J0.0103 F96
X4.6244 Y1.1485 I0.011 J0.0207
X4.593 Y1.2569 I-0.0685 J0.0389
G2 X4.582 Y1.2686 I0.0117 J0.022
G1 X4.5808 Y1.2716 F64
X4.5801 Y1.2748
X4.5797 Y1.2781
Y1.3045 F72
X4.58 Y1.3099
X4.581 Y1.3152
X4.5827 Y1.3204
X4.5872 Y1.3301
X4.5934 Y1.3399
X4.602 Y1.351
X4.6077 Y1.3573
X4.6149 Y1.3645
X4.6224 Y1.3713
X4.6319 Y1.3792
X4.6431 Y1.3876
X4.6559 Y1.3962
X4.6713 Y1.4056
X4.6895 Y1.4154
X4.7102 Y1.4254
X4.7355 Y1.436
X4.7653 Y1.4469
X4.7981 Y1.4571
X4.8313 Y1.4659
X4.8648 Y1.4734
X4.8986 Y1.4798
X4.9324 Y1.4853
X4.9665 Y1.49
X5.0006 Y1.4939
X5.0348 Y1.4972
X5.069 Y1.4999
X5.1033 Y1.502
X5.1376 Y1.5036
X5.1719 Y1.5046
X5.2062 Y1.5052
X5.2406 Y1.5053
X5.2749 Y1.505
X5.3092 Y1.5042
X5.3435 Y1.503
X5.3778 Y1.5012
X5.4121 Y1.499
X5.4463 Y1.4963
X5.4805 Y1.493
X5.5146 Y1.4891
X5.5487 Y1.4846
X5.5826 Y1.4794
X5.6165 Y1.4735
X5.6501 Y1.4668
X5.6836 Y1.4591
X5.7168 Y1.4504
X5.7497 Y1.4407
X5.7823 Y1.4296
X5.8138 Y1.4173
X5.8421 Y1.4047
X5.8652 Y1.3931
X5.8864 Y1.381
X5.9059 Y1.3686
X5.9235 Y1.3562
X5.9385 Y1.3445
X5.9515 Y1.3332
X5.9634 Y1.322
X5.9741 Y1.3107
X5.9836 Y1.2998
X5.9876 Y1.2947
X5.9944 Y1.2837
X5.9986 Y1.2715
X6 Y1.2587
Y1.1719
X5.9997 Y1.1686 F64
X5.9989 Y1.1655
X5.9978 Y1.1624
G2 X5.9868 Y1.1507 I-0.0228 J0.0104 F96
X5.9459 Y1.1795 I-0.0132 J0.0247
X5.9868 Y1.2375 I0.0779 J-0.0115
G3 X5.9978 Y1.2492 I-0.0118 J0.0221
G1 X5.9989 Y1.2523 F64
X5.9997 Y1.2555
X6 Y1.2587
Y1.3166 F96
X5.9996 Y1.3237
X5.9986 Y1.332
X5.9966 Y1.341
X5.9936 Y1.3513
X5.9893 Y1.3623
X5.9833 Y1.3745
X5.9754 Y1.388
X5.9656 Y1.402
X5.9529 Y1.4172
X5.9368 Y1.4338
X5.9173 Y1.4508
X5.8926 Y1.469
X5.8635 Y1.4872
X5.833 Y1.5031
X5.8017 Y1.5171
X5.7696 Y1.5294
X5.737 Y1.5403
X5.7041 Y1.5499
X5.6708 Y1.5585
X5.6373 Y1.566
X5.6036 Y1.5726
X5.5698 Y1.5784
X5.5358 Y1.5835
X5.5018 Y1.5878
X5.4676 Y1.5916
X5.4334 Y1.5948
X5.3992 Y1.5974
X5.3649 Y1.5996
X5.3306 Y1.6012
X5.2963 Y1.6023
X5.262 Y1.603
X5.2276 Y1.6032
X5.1933 Y1.6029
X5.159 Y1.6022
X5.1246 Y1.6009
X5.0904 Y1.5991
X5.0561 Y1.5968
X5.0219 Y1.5939
X4.9877 Y1.5904
X4.9536 Y1.5862
X4.9196 Y1.5813
X4.8858 Y1.5756
X4.8521 Y1.5689
X4.8186 Y1.5613
X4.7854 Y1.5524
X4.7526 Y1.5423
X4.7203 Y1.5308
X4.6886 Y1.5177
X4.6576 Y1.5028
X4.6277 Y1.4858
X4.6016 Y1.4681
X4.5924 Y1.4589
X4.5855 Y1.4478
X4.5812 Y1.4355
X4.5797 Y1.4226
Y1.3045
X4.5801 Y1.3013 F64
X4.5808 Y1.2981
X4.582 Y1.295
G3 X4.593 Y1.2834 I0.0227 J0.0104 F96
X4.6237 Y1.2921 I0.0108 J0.0204
X4.5929 Y1.4013 I-0.0678 J0.0398
G2 X4.5819 Y1.413 I0.0118 J0.0221
G1 X4.5808 Y1.4161 F64
X4.5801 Y1.4193
X4.5797 Y1.4226
Y1.4492 F72
X4.58 Y1.4546
X4.581 Y1.4599
X4.5827 Y1.4651
X4.5873 Y1.4748
X4.5936 Y1.4847
X4.6022 Y1.4958
X4.608 Y1.5022
X4.6152 Y1.5094
X4.6228 Y1.5164
X4.6325 Y1.5244
X4.6437 Y1.5327
X4.6568 Y1.5416
X4.6723 Y1.5509
X4.691 Y1.561
X4.7119 Y1.5711
X4.7374 Y1.5818
X4.7677 Y1.5929
X4.8005 Y1.603
X4.8337 Y1.6118
X4.8672 Y1.6193
X4.9009 Y1.6258
X4.9348 Y1.6314
X4.9688 Y1.6361
X5.0029 Y1.6402
X5.0371 Y1.6435
X5.0713 Y1.6462
X5.1056 Y1.6484
X5.1399 Y1.65
X5.1742 Y1.6511
X5.2086 Y1.6517
X5.2429 Y1.6518
X5.2772 Y1.6514
X5.3116 Y1.6506
X5.3459 Y1.6492
X5.3802 Y1.6474
X5.4144 Y1.6451
X5.4486 Y1.6422
X5.4828 Y1.6388
X5.5169 Y1.6348
X5.5509 Y1.6301
X5.5849 Y1.6248
X5.6187 Y1.6187
X5.6523 Y1.6117
X5.6857 Y1.6039
X5.7189 Y1.595
X5.7517 Y1.585
X5.7842 Y1.5738
X5.8155 Y1.5614
X5.8438 Y1.5485
X5.8676 Y1.5363
X5.8882 Y1.5244
X5.9073 Y1.5121
X5.9248 Y1.4996
X5.94 Y1.4875
X5.953 Y1.4762
X5.9646 Y1.465
X5.9751 Y1.4538
X5.9878 Y1.4385
X5.9945 Y1.4276
X5.9986 Y1.4155
X6 Y1.4028
Y1.3166
X5.9997 Y1.3134 F64
X5.9989 Y1.3102
X5.9978 Y1.3071
G2 X5.9868 Y1.2954 I-0.0228 J0.0104 F96
X5.9459 Y1.3244 I-0.0132 J0.0247
X5.9867 Y1.3818 I0.0779 J-0.0122
G3 X5.9976 Y1.3934 I-0.0117 J0.0219
G1 X5.9989 Y1.3964 F64
X5.9997 Y1.3996
X6 Y1.4028
Y1.4606 F96
X5.9996 Y1.468
X5.9985 Y1.4763
X5.9966 Y1.4854
X5.9935 Y1.4956
X5.9892 Y1.5069
X5.9833 Y1.519
X5.9753 Y1.5325
X5.9654 Y1.5467
X5.9527 Y1.5619
X5.9365 Y1.5786
X5.9166 Y1.5959
X5.8917 Y1.6143
X5.8626 Y1.6324
X5.8322 Y1.6484
X5.8008 Y1.6624
X5.7688 Y1.6748
X5.7363 Y1.6858
X5.7033 Y1.6955
X5.6701 Y1.7041
X5.6366 Y1.7117
X5.6029 Y1.7184
X5.5691 Y1.7243
X5.5351 Y1.7294
X5.5011 Y1.7339
X5.467 Y1.7378
X5.4328 Y1.741
X5.3985 Y1.7437
X5.3643 Y1.7459
X5.33 Y1.7476
X5.2957 Y1.7487
X5.2613 Y1.7494
X5.227 Y1.7496
X5.1926 Y1.7493
X5.1583 Y1.7484
X5.124 Y1.7471
X5.0897 Y1.7453
X5.0555 Y1.7429
X5.0213 Y1.7399
X4.9871 Y1.7363
X4.953 Y1.7319
X4.9191 Y1.7269
X4.8852 Y1.721
X4.8516 Y1.7143
X4.8181 Y1.7065
X4.785 Y1.6976
X4.7522 Y1.6874
X4.7199 Y1.6757
X4.6882 Y1.6625
X4.6573 Y1.6475
X4.6274 Y1.6305
X4.6015 Y1.6129
X4.5924 Y1.6036
X4.5855 Y1.5926
X4.5812 Y1.5803
X4.5797 Y1.5674
Y1.4492
X4.5801 Y1.446 F64
X4.5808 Y1.4428
X4.582 Y1.4397
G3 X4.593 Y1.4281 I0.0227 J0.0104 F96
X4.6237 Y1.4368 I0.0108 J0.0204
X4.5929 Y1.5461 I-0.0678 J0.0399
G2 X4.5819 Y1.5578 I0.0118 J0.0221
G1 X4.5808 Y1.5609 F64
X4.5801 Y1.5641
X4.5797 Y1.5674
Y1.5932 F72
X4.58 Y1.5986
X4.5809 Y1.6039
X4.5825 Y1.6091
X4.587 Y1.6189
X4.593 Y1.6287
X4.6015 Y1.6397
X4.6071 Y1.646
X4.6141 Y1.6533
X4.6216 Y1.6601
X4.6309 Y1.668
X4.642 Y1.6765
X4.6547 Y1.6852
X4.67 Y1.6947
X4.688 Y1.7046
X4.7086 Y1.7147
X4.7336 Y1.7255
X4.7633 Y1.7366
X4.796 Y1.7471
X4.8292 Y1.7561
X4.8626 Y1.7639
X4.8963 Y1.7706
X4.9301 Y1.7764
X4.9641 Y1.7814
X4.9982 Y1.7856
X5.0324 Y1.7891
X5.0666 Y1.792
X5.1008 Y1.7943
X5.1351 Y1.7961
X5.1694 Y1.7973
X5.2038 Y1.798
X5.2381 Y1.7982
X5.2725 Y1.7979
X5.3068 Y1.7971
X5.3411 Y1.7958
X5.3754 Y1.794
X5.4097 Y1.7917
X5.4439 Y1.7888
X5.478 Y1.7854
X5.5121 Y1.7814
X5.5462 Y1.7767
X5.5801 Y1.7713
X5.6139 Y1.7652
X5.6475 Y1.7583
X5.6809 Y1.7505
X5.7141 Y1.7416
X5.747 Y1.7317
X5.7795 Y1.7206
X5.8115 Y1.7081
X5.8402 Y1.6952
X5.8635 Y1.6833
X5.8851 Y1.671
X5.9049 Y1.6584
X5.9228 Y1.6457
X5.938 Y1.6338
X5.9512 Y1.6224
X5.9632 Y1.611
X5.974 Y1.5996
X5.9835 Y1.5886
X5.9877 Y1.5832
X5.9944 Y1.5723
X5.9986 Y1.5601
X6 Y1.5474
Y1.4606
X5.9997 Y1.4573 F64
X5.9989 Y1.4541
X5.9978 Y1.4511
G2 X5.9868 Y1.4393 I-0.0228 J0.0103 F96
X5.9458 Y1.4682 I-0.0132 J0.0248
X5.9867 Y1.5263 I0.078 J-0.0115
G3 X5.9976 Y1.5379 I-0.0117 J0.0219
G1 X5.9989 Y1.5409 F64
X5.9997 Y1.5441
X6 Y1.5474
Y1.6053 F96
X5.9996 Y1.6127
X5.9985 Y1.6211
X5.9966 Y1.6301
X5.9935 Y1.6405
X5.9892 Y1.6516
X5.9832 Y1.6639
X5.9752 Y1.6774
X5.9653 Y1.6916
X5.9524 Y1.7071
X5.9361 Y1.7238
X5.9164 Y1.741
X5.8913 Y1.7596
X5.8621 Y1.7777
X5.8317 Y1.7937
X5.8004 Y1.8078
X5.7684 Y1.8202
X5.7359 Y1.8312
X5.703 Y1.841
X5.6697 Y1.8497
X5.6363 Y1.8574
X5.6026 Y1.8642
X5.5688 Y1.8702
X5.5349 Y1.8754
X5.5008 Y1.88
X5.4667 Y1.8839
X5.4325 Y1.8872
X5.3983 Y1.89
X5.364 Y1.8922
X5.3297 Y1.8939
X5.2954 Y1.895
X5.2611 Y1.8957
X5.2267 Y1.8958
X5.1924 Y1.8955
X5.1581 Y1.8947
X5.1238 Y1.8933
X5.0895 Y1.8914
X5.0552 Y1.8889
X5.021 Y1.8859
X4.9869 Y1.8822
X4.9528 Y1.8778
X4.9189 Y1.8726
X4.8851 Y1.8667
X4.8514 Y1.8599
X4.818 Y1.852
X4.7849 Y1.8429
X4.7521 Y1.8327
X4.7198 Y1.821
X4.6881 Y1.8077
X4.6573 Y1.7926
X4.6275 Y1.7756
X4.6015 Y1.7578
X4.5923 Y1.7486
X4.5854 Y1.7376
X4.5812 Y1.7253
X4.5797 Y1.7124
Y1.5932
X4.5801 Y1.5899 F64
X4.5808 Y1.5867
X4.582 Y1.5837
G3 X4.593 Y1.5721 I0.0227 J0.0104 F96
X4.6225 Y1.58 I0.0105 J0.0198
X4.5929 Y1.691 I-0.0666 J0.0417
G2 X4.5818 Y1.7028 I0.0118 J0.0223
G1 X4.5808 Y1.706 F64
X4.5801 Y1.7091
X4.5797 Y1.7124
Y1.7379 F72
X4.58 Y1.7433
X4.5808 Y1.7486
X4.5824 Y1.7538
X4.5868 Y1.7636
X4.5928 Y1.7734
X4.6012 Y1.7845
X4.6067 Y1.7907
X4.6137 Y1.798
X4.6211 Y1.8049
X4.6304 Y1.8127
X4.6414 Y1.8212
X4.6539 Y1.8298
X4.6691 Y1.8394
X4.6869 Y1.8493
X4.7076 Y1.8595
X4.7327 Y1.8705
X4.7623 Y1.8817
X4.795 Y1.8923
X4.8281 Y1.9015
X4.8615 Y1.9094
X4.8951 Y1.9162
X4.929 Y1.9221
X4.9629 Y1.9271
X4.997 Y1.9314
X5.0311 Y1.935
X5.0654 Y1.938
X5.0996 Y1.9404
X5.1339 Y1.9422
X5.1682 Y1.9435
X5.2025 Y1.9442
X5.2369 Y1.9444
X5.2712 Y1.9442
X5.3056 Y1.9434
X5.3399 Y1.9421
X5.3742 Y1.9403
X5.4084 Y1.9379
X5.4426 Y1.9351
X5.4768 Y1.9316
X5.5109 Y1.9275
X5.5449 Y1.9228
X5.5788 Y1.9174
X5.6126 Y1.9112
X5.6462 Y1.9042
X5.6796 Y1.8963
X5.7128 Y1.8875
X5.7457 Y1.8775
X5.7782 Y1.8663
X5.8101 Y1.8538
X5.8258 Y1.8468
X5.8518 Y1.8344
X5.8757 Y1.8215
X5.8965 Y1.8088
X5.9139 Y1.7971
X5.9301 Y1.7851
X5.9448 Y1.7729
X5.9579 Y1.761
X5.969 Y1.7498
X5.9788 Y1.739
X5.9885 Y1.727
X5.9948 Y1.7163
X5.9987 Y1.7046
X6 Y1.6923
Y1.6053
X5.9997 Y1.602 F64
X5.9989 Y1.5988
X5.9978 Y1.5958
G2 X5.9868 Y1.584 I-0.0228 J0.0103 F96
X5.9458 Y1.6128 I-0.0132 J0.0248
X5.9867 Y1.6711 I0.078 J-0.0112
G3 X5.9977 Y1.6828 I-0.0117 J0.022
G1 X5.9989 Y1.6858 F64
X5.9997 Y1.689
X6 Y1.6923
Y1.7492 F96
X5.9996 Y1.7578
X5.9985 Y1.7659
X5.9965 Y1.7753
X5.9935 Y1.7853
X5.9891 Y1.7966
X5.9831 Y1.8089
X5.9754 Y1.8221
X5.965 Y1.8368
X5.9523 Y1.8521
X5.9356 Y1.8692
X5.9159 Y1.8865
X5.8906 Y1.9051
X5.8614 Y1.9233
X5.831 Y1.9392
X5.7997 Y1.9534
X5.7678 Y1.9658
X5.7352 Y1.9769
X5.7023 Y1.9868
X5.6691 Y1.9955
X5.6357 Y2.0033
X5.602 Y2.0101
X5.5682 Y2.0162
X5.5343 Y2.0215
X5.5003 Y2.0261
X5.4662 Y2.03
X5.432 Y2.0334
X5.3978 Y2.0362
X5.3635 Y2.0384
X5.3292 Y2.0401
X5.2949 Y2.0413
X5.2606 Y2.0419
X5.2262 Y2.0421
X5.1919 Y2.0417
X5.1576 Y2.0408
X5.1232 Y2.0394
X5.089 Y2.0375
X5.0547 Y2.0349
X5.0205 Y2.0318
X4.9864 Y2.028
X4.9523 Y2.0236
X4.9184 Y2.0184
X4.8846 Y2.0124
X4.851 Y2.0055
X4.8175 Y1.9975
X4.7844 Y1.9884
X4.7517 Y1.978
X4.7194 Y1.9662
X4.6878 Y1.9529
X4.657 Y1.9378
X4.6272 Y1.9207
X4.6014 Y1.903
X4.5923 Y1.8938
X4.5854 Y1.8828
X4.5812 Y1.8705
X4.5797 Y1.8576
Y1.7379
X4.5801 Y1.7346 F64
X4.5808 Y1.7315
X4.582 Y1.7284
G3 X4.593 Y1.7168 I0.0227 J0.0104 F96
X4.622 Y1.7243 I0.0104 J0.0195
X4.5929 Y1.8364 I-0.0661 J0.0427
G2 X4.5819 Y1.8481 I0.0118 J0.0221
G1 X4.5808 Y1.8512 F64
X4.5801 Y1.8544
X4.5797 Y1.8576
Y1.8842 F72
X4.58 Y1.8896
X4.581 Y1.8949
X4.5827 Y1.9
X4.5873 Y1.9098
X4.5935 Y1.9197
X4.6021 Y1.9309
X4.6079 Y1.9373
X4.6151 Y1.9446
X4.6227 Y1.9516
X4.6325 Y1.9598
X4.6436 Y1.9682
X4.6569 Y1.9772
X4.6724 Y1.9867
X4.6915 Y1.9971
X4.7126 Y2.0073
X4.7384 Y2.0183
X4.7692 Y2.0297
X4.802 Y2.04
X4.8351 Y2.0489
X4.8686 Y2.0566
X4.9023 Y2.0633
X4.9361 Y2.0691
X4.9701 Y2.074
X5.0042 Y2.0782
X5.0384 Y2.0817
X5.0726 Y2.0846
X5.1068 Y2.0869
X5.1411 Y2.0886
X5.1755 Y2.0898
X5.2098 Y2.0904
X5.2441 Y2.0906
X5.2785 Y2.0902
X5.3128 Y2.0893
X5.3471 Y2.0879
X5.3814 Y2.086
X5.4156 Y2.0835
X5.4498 Y2.0804
X5.484 Y2.0768
X5.5181 Y2.0725
X5.552 Y2.0676
X5.5859 Y2.062
X5.6197 Y2.0556
X5.6532 Y2.0484
X5.6866 Y2.0402
X5.7197 Y2.0311
X5.7525 Y2.0208
X5.7848 Y2.0093
X5.8007 Y2.0029
X5.828 Y1.9912
X5.8534 Y1.9789
X5.8771 Y1.9659
X5.8981 Y1.953
X5.9156 Y1.9411
X5.9315 Y1.9291
X5.9459 Y1.917
X5.959 Y1.905
X5.9702 Y1.8936
X5.9798 Y1.8828
X5.9887 Y1.8717
X5.9949 Y1.8611
X5.9987 Y1.8495
X6 Y1.8373
Y1.7492
X5.9997 Y1.746 F64
X5.9989 Y1.7428
X5.9978 Y1.7397
G2 X5.9868 Y1.728 I-0.0228 J0.0104 F96
X5.9457 Y1.7563 I-0.0132 J0.0248
X5.9868 Y1.8161 I0.0781 J-0.0097
G3 X5.9978 Y1.8278 I-0.0118 J0.0221
G1 X5.9989 Y1.8309 F64
X5.9997 Y1.834
X6 Y1.8373
Y1.8974 F96
X5.9997 Y1.9028
X5.9987 Y1.911
X5.9966 Y1.9203
X5.9936 Y1.9305
X5.9892 Y1.9418
X5.9831 Y1.9543
X5.9753 Y1.9675
X5.965 Y1.9822
X5.952 Y1.9978
X5.936 Y2.0142
X5.915 Y2.0325
X5.8897 Y2.0511
X5.8605 Y2.0693
X5.8301 Y2.0852
X5.7988 Y2.0993
X5.7668 Y2.1118
X5.7343 Y2.1229
X5.7014 Y2.1327
X5.6682 Y2.1415
X5.6348 Y2.1493
X5.6011 Y2.1561
X5.5673 Y2.1622
X5.5334 Y2.1675
X5.4994 Y2.1722
X5.4653 Y2.1761
X5.4311 Y2.1795
X5.3969 Y2.1823
X5.3626 Y2.1845
X5.3283 Y2.1862
X5.294 Y2.1874
X5.2597 Y2.1881
X5.2253 Y2.1882
X5.191 Y2.1878
X5.1567 Y2.1869
X5.1224 Y2.1855
X5.0881 Y2.1835
X5.0538 Y2.1809
X5.0196 Y2.1777
X4.9855 Y2.1739
X4.9515 Y2.1693
X4.9175 Y2.1641
X4.8838 Y2.158
X4.8501 Y2.151
X4.8167 Y2.1429
X4.7836 Y2.1338
X4.7509 Y2.1234
X4.7187 Y2.1115
X4.6871 Y2.0981
X4.6563 Y2.0829
X4.6266 Y2.0657
X4.6013 Y2.0484
X4.5922 Y2.0391
X4.5854 Y2.0281
X4.5812 Y2.0159
X4.5797 Y2.0031
Y1.8842
X4.5801 Y1.8809 F64
X4.5808 Y1.8778
X4.582 Y1.8747
G3 X4.593 Y1.8631 I0.0227 J0.0104 F96
X4.6229 Y1.8712 I0.0106 J0.02
X4.5929 Y1.9818 I-0.067 J0.0412
G2 X4.5819 Y1.9935 I0.0118 J0.0221
G1 X4.5808 Y1.9966 F64
X4.5801 Y1.9998
X4.5797 Y2.0031
Y2.0285 F72
X4.58 Y2.0339
X4.5808 Y2.0392
X4.5824 Y2.0444
X4.5868 Y2.0542
X4.5928 Y2.0641
X4.6012 Y2.0751
X4.6067 Y2.0814
X4.6137 Y2.0887
X4.6211 Y2.0956
X4.6305 Y2.1036
X4.6414 Y2.112
X4.6541 Y2.1209
X4.6694 Y2.1304
X4.6874 Y2.1405
X4.708 Y2.1507
X4.733 Y2.1617
X4.7628 Y2.1731
X4.7955 Y2.1837
X4.8285 Y2.1929
X4.8619 Y2.2009
X4.8956 Y2.2078
X4.9294 Y2.2138
X4.9633 Y2.219
X4.9974 Y2.2234
X5.0315 Y2.2271
X5.0657 Y2.2301
X5.1 Y2.2326
X5.1343 Y2.2344
X5.1686 Y2.2357
X5.2029 Y2.2365
X5.2373 Y2.2367
X5.2716 Y2.2365
X5.3059 Y2.2357
X5.3402 Y2.2343
X5.3745 Y2.2325
X5.4088 Y2.2301
X5.443 Y2.2271
X5.4772 Y2.2236
X5.5112 Y2.2194
X5.5452 Y2.2146
X5.5791 Y2.2091
X5.6129 Y2.2028
X5.6465 Y2.1957
X5.6799 Y2.1877
X5.713 Y2.1787
X5.7459 Y2.1686
X5.7783 Y2.1574
X5.8102 Y2.1447
X5.8393 Y2.1316
X5.8631 Y2.1194
X5.8845 Y2.1071
X5.9047 Y2.0941
X5.9227 Y2.0813
X5.9382 Y2.0691
X5.9514 Y2.0576
X5.9635 Y2.046
X5.9743 Y2.0345
X5.9839 Y2.0233
X5.9878 Y2.0183
X5.9945 Y2.0074
X5.9986 Y1.9953
X6 Y1.9826
Y1.8974
X5.9997 Y1.8942 F64
X5.9989 Y1.891
X5.9978 Y1.888
G2 X5.9868 Y1.8762 I-0.0228 J0.0103 F96
X5.9463 Y1.9057 I-0.0131 J0.0246
X5.9868 Y1.9614 I0.0775 J-0.0138
G3 X5.9977 Y1.9731 I-0.0118 J0.022
G1 X5.9989 Y1.9761 F64
X5.9997 Y1.9793
X6 Y1.9826
Y2.0379 F96
X5.9995 Y2.0483
X5.9984 Y2.0567
X5.9964 Y2.0657
X5.9933 Y2.0762
X5.989 Y2.0873
X5.9829 Y2.0998
X5.9749 Y2.1134
X5.9649 Y2.1277
X5.9519 Y2.1433
X5.9354 Y2.1602
X5.9154 Y2.1776
X5.89 Y2.1965
X5.8608 Y2.2146
X5.8304 Y2.2306
X5.7991 Y2.2448
X5.7672 Y2.2573
X5.7347 Y2.2684
X5.7018 Y2.2784
X5.6686 Y2.2872
X5.6352 Y2.295
X5.6016 Y2.3019
X5.5678 Y2.3081
X5.5338 Y2.3134
X5.4998 Y2.3181
X5.4657 Y2.3221
X5.4316 Y2.3256
X5.3973 Y2.3284
X5.3631 Y2.3306
X5.3288 Y2.3324
X5.2945 Y2.3335
X5.2601 Y2.3342
X5.2258 Y2.3343
X5.1914 Y2.3339
X5.1571 Y2.333
X5.1228 Y2.3315
X5.0885 Y2.3295
X5.0543 Y2.3269
X5.0201 Y2.3237
X4.986 Y2.3199
X4.9519 Y2.3153
X4.918 Y2.31
X4.8842 Y2.3039
X4.8506 Y2.2969
X4.8172 Y2.2888
X4.7842 Y2.2796
X4.7514 Y2.2692
X4.7192 Y2.2573
X4.6876 Y2.2439
X4.6568 Y2.2287
X4.6271 Y2.2116
X4.6013 Y2.1938
X4.5922 Y2.1846
X4.5854 Y2.1736
X4.5812 Y2.1614
X4.5797 Y2.1485
Y2.0285
X4.5801 Y2.0252 F64
X4.5808 Y2.0221
X4.582 Y2.019
G3 X4.593 Y2.0074 I0.0227 J0.0104 F96
X4.6216 Y2.0147 I0.0103 J0.0194
X4.5929 Y2.1273 I-0.0657 J0.0432
G2 X4.5819 Y2.139 I0.0118 J0.0221
G1 X4.5808 Y2.1421 F64
X4.5801 Y2.1453
X4.5797 Y2.1485
Y2.1748 F72
X4.58 Y2.1802
X4.5809 Y2.1855
X4.5826 Y2.1906
X4.5871 Y2.2004
X4.5933 Y2.2104
X4.6018 Y2.2215
X4.6076 Y2.228
X4.6147 Y2.2353
X4.6223 Y2.2422
X4.632 Y2.2504
X4.6431 Y2.2588
X4.6562 Y2.2678
X4.6716 Y2.2773
X4.6906 Y2.2878
X4.7116 Y2.2981
X4.7373 Y2.3091
X4.768 Y2.3206
X4.8007 Y2.331
X4.8338 Y2.3401
X4.8672 Y2.3479
X4.9009 Y2.3547
X4.9347 Y2.3606
X4.9687 Y2.3656
X5.0028 Y2.37
X5.0369 Y2.3736
X5.0711 Y2.3766
X5.1054 Y2.3789
X5.1397 Y2.3807
X5.174 Y2.382
X5.2083 Y2.3827
X5.2427 Y2.3828
X5.277 Y2.3825
X5.3113 Y2.3816
X5.3456 Y2.3802
X5.3799 Y2.3782
X5.4142 Y2.3757
X5.4484 Y2.3726
X5.4825 Y2.369
X5.5166 Y2.3647
X5.5506 Y2.3597
X5.5844 Y2.3541
X5.6182 Y2.3476
X5.6517 Y2.3403
X5.6851 Y2.3322
X5.7182 Y2.323
X5.7509 Y2.3127
X5.7833 Y2.3012
X5.8149 Y2.2883
X5.8433 Y2.2752
X5.8682 Y2.2622
X5.8887 Y2.2501
X5.9077 Y2.2376
X5.9252 Y2.2249
X5.9407 Y2.2125
X5.9538 Y2.2008
X5.9653 Y2.1896
X5.9757 Y2.1783
X5.9881 Y2.1632
X5.9946 Y2.1524
X5.9986 Y2.1405
X6 Y2.1279
Y2.0379
X5.9997 Y2.0346 F64
X5.9989 Y2.0314
X5.9978 Y2.0284
G2 X5.9868 Y2.0166 I-0.0228 J0.0103 F96
X5.9453 Y2.044 I-0.0133 J0.025
X5.9868 Y2.1067 I0.0785 J-0.0068
G3 X5.9978 Y2.1184 I-0.0118 J0.0221
G1 X5.9989 Y2.1215 F64
X5.9997 Y2.1247
X6 Y2.1279
Y2.1861 F96
X5.9996 Y2.1937
X5.9985 Y2.202
X5.9966 Y2.2112
X5.9935 Y2.2216
X5.989 Y2.233
X5.9831 Y2.2453
X5.9751 Y2.2589
X5.9649 Y2.2733
X5.9521 Y2.2888
X5.9355 Y2.3057
X5.9151 Y2.3235
X5.8897 Y2.3424
X5.8605 Y2.3605
X5.8301 Y2.3765
X5.7988 Y2.3906
X5.7669 Y2.4032
X5.7344 Y2.4144
X5.7015 Y2.4243
X5.6683 Y2.4331
X5.6349 Y2.4409
X5.6013 Y2.4479
X5.5675 Y2.454
X5.5336 Y2.4594
X5.4996 Y2.4641
X5.4655 Y2.4682
X5.4313 Y2.4716
X5.3971 Y2.4744
X5.3628 Y2.4767
X5.3285 Y2.4784
X5.2942 Y2.4796
X5.2599 Y2.4803
X5.2255 Y2.4804
X5.1912 Y2.48
X5.1569 Y2.4791
X5.1226 Y2.4776
X5.0883 Y2.4755
X5.054 Y2.4729
X5.0199 Y2.4697
X4.9857 Y2.4658
X4.9517 Y2.4612
X4.9178 Y2.4558
X4.884 Y2.4497
X4.8504 Y2.4426
X4.817 Y2.4345
X4.7839 Y2.4253
X4.7512 Y2.4149
X4.719 Y2.403
X4.6874 Y2.3895
X4.6566 Y2.3743
X4.6269 Y2.3571
X4.6013 Y2.3395
X4.5922 Y2.3302
X4.5854 Y2.3192
X4.5812 Y2.307
X4.5797 Y2.2942
Y2.1748
X4.5801 Y2.1715 F64
X4.5808 Y2.1684
X4.582 Y2.1653
G3 X4.593 Y2.1537 I0.0227 J0.0104 F96
X4.6224 Y2.1615 I0.0105 J0.0197
X4.5929 Y2.2729 I-0.0665 J0.042
G2 X4.5819 Y2.2846 I0.0118 J0.0221
G1 X4.5808 Y2.2877 F64
X4.5801 Y2.2909
X4.5797 Y2.2942
Y2.32 F72
X4.58 Y2.3254
X4.5809 Y2.3308
X4.5825 Y2.3359
X4.587 Y2.3457
X4.5931 Y2.3556
X4.6015 Y2.3667
X4.6072 Y2.3731
X4.6143 Y2.3804
X4.6217 Y2.3874
X4.6313 Y2.3955
X4.6423 Y2.404
X4.6554 Y2.413
X4.6707 Y2.4225
X4.6893 Y2.4328
X4.71 Y2.4431
X4.7354 Y2.4541
X4.7658 Y2.4656
X4.7984 Y2.4761
X4.8315 Y2.4853
X4.865 Y2.4932
X4.8986 Y2.5001
X4.9324 Y2.5061
X4.9664 Y2.5112
X5.0004 Y2.5156
X5.0346 Y2.5193
X5.0688 Y2.5224
X5.103 Y2.5248
X5.1373 Y2.5267
X5.1716 Y2.528
X5.2059 Y2.5287
X5.2403 Y2.5289
X5.2746 Y2.5286
X5.3089 Y2.5277
X5.3433 Y2.5263
X5.3775 Y2.5244
X5.4118 Y2.5219
X5.446 Y2.5189
X5.4801 Y2.5152
X5.5142 Y2.511
X5.5482 Y2.506
X5.5821 Y2.5004
X5.6158 Y2.494
X5.6494 Y2.4867
X5.6827 Y2.4786
X5.7158 Y2.4695
X5.7486 Y2.4592
X5.781 Y2.4478
X5.8128 Y2.435
X5.8416 Y2.4217
X5.8662 Y2.409
X5.8869 Y2.3969
X5.9065 Y2.3841
X5.9243 Y2.3713
X5.9398 Y2.3589
X5.9529 Y2.3473
X5.9646 Y2.3359
X5.9753 Y2.3245
X5.988 Y2.309
X5.9946 Y2.2982
X5.9986 Y2.2862
X6 Y2.2736
Y2.1861
X5.9997 Y2.1829 F64
X5.9989 Y2.1797
X5.9978 Y2.1766
G2 X5.9868 Y2.1649 I-0.0228 J0.0104 F96
X5.9458 Y2.1934 I-0.0132 J0.0248
X5.9868 Y2.2524 I0.078 J-0.0105
G3 X5.9978 Y2.2641 I-0.0118 J0.0221
G1 X5.9989 Y2.2672 F64
X5.9997 Y2.2703
X6 Y2.2736
Y2.3343 F96
X5.9997 Y2.3397
X5.9986 Y2.3482
X5.9965 Y2.3574
X5.9933 Y2.3679
X5.9888 Y2.3794
X5.9827 Y2.3918
X5.9745 Y2.4055
X5.9642 Y2.42
X5.9511 Y2.4356
X5.9343 Y2.4527
X5.9136 Y2.4705
X5.8876 Y2.4895
X5.8584 Y2.5075
X5.8279 Y2.5233
X5.7966 Y2.5374
X5.7646 Y2.5498
X5.7321 Y2.5609
X5.6992 Y2.5708
X5.666 Y2.5796
X5.6326 Y2.5874
X5.5989 Y2.5943
X5.5651 Y2.6004
X5.5312 Y2.6057
X5.4972 Y2.6104
X5.4631 Y2.6144
X5.4289 Y2.6178
X5.3947 Y2.6206
X5.3604 Y2.6229
X5.3261 Y2.6246
X5.2918 Y2.6257
X5.2575 Y2.6264
X5.2231
X5.1888 Y2.626
X5.1545 Y2.625
X5.1202 Y2.6235
X5.0859 Y2.6214
X5.0517 Y2.6187
X5.0175 Y2.6154
X4.9834 Y2.6114
X4.9494 Y2.6067
X4.9155 Y2.6013
X4.8817 Y2.5951
X4.8481 Y2.5879
X4.8147 Y2.5798
X4.7817 Y2.5704
X4.749 Y2.5599
X4.7169 Y2.5478
X4.6853 Y2.5342
X4.6546 Y2.5189
X4.625 Y2.5016
X4.6047 Y2.4875
X4.5962 Y2.4802
X4.5892 Y2.4715
X4.584 Y2.4615
X4.5808 Y2.4508
X4.5797 Y2.4396
Y2.32
X4.5801 Y2.3168 F64
X4.5808 Y2.3136
X4.582 Y2.3105
G3 X4.593 Y2.2989 I0.0227 J0.0104 F96
X4.6221 Y2.3066 I0.0104 J0.0196
X4.5929 Y2.4182 I-0.0662 J0.0423
G2 X4.5818 Y2.43 I0.0118 J0.0223
G1 X4.5808 Y2.4332 F64
X4.5801 Y2.4363
X4.5797 Y2.4396
Y2.467 F72
X4.58 Y2.4724
X4.5811 Y2.4776
X4.5829 Y2.4827
X4.5875 Y2.4925
X4.594 Y2.5027
X4.6026 Y2.5138
X4.6087 Y2.5205
X4.6157 Y2.5276
X4.6237 Y2.5348
X4.634 Y2.5434
X4.6449 Y2.5516
X4.659 Y2.5611
X4.6743 Y2.5704
X4.6936 Y2.5808
X4.7159 Y2.5916
X4.7419 Y2.6025
X4.7735 Y2.6141
X4.8063 Y2.6243
X4.8395 Y2.6332
X4.873 Y2.6409
X4.9067 Y2.6475
X4.9405 Y2.6533
X4.9745 Y2.6583
X5.0086 Y2.6625
X5.0427 Y2.6661
X5.0769 Y2.669
X5.1112 Y2.6713
X5.1455 Y2.673
X5.1798 Y2.6742
X5.2141 Y2.6748
X5.2485 Y2.6749
X5.2828 Y2.6745
X5.3171 Y2.6735
X5.3514 Y2.6719
X5.3857 Y2.6699
X5.42 Y2.6672
X5.4541 Y2.664
X5.4883 Y2.6602
X5.5223 Y2.6558
X5.5563 Y2.6506
X5.5901 Y2.6448
X5.6238 Y2.6382
X5.6573 Y2.6308
X5.6906 Y2.6224
X5.7237 Y2.6131
X5.7564 Y2.6026
X5.7886 Y2.5908
X5.8191 Y2.5781
X5.8465 Y2.5651
X5.8715 Y2.5518
X5.8928 Y2.539
X5.9109 Y2.5269
X5.9277 Y2.5144
X5.9429 Y2.502
X5.9563 Y2.4899
X5.9677 Y2.4786
X5.9777 Y2.4676
X5.9884 Y2.4544
X5.9948 Y2.4436
X5.9987 Y2.4318
X6 Y2.4195
Y2.3343
X5.9997 Y2.3311 F64
X5.9989 Y2.3279
X5.9978 Y2.3248
G2 X5.9868 Y2.3131 I-0.0228 J0.0104 F96
X5.9463 Y2.3426 I-0.0131 J0.0246
X5.9868 Y2.3983 I0.0775 J-0.0138
G3 X5.9977 Y2.41 I-0.0118 J0.022
G1 X5.9989 Y2.413 F64
X5.9997 Y2.4162
X6 Y2.4195
Y2.4748 F96
X5.9995 Y2.4853
X5.9984 Y2.4935
X5.9964 Y2.5029
X5.9933 Y2.5131
X5.9889 Y2.5246
X5.9829 Y2.5368
X5.975 Y2.5503
X5.9646 Y2.5651
X5.9518 Y2.5805
X5.9354 Y2.5974
X5.9146 Y2.6154
X5.889 Y2.6344
X5.8598 Y2.6526
X5.8294 Y2.6685
X5.7981 Y2.6827
X5.7662 Y2.6952
X5.7337 Y2.7063
X5.7008 Y2.7162
X5.6676 Y2.7251
X5.6342 Y2.7329
X5.6006 Y2.7399
X5.5668 Y2.746
X5.5329 Y2.7514
X5.4988 Y2.7561
X5.4647 Y2.7602
X5.4306 Y2.7636
X5.3964 Y2.7665
X5.3621 Y2.7688
X5.3278 Y2.7705
X5.2935 Y2.7717
X5.2592 Y2.7723
X5.2248 Y2.7724
X5.1905 Y2.772
X5.1562 Y2.7711
X5.1218 Y2.7696
X5.0876 Y2.7675
X5.0533 Y2.7648
X5.0192 Y2.7615
X4.985 Y2.7576
X4.951 Y2.7529
X4.9171 Y2.7475
X4.8833 Y2.7413
X4.8498 Y2.7342
X4.8164 Y2.726
X4.7833 Y2.7167
X4.7507 Y2.7062
X4.7185 Y2.6942
X4.6869 Y2.6807
X4.6561 Y2.6655
X4.6264 Y2.6482
X4.6012 Y2.6308
X4.5922 Y2.6216
X4.5854 Y2.6106
X4.5812 Y2.5984
X4.5797 Y2.5856
Y2.467
X4.5801 Y2.4637 F64
X4.5808 Y2.4605
X4.582 Y2.4575
G3 X4.593 Y2.4458 I0.0227 J0.0103 F96
X4.6232 Y2.4541 I0.0107 J0.0201
X4.5929 Y2.5644 I-0.0673 J0.0408
G2 X4.5819 Y2.5761 I0.0118 J0.0221
G1 X4.5808 Y2.5792 F64
X4.5801 Y2.5824
X4.5797 Y2.5856
Y2.6117 F72
X4.58 Y2.6171
X4.5809 Y2.6224
X4.5826 Y2.6275
X4.5871 Y2.6374
X4.5932 Y2.6473
X4.6017 Y2.6584
X4.6075 Y2.6649
X4.6146 Y2.6722
X4.6221 Y2.6792
X4.6318 Y2.6874
X4.6428 Y2.6958
X4.656 Y2.7049
X4.6714 Y2.7144
X4.6903 Y2.7249
X4.7112 Y2.7352
X4.7369 Y2.7463
X4.7677 Y2.7579
X4.8004 Y2.7684
X4.8335 Y2.7775
X4.8669 Y2.7854
X4.9005 Y2.7923
X4.9343 Y2.7983
X4.9683 Y2.8034
X5.0024 Y2.8078
X5.0365 Y2.8115
X5.0707 Y2.8145
X5.105 Y2.8169
X5.1392 Y2.8188
X5.1736 Y2.82
X5.2079 Y2.8208
X5.2422 Y2.8209
X5.2766 Y2.8206
X5.3109 Y2.8197
X5.3452 Y2.8182
X5.3795 Y2.8163
X5.4137 Y2.8137
X5.4479 Y2.8106
X5.4821 Y2.8069
X5.5161 Y2.8026
X5.5501 Y2.7976
X5.584 Y2.7919
X5.6177 Y2.7854
X5.6513 Y2.7781
X5.6846 Y2.7699
X5.7177 Y2.7607
X5.7504 Y2.7504
X5.7828 Y2.7389
X5.8143 Y2.7261
X5.8427 Y2.7129
X5.8675 Y2.6999
X5.888 Y2.6878
X5.9074 Y2.6751
X5.925 Y2.6623
X5.9405 Y2.6498
X5.9537 Y2.6381
X5.9653 Y2.6268
X5.9758 Y2.6154
X5.9881 Y2.6003
X5.9946 Y2.5895
X5.9986 Y2.5776
X6 Y2.565
Y2.4748
X5.9997 Y2.4715 F64
X5.9989 Y2.4683
X5.9978 Y2.4653
G2 X5.9868 Y2.4535 I-0.0228 J0.0103 F96
X5.9453 Y2.4808 I-0.0133 J0.025
X5.9867 Y2.5439 I0.0785 J-0.0064
G3 X5.9977 Y2.5556 I-0.0117 J0.022
G1 X5.9989 Y2.5586 F64
X5.9997 Y2.5618
X6 Y2.565
Y2.623 F96
X5.9996 Y2.6309
X5.9985 Y2.6393
X5.9965 Y2.6485
X5.9934 Y2.6589
X5.989 Y2.6703
X5.983 Y2.6826
X5.9749 Y2.6963
X5.9648 Y2.7107
X5.9519 Y2.7263
X5.9353 Y2.7433
X5.9148 Y2.7612
X5.8893 Y2.78
X5.8602 Y2.7982
X5.8298 Y2.8142
X5.7985 Y2.8283
X5.7665 Y2.8409
X5.7341 Y2.8521
X5.7012 Y2.862
X5.668 Y2.8709
X5.6346 Y2.8788
X5.601 Y2.8857
X5.5672 Y2.8919
X5.5333 Y2.8973
X5.4993 Y2.9021
X5.4652 Y2.9061
X5.431 Y2.9096
X5.3968 Y2.9125
X5.3625 Y2.9147
X5.3282 Y2.9165
X5.2939 Y2.9177
X5.2596 Y2.9183
X5.2253 Y2.9185
X5.1909 Y2.9181
X5.1566 Y2.9171
X5.1223 Y2.9156
X5.088 Y2.9135
X5.0538 Y2.9108
X5.0196 Y2.9075
X4.9855 Y2.9036
X4.9515 Y2.8989
X4.9176 Y2.8935
X4.8838 Y2.8873
X4.8502 Y2.8801
X4.8168 Y2.872
X4.7838 Y2.8627
X4.7511 Y2.8522
X4.7189 Y2.8403
X4.6873 Y2.8267
X4.6566 Y2.8115
X4.6268 Y2.7943
X4.6012 Y2.7766
X4.5922 Y2.7674
X4.5854 Y2.7564
X4.5812 Y2.7442
X4.5797 Y2.7314
Y2.6117
X4.5801 Y2.6084 F64
X4.5808 Y2.6053
X4.582 Y2.6022
G3 X4.593 Y2.5906 I0.0227 J0.0104 F96
X4.622 Y2.5982 I0.0104 J0.0195
X4.5929 Y2.71 I-0.0661 J0.0425
G2 X4.5818 Y2.7218 I0.0118 J0.0222
G1 X4.5808 Y2.7249 F64
X4.5801 Y2.7281
X4.5797 Y2.7314
Y2.758 F72
X4.58 Y2.7634
X4.581 Y2.7687
X4.5827 Y2.7738
X4.5873 Y2.7836
X4.5935 Y2.7936
X4.6022 Y2.8048
X4.608 Y2.8113
X4.6152 Y2.8186
X4.6229 Y2.8257
X4.6329 Y2.8341
X4.644 Y2.8424
X4.6575 Y2.8517
X4.673 Y2.8612
X4.6923 Y2.8717
X4.7137 Y2.8822
X4.7396 Y2.8933
X4.7709 Y2.9049
X4.8036 Y2.9152
X4.8368 Y2.9242
X4.8702 Y2.932
X4.9039 Y2.9388
X4.9377 Y2.9447
X4.9717 Y2.9498
X5.0057 Y2.9541
X5.0399 Y2.9578
X5.0741 Y2.9607
X5.1083 Y2.9631
X5.1426 Y2.9649
X5.177 Y2.9661
X5.2113 Y2.9668
X5.2456 Y2.9669
X5.28 Y2.9665
X5.3143 Y2.9656
X5.3486 Y2.9641
X5.3829 Y2.962
X5.4171 Y2.9594
X5.4513 Y2.9563
X5.4854 Y2.9525
X5.5195 Y2.9481
X5.5535 Y2.943
X5.5873 Y2.9372
X5.621 Y2.9307
X5.6545 Y2.9233
X5.6879 Y2.915
X5.7209 Y2.9057
X5.7536 Y2.8952
X5.7859 Y2.8836
X5.817 Y2.8707
X5.845 Y2.8576
X5.8701 Y2.8443
X5.8906 Y2.8321
X5.9093 Y2.8197
X5.9265 Y2.807
X5.942 Y2.7944
X5.9552 Y2.7826
X5.9665 Y2.7714
X5.9768 Y2.7601
X5.9883 Y2.746
X5.9947 Y2.7353
X5.9987 Y2.7234
X6 Y2.711
Y2.623
X5.9997 Y2.6197 F64
X5.9989 Y2.6166
X5.9978 Y2.6135
G2 X5.9868 Y2.6018 I-0.0228 J0.0104 F96
X5.9457 Y2.6301 I-0.0132 J0.0248
X5.9868 Y2.6898 I0.0781 J-0.0098
G3 X5.9977 Y2.7015 I-0.0118 J0.022
G1 X5.9989 Y2.7045 F64
X5.9997 Y2.7077
X6 Y2.711
Y2.7712 F96
X5.9997 Y2.7767
X5.9986 Y2.785
X5.9966 Y2.7943
X5.9936 Y2.8046
X5.9891 Y2.8162
X5.9831 Y2.8284
X5.9751 Y2.842
X5.9649 Y2.8566
X5.952 Y2.8721
X5.9355 Y2.889
X5.9147 Y2.9072
X5.8892 Y2.926
X5.86 Y2.9442
X5.8296 Y2.9602
X5.7984 Y2.9743
X5.7664 Y2.9869
X5.7339 Y2.9981
X5.7011 Y3.008
X5.6679 Y3.0169
X5.6345 Y3.0247
X5.6008 Y3.0317
X5.5671 Y3.0379
X5.5331 Y3.0433
X5.4991 Y3.048
X5.465 Y3.0521
X5.4309 Y3.0556
X5.3967 Y3.0584
X5.3624 Y3.0607
X5.3281 Y3.0625
X5.2938 Y3.0637
X5.2594 Y3.0643
X5.2251 Y3.0645
X5.1908 Y3.064
X5.1564 Y3.0631
X5.1221 Y3.0616
X5.0879 Y3.0595
X5.0536 Y3.0568
X5.0195 Y3.0535
X4.9853 Y3.0495
X4.9513 Y3.0448
X4.9174 Y3.0394
X4.8836 Y3.0332
X4.8501 Y3.026
X4.8167 Y3.0178
X4.7836 Y3.0086
X4.751 Y2.998
X4.7188 Y2.9861
X4.6872 Y2.9725
X4.6565 Y2.9573
X4.6267 Y2.94
X4.6012 Y2.9224
X4.5922 Y2.9132
X4.5854 Y2.9022
X4.5812 Y2.89
X4.5797 Y2.8772
Y2.758
X4.5801 Y2.7547 F64
X4.5808 Y2.7516
X4.582 Y2.7485
G3 X4.593 Y2.7369 I0.0227 J0.0104 F96
X4.6225 Y2.7448 I0.0105 J0.0198
X4.5929 Y2.8558 I-0.0666 J0.0417
G2 X4.5818 Y2.8676 I0.0118 J0.0223
G1 X4.5808 Y2.8708 F64
X4.5801 Y2.8739
X4.5797 Y2.8772
Y2.9039 F72
X4.58 Y2.9093
X4.581 Y2.9146
X4.5827 Y2.9197
X4.5873 Y2.9295
X4.5936 Y2.9395
X4.6022 Y2.9507
X4.6081 Y2.9572
X4.6153 Y2.9645
X4.623 Y2.9716
X4.633 Y2.98
X4.6441 Y2.9884
X4.6577 Y2.9977
X4.6732 Y3.0071
X4.6924 Y3.0177
X4.7139 Y3.0281
X4.7399 Y3.0392
X4.7713 Y3.0509
X4.8041 Y3.0612
X4.8372 Y3.0702
X4.8707 Y3.078
X4.9043 Y3.0848
X4.9381 Y3.0907
X4.9721 Y3.0958
X5.0062 Y3.1001
X5.0403 Y3.1038
X5.0745 Y3.1068
X5.1088 Y3.1091
X5.1431 Y3.1109
X5.1774 Y3.1121
X5.2117 Y3.1128
X5.2461 Y3.1129
X5.2804 Y3.1125
X5.3147 Y3.1115
X5.349 Y3.11
X5.3833 Y3.108
X5.4175 Y3.1054
X5.4517 Y3.1022
X5.4859 Y3.0984
X5.5199 Y3.094
X5.5539 Y3.0889
X5.5877 Y3.0831
X5.6214 Y3.0765
X5.655 Y3.0691
X5.6883 Y3.0608
X5.7213 Y3.0515
X5.754 Y3.0411
X5.7863 Y3.0293
X5.8022 Y3.0228
X5.83 Y3.0107
X5.8547 Y2.9985
X5.878 Y2.9855
X5.8993 Y2.9723
X5.9172 Y2.9599
X5.9328 Y2.9479
X5.9471 Y2.9359
X5.96 Y2.9238
X5.9713 Y2.9122
X5.9809 Y2.9012
X5.9873 Y2.8933
X5.9942 Y2.8823
X5.9985 Y2.8699
X6 Y2.8569
Y2.7712
X5.9997 Y2.768 F64
X5.9989 Y2.7648
X5.9978 Y2.7617
G2 X5.9868 Y2.75 I-0.0228 J0.0104 F96
X5.9461 Y2.7793 I-0.0131 J0.0247
X5.9867 Y2.8358 I0.0777 J-0.013
G3 X5.9977 Y2.8475 I-0.0117 J0.022
G1 X5.9989 Y2.8505 F64
X5.9997 Y2.8537
X6 Y2.8569
Y2.9117 F96
X5.9994 Y2.9229
X5.9984 Y2.9311
X5.9964 Y2.9404
X5.9933 Y2.9507
X5.9889 Y2.9619
X5.9828 Y2.9746
X5.975 Y2.9878
X5.9646 Y3.0025
X5.9515 Y3.0184
X5.9355 Y3.0348
X5.9143 Y3.0533
X5.8888 Y3.0721
X5.8596 Y3.0903
X5.8293 Y3.1063
X5.798 Y3.1204
X5.766 Y3.133
X5.7335 Y3.1441
X5.7007 Y3.1541
X5.6675 Y3.1629
X5.634 Y3.1708
X5.6004 Y3.1777
X5.5666 Y3.1839
X5.5327 Y3.1893
X5.4987 Y3.1941
X5.4646 Y3.1981
X5.4305 Y3.2016
X5.3962 Y3.2044
X5.362 Y3.2067
X5.3277 Y3.2085
X5.2934 Y3.2097
X5.259 Y3.2103
X5.2247 Y3.2104
X5.1904 Y3.21
X5.156 Y3.209
X5.1217 Y3.2075
X5.0874 Y3.2054
X5.0532 Y3.2027
X5.019 Y3.1994
X4.9849 Y3.1954
X4.9509 Y3.1907
X4.917 Y3.1853
X4.8832 Y3.179
X4.8497 Y3.1718
X4.8163 Y3.1636
X4.7833 Y3.1543
X4.7506 Y3.1438
X4.7184 Y3.1318
X4.6869 Y3.1182
X4.6561 Y3.1029
X4.6264 Y3.0857
X4.6012 Y3.0683
X4.5921 Y3.059
X4.5854 Y3.0481
X4.5812 Y3.0359
X4.5797 Y3.0231
Y2.9039
X4.5801 Y2.9006 F64
X4.5808 Y2.8974
X4.582 Y2.8944
G3 X4.593 Y2.8827 I0.0227 J0.0103 F96
X4.6226 Y2.8907 I0.0105 J0.0199
X4.5929 Y3.0018 I-0.0667 J0.0417
G2 X4.5819 Y3.0135 I0.0118 J0.0221
G1 X4.5808 Y3.0166 F64
X4.5801 Y3.0198
X4.5797 Y3.0231
Y3.0486 F72
X4.58 Y3.054
X4.5808 Y3.0593
X4.5824 Y3.0645
X4.5868 Y3.0743
X4.5929 Y3.0842
X4.6012 Y3.0953
X4.6068 Y3.1017
X4.6139 Y3.109
X4.6213 Y3.1159
X4.6308 Y3.124
X4.6417 Y3.1325
X4.6546 Y3.1415
X4.6699 Y3.1511
X4.6883 Y3.1614
X4.709 Y3.1717
X4.7343 Y3.1828
X4.7646 Y3.1944
X4.7972 Y3.2051
X4.8303 Y3.2143
X4.8637 Y3.2224
X4.8973 Y3.2294
X4.9311 Y3.2355
X4.965 Y3.2408
X4.9991 Y3.2452
X5.0332 Y3.249
X5.0674 Y3.2522
X5.1016 Y3.2547
X5.1359 Y3.2566
X5.1702 Y3.2579
X5.2046 Y3.2587
X5.2389 Y3.2589
X5.2732 Y3.2586
X5.3076 Y3.2578
X5.3419 Y3.2564
X5.3762 Y3.2545
X5.4104 Y3.252
X5.4446 Y3.2489
X5.4788 Y3.2453
X5.5128 Y3.241
X5.5468 Y3.236
X5.5807 Y3.2303
X5.6144 Y3.2239
X5.648 Y3.2167
X5.6813 Y3.2085
X5.7144 Y3.1994
X5.7472 Y3.1892
X5.7796 Y3.1778
X5.8115 Y3.165
X5.8271 Y3.1578
X5.8523 Y3.1455
X5.8759 Y3.1325
X5.8973 Y3.1194
X5.9151 Y3.1072
X5.9309 Y3.0952
X5.9455 Y3.083
X5.9586 Y3.0709
X5.9699 Y3.0593
X5.9796 Y3.0485
X5.9888 Y3.037
X5.9949 Y3.0264
X5.9987 Y3.0148
X6 Y3.0027
Y2.9117
X5.9997 Y2.9084 F64
X5.9989 Y2.9052
X5.9978 Y2.9022
G2 X5.9868 Y2.8904 I-0.0228 J0.0103 F96
X5.9453 Y2.9174 I-0.0133 J0.025
X5.9868 Y2.9814 I0.0785 J-0.0054
G3 X5.9978 Y2.9931 I-0.0118 J0.0221
G1 X5.9989 Y2.9962 F64
X5.9997 Y2.9994
X6 Y3.0027
Y3.0599 F96
X5.9996 Y3.0686
X5.9985 Y3.0767
X5.9965 Y3.0861
X5.9934 Y3.0963
X5.989 Y3.1077
X5.9829 Y3.1202
X5.9751 Y3.1335
X5.9647 Y3.1483
X5.9517 Y3.164
X5.9349 Y3.1812
X5.9147 Y3.1988
X5.8891 Y3.2178
X5.8599 Y3.2359
X5.8295 Y3.2519
X5.7983 Y3.2661
X5.7663 Y3.2787
X5.7338 Y3.2899
X5.701 Y3.2999
X5.6678 Y3.3087
X5.6344 Y3.3166
X5.6008 Y3.3236
X5.567 Y3.3298
X5.5331 Y3.3353
X5.4991 Y3.34
X5.465 Y3.3441
X5.4308 Y3.3476
X5.3966 Y3.3504
X5.3623 Y3.3527
X5.3281 Y3.3545
X5.2937 Y3.3557
X5.2594 Y3.3563
X5.2251 Y3.3564
X5.1907 Y3.356
X5.1564 Y3.355
X5.1221 Y3.3535
X5.0878 Y3.3514
X5.0536 Y3.3487
X5.0194 Y3.3454
X4.9853 Y3.3414
X4.9513 Y3.3367
X4.9174 Y3.3313
X4.8836 Y3.325
X4.85 Y3.3179
X4.8167 Y3.3097
X4.7836 Y3.3004
X4.751 Y3.2898
X4.7188 Y3.2778
X4.6872 Y3.2643
X4.6565 Y3.249
X4.6268 Y3.2318
X4.6012 Y3.2141
X4.5922 Y3.2049
X4.5854 Y3.1939
X4.5812 Y3.1817
X4.5797 Y3.1689
Y3.0486
X4.5801 Y3.0453 F64
X4.5808 Y3.0421
X4.582 Y3.0391
G3 X4.593 Y3.0275 I0.0227 J0.0104 F96
X4.6213 Y3.0347 I0.0102 J0.0192
X4.5928 Y3.1475 I-0.0654 J0.0435
G2 X4.5817 Y3.1593 I0.0119 J0.0223
G1 X4.5808 Y3.1625 F64
X4.5801 Y3.1656
X4.5797 Y3.1689
Y3.1949 F72
X4.58 Y3.2003
X4.5809 Y3.2056
X4.5825 Y3.2107
X4.587 Y3.2206
X4.5931 Y3.2305
X4.6016 Y3.2416
X4.6073 Y3.2481
X4.6144 Y3.2554
X4.6219 Y3.2624
X4.6316 Y3.2706
X4.6426 Y3.279
X4.6558 Y3.2881
X4.6711 Y3.2977
X4.69 Y3.3082
X4.711 Y3.3185
X4.7366 Y3.3297
X4.7673 Y3.3413
X4.7999 Y3.3518
X4.833 Y3.361
X4.8664 Y3.3689
X4.9001 Y3.3759
X4.9339 Y3.3819
X4.9678 Y3.3871
X5.0019 Y3.3915
X5.036 Y3.3953
X5.0702 Y3.3983
X5.1045 Y3.4008
X5.1388 Y3.4027
X5.1731 Y3.404
X5.2074 Y3.4047
X5.2417 Y3.4049
X5.2761 Y3.4046
X5.3104 Y3.4037
X5.3447 Y3.4023
X5.379 Y3.4003
X5.4132 Y3.3977
X5.4474 Y3.3946
X5.4816 Y3.3909
X5.5156 Y3.3866
X5.5496 Y3.3816
X5.5835 Y3.3758
X5.6172 Y3.3693
X5.6507 Y3.362
X5.6841 Y3.3538
X5.7171 Y3.3445
X5.7499 Y3.3342
X5.7822 Y3.3226
X5.814 Y3.3097
X5.8426 Y3.2964
X5.8675 Y3.2834
X5.8881 Y3.2712
X5.9072 Y3.2587
X5.9249 Y3.2458
X5.9405 Y3.2333
X5.9537 Y3.2215
X5.9653 Y3.2101
X5.9758 Y3.1988
X5.9881 Y3.1837
X5.9946 Y3.1729
X5.9986 Y3.161
X6 Y3.1484
Y3.0599
X5.9997 Y3.0566 F64
X5.9989 Y3.0535
X5.9978 Y3.0504
G2 X5.9868 Y3.0387 I-0.0228 J0.0104 F96
X5.9455 Y3.0667 I-0.0133 J0.0248
X5.9867 Y3.1273 I0.0783 J-0.0089
G3 X5.9977 Y3.139 I-0.0117 J0.022
G1 X5.9989 Y3.142 F64
X5.9997 Y3.1452
X6 Y3.1484
Y3.2081 F96
X5.9997 Y3.2142
X5.9986 Y3.2226
X5.9966 Y3.2319
X5.9935 Y3.2423
X5.989 Y3.2537
X5.9831 Y3.2661
X5.975 Y3.2797
X5.9649 Y3.2942
X5.9519 Y3.3098
X5.9353 Y3.3268
X5.9148 Y3.3447
X5.8892 Y3.3637
X5.86 Y3.3818
X5.8296 Y3.3978
X5.7984 Y3.412
X5.7664 Y3.4246
X5.734 Y3.4358
X5.7011 Y3.4458
X5.6679 Y3.4547
X5.6345 Y3.4626
X5.6009 Y3.4696
X5.5671 Y3.4758
X5.5332 Y3.4812
X5.4992 Y3.486
X5.4651 Y3.4901
X5.431 Y3.4935
X5.3967 Y3.4964
X5.3625 Y3.4987
X5.3282 Y3.5005
X5.2939 Y3.5017
X5.2595 Y3.5023
X5.2252 Y3.5024
X5.1909 Y3.502
X5.1565 Y3.501
X5.1222 Y3.4995
X5.088 Y3.4974
X5.0537 Y3.4946
X5.0195 Y3.4913
X4.9854 Y3.4873
X4.9514 Y3.4827
X4.9175 Y3.4772
X4.8838 Y3.471
X4.8502 Y3.4638
X4.8168 Y3.4556
X4.7838 Y3.4463
X4.7511 Y3.4358
X4.7189 Y3.4238
X4.6873 Y3.4102
X4.6566 Y3.395
X4.6269 Y3.3778
X4.6012 Y3.36
X4.5922 Y3.3508
X4.5854 Y3.3398
X4.5812 Y3.3276
X4.5797 Y3.3148
Y3.1949
X4.5801 Y3.1916 F64
X4.5808 Y3.1884
X4.582 Y3.1854
G3 X4.593 Y3.1738 I0.0227 J0.0104 F96
X4.6218 Y3.1812 I0.0104 J0.0194
X4.5929 Y3.2935 I-0.0659 J0.0429
G2 X4.5818 Y3.3052 I0.0118 J0.0222
G1 X4.5808 Y3.3084 F64
X4.5801 Y3.3115
X4.5797 Y3.3148
Y3.3408 F72
X4.58 Y3.3462
X4.5809 Y3.3515
X4.5825 Y3.3566
X4.587 Y3.3664
X4.5931 Y3.3764
X4.6016 Y3.3875
X4.6073 Y3.394
X4.6144 Y3.4013
X4.6219 Y3.4083
X4.6316 Y3.4165
X4.6426 Y3.425
X4.6558 Y3.434
X4.6712 Y3.4436
X4.69 Y3.4541
X4.7109 Y3.4644
X4.7364 Y3.4755
X4.7671 Y3.4871
X4.7997 Y3.4977
X4.8328 Y3.5068
X4.8662 Y3.5148
X4.8999 Y3.5218
X4.9337 Y3.5278
X4.9676 Y3.533
X5.0017 Y3.5374
X5.0358 Y3.5412
X5.07 Y3.5443
X5.1042 Y3.5467
X5.1385 Y3.5486
X5.1728 Y3.5499
X5.2072 Y3.5507
X5.2415 Y3.5509
X5.2758 Y3.5506
X5.3102 Y3.5497
X5.3445 Y3.5483
X5.3788 Y3.5463
X5.413 Y3.5438
X5.4472 Y3.5406
X5.4813 Y3.5369
X5.5154 Y3.5326
X5.5494 Y3.5276
X5.5832 Y3.5218
X5.617 Y3.5153
X5.6505 Y3.508
X5.6838 Y3.4998
X5.7169 Y3.4905
X5.7497 Y3.4802
X5.782 Y3.4687
X5.8138 Y3.4557
X5.8424 Y3.4425
X5.8674 Y3.4294
X5.888 Y3.4173
X5.9073 Y3.4046
X5.9249 Y3.3918
X5.9405 Y3.3792
X5.9537 Y3.3675
X5.9653 Y3.3562
X5.9758 Y3.3448
X5.9881 Y3.3298
X5.9946 Y3.319
X5.9986 Y3.307
X6 Y3.2945
Y3.2081
X5.9997 Y3.2049 F64
X5.9989 Y3.2017
X5.9978 Y3.1986
G2 X5.9868 Y3.1869 I-0.0228 J0.0104 F96
X5.9459 Y3.2159 I-0.0132 J0.0247
X5.9867 Y3.2734 I0.0779 J-0.0121
G3 X5.9977 Y3.285 I-0.0117 J0.022
G1 X5.9989 Y3.2881 F64
X5.9997 Y3.2912
X6 Y3.2945
Y3.3529 F96
X5.9996 Y3.3603
X5.9985 Y3.3687
X5.9966 Y3.3779
X5.9935 Y3.3883
X5.989 Y3.3997
X5.983 Y3.412
X5.975 Y3.4257
X5.9648 Y3.4402
X5.9519 Y3.4557
X5.9352 Y3.4728
X5.9148 Y3.4907
X5.8891 Y3.5096
X5.86 Y3.5277
X5.8296 Y3.5438
X5.7983 Y3.5579
X5.7664 Y3.5705
X5.7339 Y3.5817
X5.7011 Y3.5917
X5.6679 Y3.6006
X5.6345 Y3.6085
X5.6009 Y3.6156
X5.5671 Y3.6218
X5.5332 Y3.6272
X5.4992 Y3.632
X5.4651 Y3.6361
X5.4309 Y3.6395
X5.3967 Y3.6424
X5.3625 Y3.6447
X5.3282 Y3.6464
X5.2938 Y3.6476
X5.2595 Y3.6483
X5.2252 Y3.6484
X5.1908 Y3.648
X5.1565 Y3.647
X5.1222 Y3.6454
X5.0879 Y3.6433
X5.0537 Y3.6406
X5.0195 Y3.6373
X4.9854 Y3.6333
X4.9514 Y3.6286
X4.9175 Y3.6231
X4.8837 Y3.6169
X4.8502 Y3.6097
X4.8168 Y3.6016
X4.7837 Y3.5923
X4.7511 Y3.5817
X4.7189 Y3.5697
X4.6873 Y3.5562
X4.6566 Y3.5409
X4.6269 Y3.5237
X4.6012 Y3.5059
X4.5922 Y3.4967
X4.5854 Y3.4857
X4.5812 Y3.4735
X4.5797 Y3.4607
Y3.3408
X4.5801 Y3.3375 F64
X4.5808 Y3.3343
X4.582 Y3.3313
G3 X4.593 Y3.3196 I0.0227 J0.0103 F96
X4.6218 Y3.327 I0.0103 J0.0195
X4.5929 Y3.4394 I-0.0659 J0.043
G2 X4.5818 Y3.4512 I0.0118 J0.0222
G1 X4.5808 Y3.4543 F64
X4.5801 Y3.4575
X4.5797 Y3.4607
Y3.4874 F72
X4.58 Y3.4928
X4.581 Y3.4981
X4.5827 Y3.5032
X4.5873 Y3.513
X4.5936 Y3.523
X4.6022 Y3.5342
X4.6081 Y3.5408
X4.6153 Y3.5481
X4.623 Y3.5552
X4.633 Y3.5636
X4.6442 Y3.572
X4.6578 Y3.5813
X4.6733 Y3.5908
X4.6926 Y3.6014
X4.7142 Y3.6119
X4.7402 Y3.623
X4.7716 Y3.6346
X4.8044 Y3.645
X4.8375 Y3.654
X4.8709 Y3.6618
X4.9046 Y3.6686
X4.9384 Y3.6745
X4.9724 Y3.6796
X5.0064 Y3.684
X5.0406 Y3.6876
X5.0748 Y3.6906
X5.109 Y3.693
X5.1433 Y3.6948
X5.1777 Y3.696
X5.212 Y3.6967
X5.2463 Y3.6968
X5.2807 Y3.6964
X5.315 Y3.6955
X5.3493 Y3.694
X5.3836 Y3.6919
X5.4178 Y3.6893
X5.452 Y3.6861
X5.4861 Y3.6823
X5.5202 Y3.6779
X5.5541 Y3.6727
X5.588 Y3.6669
X5.6217 Y3.6603
X5.6552 Y3.6529
X5.6885 Y3.6445
X5.7215 Y3.6352
X5.7542 Y3.6247
X5.7865 Y3.6129
X5.8176 Y3.6001
X5.8455 Y3.5869
X5.8706 Y3.5735
X5.8913 Y3.5611
X5.9098 Y3.5488
X5.927 Y3.5361
X5.9424 Y3.5236
X5.9556 Y3.5116
X5.9669 Y3.5004
X5.9771 Y3.4892
X5.9884 Y3.4754
X5.9947 Y3.4647
X5.9987 Y3.4528
X6 Y3.4404
Y3.3529
X5.9997 Y3.3496 F64
X5.9989 Y3.3464
X5.9978 Y3.3434
G2 X5.9868 Y3.3316 I-0.0228 J0.0103 F96
X5.9458 Y3.3601 I-0.0132 J0.0248
X5.9868 Y3.4192 I0.078 J-0.0104
G3 X5.9978 Y3.4309 I-0.0118 J0.0221
G1 X5.9989 Y3.434 F64
X5.9997 Y3.4372
X6 Y3.4404
Y3.4968 F96
X5.9995 Y3.5063
X5.9984 Y3.5146
X5.9964 Y3.524
X5.9934 Y3.5342
X5.9889 Y3.5458
X5.9829 Y3.558
X5.975 Y3.5715
X5.9646 Y3.5862
X5.9518 Y3.6017
X5.9352 Y3.6187
X5.9144 Y3.6369
X5.8888 Y3.6558
X5.8596 Y3.674
X5.8293 Y3.69
X5.798 Y3.7041
X5.766 Y3.7167
X5.7335 Y3.7279
X5.7007 Y3.7378
X5.6675 Y3.7467
X5.6341 Y3.7546
X5.6005 Y3.7616
X5.5667 Y3.7678
X5.5328 Y3.7732
X5.4988 Y3.778
X5.4647 Y3.782
X5.4305 Y3.7855
X5.3963 Y3.7884
X5.362 Y3.7907
X5.3277 Y3.7924
X5.2934 Y3.7936
X5.2591 Y3.7942
X5.2248 Y3.7943
X5.1904 Y3.7939
X5.1561 Y3.7929
X5.1218 Y3.7914
X5.0875 Y3.7893
X5.0533 Y3.7865
X5.0191 Y3.7832
X4.985 Y3.7792
X4.951 Y3.7745
X4.9171 Y3.769
X4.8833 Y3.7627
X4.8497 Y3.7555
X4.8164 Y3.7474
X4.7833 Y3.738
X4.7507 Y3.7275
X4.7185 Y3.7155
X4.687 Y3.7019
X4.6562 Y3.6866
X4.6265 Y3.6693
X4.6012 Y3.6518
X4.5921 Y3.6426
X4.5854 Y3.6317
X4.5812 Y3.6195
X4.5797 Y3.6066
Y3.4874
X4.5801 Y3.4842 F64
X4.5808 Y3.481
X4.582 Y3.4779
G3 X4.593 Y3.4663 I0.0227 J0.0104 F96
X4.6225 Y3.4742 I0.0105 J0.0198
X4.5929 Y3.5854 I-0.0666 J0.0418
G2 X4.5819 Y3.5971 I0.0118 J0.0221
G1 X4.5808 Y3.6002 F64
X4.5801 Y3.6034
X4.5797 Y3.6066
Y3.6334 F72
X4.58 Y3.6388
X4.581 Y3.6441
X4.5828 Y3.6492
X4.5873 Y3.659
X4.5937 Y3.669
X4.6023 Y3.6802
X4.6082 Y3.6869
X4.6154 Y3.6941
X4.6232 Y3.7013
X4.6333 Y3.7097
X4.6443 Y3.718
X4.6581 Y3.7274
X4.6736 Y3.7369
X4.6929 Y3.7474
X4.7147 Y3.758
X4.7408 Y3.7691
X4.7724 Y3.7808
X4.8052 Y3.7911
X4.8383 Y3.8001
X4.8718 Y3.8079
X4.9054 Y3.8147
X4.9392 Y3.8206
X4.9732 Y3.8257
X5.0073 Y3.83
X5.0414 Y3.8337
X5.0756 Y3.8366
X5.1099 Y3.839
X5.1442 Y3.8408
X5.1785 Y3.842
X5.2128 Y3.8427
X5.2472 Y3.8428
X5.2815 Y3.8424
X5.3158 Y3.8414
X5.3501 Y3.8399
X5.3844 Y3.8378
X5.4186 Y3.8352
X5.4528 Y3.832
X5.487 Y3.8281
X5.521 Y3.8237
X5.555 Y3.8185
X5.5888 Y3.8127
X5.6225 Y3.8061
X5.656 Y3.7986
X5.6893 Y3.7903
X5.7224 Y3.7809
X5.755 Y3.7704
X5.7873 Y3.7586
X5.8181 Y3.7459
X5.8458 Y3.7327
X5.8708 Y3.7193
X5.8915 Y3.7069
X5.9101 Y3.6946
X5.9272 Y3.6819
X5.9425 Y3.6694
X5.9558 Y3.6574
X5.9671 Y3.6461
X5.9773 Y3.6349
X5.9884 Y3.6212
X5.9947 Y3.6105
X5.9987 Y3.5987
X6 Y3.5863
Y3.4968
X5.9997 Y3.4935 F64
X5.9989 Y3.4904
X5.9978 Y3.4873
G2 X5.9868 Y3.4756 I-0.0228 J0.0104 F96
X5.9454 Y3.5032 I-0.0133 J0.0249
X5.9868 Y3.5651 I0.0784 J-0.0076
G3 X5.9978 Y3.5768 I-0.0118 J0.0221
G1 X5.9989 Y3.5799 F64
X5.9997 Y3.583
X6 Y3.5863
Y3.645 F96
X5.9996 Y3.6522
X5.9986 Y3.6605
X5.9965 Y3.6699
X5.9935 Y3.6801
X5.989 Y3.6917
X5.983 Y3.7039
X5.975 Y3.7175
X5.9647 Y3.7322
X5.9518 Y3.7477
X5.9353 Y3.7647
X5.9144 Y3.7829
X5.8888 Y3.8019
X5.8596 Y3.82
X5.8292 Y3.836
X5.7979 Y3.8502
X5.766 Y3.8627
X5.7335 Y3.8739
X5.7006 Y3.8838
X5.6675 Y3.8927
X5.634 Y3.9006
X5.6004 Y3.9076
X5.5666 Y3.9137
X5.5327 Y3.9192
X5.4987 Y3.9239
X5.4646 Y3.928
X5.4305 Y3.9315
X5.3963 Y3.9343
X5.362 Y3.9366
X5.3277 Y3.9384
X5.2934 Y3.9395
X5.259 Y3.9402
X5.2247 Y3.9403
X5.1904 Y3.9399
X5.156 Y3.9389
X5.1217 Y3.9373
X5.0875 Y3.9352
X5.0532 Y3.9325
X5.0191 Y3.9292
X4.985 Y3.9252
X4.9509 Y3.9204
X4.917 Y3.915
X4.8833 Y3.9087
X4.8497 Y3.9015
X4.8164 Y3.8933
X4.7833 Y3.8839
X4.7506 Y3.8734
X4.7185 Y3.8614
X4.6869 Y3.8478
X4.6562 Y3.8325
X4.6265 Y3.8152
X4.6012 Y3.7977
X4.5921 Y3.7885
X4.5854 Y3.7776
X4.5812 Y3.7654
X4.5797 Y3.7526
Y3.6334
X4.5801 Y3.6302 F64
X4.5808 Y3.627
X4.582 Y3.6239
G3 X4.593 Y3.6123 I0.0227 J0.0104 F96
X4.6227 Y3.6202 I0.0106 J0.0199
X4.593 Y3.7314 I-0.0668 J0.0417
G2 X4.582 Y3.7431 I0.0117 J0.022
G1 X4.5808 Y3.7461 F64
X4.5801 Y3.7493
X4.5797 Y3.7526
Y3.7789 F72
X4.58 Y3.7843
X4.581 Y3.7897
X4.5826 Y3.7948
X4.5872 Y3.8046
X4.5934 Y3.8146
X4.602 Y3.8257
X4.6078 Y3.8323
X4.6149 Y3.8396
X4.6226 Y3.8467
X4.6325 Y3.855
X4.6435 Y3.8634
X4.6571 Y3.8726
X4.6725 Y3.8821
X4.6917 Y3.8927
X4.713 Y3.9031
X4.7389 Y3.9143
X4.7701 Y3.9259
X4.8029 Y3.9364
X4.836 Y3.9454
X4.8694 Y3.9533
X4.903 Y3.9602
X4.9369 Y3.9662
X4.9708 Y3.9713
X5.0049 Y3.9757
X5.039 Y3.9794
X5.0732 Y3.9824
X5.1075 Y3.9848
X5.1418 Y3.9867
X5.1761 Y3.9879
X5.2104 Y3.9886
X5.2447 Y3.9888
X5.2791 Y3.9884
X5.3134 Y3.9874
X5.3477 Y3.986
X5.382 Y3.9839
X5.4162 Y3.9813
X5.4504 Y3.9782
X5.4846 Y3.9744
X5.5186 Y3.97
X5.5526 Y3.9649
X5.5864 Y3.9591
X5.6201 Y3.9526
X5.6537 Y3.9452
X5.687 Y3.9369
X5.72 Y3.9276
X5.7528 Y3.9172
X5.7851 Y3.9055
X5.8162 Y3.8927
X5.8443 Y3.8795
X5.8693 Y3.8662
X5.8899 Y3.854
X5.9088 Y3.8415
X5.9262 Y3.8287
X5.9416 Y3.8161
X5.9549 Y3.8043
X5.9663 Y3.793
X5.9767 Y3.7817
X5.9883 Y3.7674
X5.9947 Y3.7567
X5.9987 Y3.7448
X6 Y3.7323
Y3.645
X5.9997 Y3.6418 F64
X5.9989 Y3.6386
X5.9978 Y3.6355
G2 X5.9868 Y3.6238 I-0.0228 J0.0104 F96
X5.9458 Y3.6524 I-0.0132 J0.0248
X5.9868 Y3.7112 I0.078 J-0.0107
G3 X5.9977 Y3.7229 I-0.0118 J0.022
G1 X5.9989 Y3.7259 F64
X5.9997 Y3.7291
X6 Y3.7323
Y3.7933 F96
X5.9997 Y3.7986
X5.9986 Y3.807
X5.9965 Y3.8165
X5.9933 Y3.8268
X5.9887 Y3.8385
X5.9826 Y3.8508
X5.9745 Y3.8645
X5.964 Y3.8793
X5.9509 Y3.8948
X5.9341 Y3.9119
X5.9129 Y3.9301
X5.8869 Y3.9492
X5.8576 Y3.9672
X5.8271 Y3.983
X5.8006 Y3.9949
X5.7929 Y3.9977
X5.7849 Y3.9994
X5.7767 Y4
X4.7997
X4.7659 Y3.9983
X4.7413 Y3.9951
X4.7146 Y3.9894
X4.6874 Y3.9812
X4.6601 Y3.9706
X4.6348 Y3.9583
X4.6118 Y3.9448
X4.6019 Y3.9378
X4.5934 Y3.9306
X4.5865 Y3.9218
X4.5813 Y3.9119
X4.5782 Y3.9013
X4.5771 Y3.8902
X4.5781 Y3.8791
X4.5788 Y3.8759 F64
X4.5798 Y3.8728
X4.5813 Y3.8698
G3 X4.6136 Y3.8598 I0.0216 J0.0125 F96
G1 X4.8095 Y3.9524
G3 X4.8092 Y3.9978 I-0.0107 J0.0226
G1 X4.8061 Y3.9989 F64
X4.8029 Y3.9997
X4.7997 Y4
X4.7139 Y4.0002 F96
X4.7061 Y4.0008
X4.6983 Y4.002
X4.6895 Y4.0039
X4.6826 Y4.0057
X4.6784 Y4.0073
X4.6732 Y4.0088
X4.6642 Y4.0107
X4.6547 Y4.0119
X4.6443 Y4.0124
X4.6336 Y4.012
X4.6233 Y4.0108
X4.6133 Y4.0089
X4.6032 Y4.006
X4.594 Y4.0026
X4.5846 Y3.9982
X4.5741 Y3.9906
X4.5657 Y3.9808
X4.5597 Y3.9694
X4.5565 Y3.9569
X4.5562 Y3.944
X4.5588 Y3.9314
X4.5642 Y3.9197
X4.5661 Y3.9171 F64
X4.5684 Y3.9147
X4.571 Y3.9127
G3 X4.5851 Y3.9084 I0.0141 J0.0207 F96
X4.598 Y3.912 I0 J0.025
G1 X4.682 Y3.9626
G3 X4.6865 Y4.0019 I-0.0129 J0.0214
G1 X4.6841 Y4.0041 F64
X4.6813 Y4.0059
X4.6784 Y4.0073
X4.667 Y4.0119 F96
X4.6592 Y4.0158
X4.6514 Y4.0205
X4.6358 Y4.0318
X4.6313 Y4.0348
X4.6263 Y4.0373
X4.6213 Y4.0394
X4.6159 Y4.0411
X4.6096 Y4.0425
X4.6036 Y4.0434
X4.5976 Y4.0438
X4.5907 Y4.0436
X4.584 Y4.043
X4.5777 Y4.0419
X4.5706 Y4.04
X4.563 Y4.0372
