%
(Heatsink milling)
(Yeah.)
(T1  D=0.25 CR=0 - ZMIN=-0.02 - flat end mill)
(T8  D=0.125 CR=0 TAPER=118deg - ZMIN=0.2124 - drill)
G90
G17
G20
G28 G91 Z0
G90

(Bolt hole spot drilling)
T8 M6
(Speeds and feeds for Al, SPOT DRILLING ONLY NO EXCEPTIONS)
S9000 M3
G54
G0 X5.6506 Y6.9392
Z0.85
Z0.49
Z0.37
G1 Z0.2588 F0.5
G0 Z0.29
G1 Z0.2275 F0.5
G0 Z0.2588
G1 Z0.2124 F0.5
G0 Z0.49
Y5.0642
Z0.37
G1 Z0.2588 F0.5
G0 Z0.29
G1 Z0.2275 F0.5
G0 Z0.2588
G1 Z0.2124 F0.5
G0 Z0.49
X2.9358 Y5.6506
Z0.37
G1 Z0.2588 F0.5
G0 Z0.29
G1 Z0.2275 F0.5
G0 Z0.2588
G1 Z0.2124 F0.5
G0 Z0.49
X1.0608
Z0.37
G1 Z0.2588 F0.5
G0 Z0.29
G1 Z0.2275 F0.5
G0 Z0.2588
G1 Z0.2124 F0.5
G0 Z0.49
X2.3494 Y1.0608
Z0.37
G1 Z0.2588 F0.5
G0 Z0.29
G1 Z0.2275 F0.5
G0 Z0.2588
G1 Z0.2124 F0.5
G0 Z0.49
Y2.9358
Z0.37
G1 Z0.2588 F0.5
G0 Z0.29
G1 Z0.2275 F0.5
G0 Z0.2588
G1 Z0.2124 F0.5
G0 Z0.49
X5.0642 Y2.3494
Z0.37
G1 Z0.2588 F0.5
G0 Z0.29
G1 Z0.2275 F0.5
G0 Z0.2588
G1 Z0.2124 F0.5
G0 Z0.49
X6.9392
Z0.37
G1 Z0.2588 F0.5
G0 Z0.29
G1 Z0.2275 F0.5
G0 Z0.2588
G1 Z0.2124 F0.5
G0 Z0.49
Z0.85
M5
G28 G91 Z0
G90

(Profile roughing)
T1 M6
(Speeds and feeds for Al, 20 THOU STEPOVER NO MORE NO LESS)
S24000 M3
G54
G0 X4.2743 Y0.1019
Z0.85
Z0.45
Z0.03
G1 Z0.005 F27
X4.2742 Y0.1022 Z0.0011
X4.2736 Y0.1029 Z-0.0027
X4.2728 Y0.1042 Z-0.0063
X4.2716 Y0.1058 Z-0.0097
X4.2701 Y0.1079 Z-0.0127
X4.2684 Y0.1104 Z-0.0152
X4.2665 Y0.1131 Z-0.0173
X4.2644 Y0.1161 Z-0.0188
X4.2623 Y0.1192 Z-0.0197
X4.26 Y0.1224 Z-0.02
X4.2586 Y0.124
X4.2568 Y0.1251
X4.2547 Y0.1257
X4.2526
X4.2506 Y0.1251
X4.2465 Y0.1232 F54
X4.2438 Y0.1218
X4.2233 Y0.0918
X4.1961 Y0.0676
X4.1646 Y0.0495
X4.1304 Y0.0371
X4.0949 Y0.0293
X4.0588 Y0.0247
X4.0226 Y0.0223
X3.9862 Y0.0211
X3.9135 Y0.0202
X2.8229 Y0.02
X2.2775
X0.278
X0.169
X0.1334 Y0.0277
X0.1016 Y0.0454
X0.0753 Y0.0704
X0.0726 Y0.0745
X0.0636 Y0.0862
X0.0532 Y0.0966
X0.0415 Y0.1055
X0.0288 Y0.1129
X0.0152 Y0.1184
X0.0132 Y0.1187 Z-0.0198 F27
X0.0113 Y0.119 Z-0.0192
X0.0096 Y0.1193 Z-0.0182
X0.0081 Y0.1195 Z-0.0168
X0.0066 Y0.1194 Z-0.0149
X0.0058 Y0.1193 Z-0.0126
X0.0055 Z-0.0102
G0 Z0.45
X4.2703 Y0.1
Z0.03
G1 Z0.005 F27
X4.2701 Y0.1003 Z0.0011
X4.2695 Y0.101 Z-0.0027
X4.2687 Y0.1023 Z-0.0063
X4.2675 Y0.104 Z-0.0097
X4.2661 Y0.106 Z-0.0127
X4.2643 Y0.1085 Z-0.0152
X4.2624 Y0.1112 Z-0.0173
X4.2603 Y0.1142 Z-0.0188
X4.2582 Y0.1173 Z-0.0197
X4.2559 Y0.1205 Z-0.02
X4.2545 Y0.1221
X4.2527 Y0.1232
X4.2506 Y0.1238
X4.2485
X4.2465 Y0.1232
X4.2354 Y0.1186 F54
X4.2258 Y0.1155
X4.2224 Y0.1147
X4.1927 Y0.0937
X4.1606 Y0.0767
X4.1266 Y0.0638
X4.0914 Y0.0547
X4.0556 Y0.0486
X4.0194 Y0.0448
X3.9831 Y0.0426
X3.9468 Y0.0414
X3.8741 Y0.0404
X3.5469 Y0.04
X2.2381
X0.2386
X0.2022 Y0.0416
X0.1671 Y0.051
X0.1344 Y0.0668
X0.1038 Y0.0865
X0.0922 Y0.0956
X0.0794 Y0.1028
X0.0656 Y0.1079
X0.0512 Y0.1108
X0.049 Y0.1109 Z-0.0198 F27
X0.0469 Y0.1106 Z-0.019
X0.0451 Y0.1103 Z-0.0178
X0.0436 Y0.1101 Z-0.0163
X0.0424 Y0.1099 Z-0.0144
X0.0417 Y0.1098 Z-0.0124
X0.0415 Z-0.0102
G0 Z0.45
X4.2436 Y0.0874
Z0.03
G1 Z0.005 F27
X4.2434 Y0.0877 Z0.0011
X4.2431 Y0.0886 Z-0.0027
X4.2425 Y0.09 Z-0.0063
X4.2418 Y0.0919 Z-0.0097
X4.2409 Y0.0943 Z-0.0127
X4.2398 Y0.097 Z-0.0152
X4.2385 Y0.1001 Z-0.0173
X4.2372 Y0.1035 Z-0.0188
X4.2358 Y0.1071 Z-0.0197
X4.2343 Y0.1107 Z-0.02
X4.2333 Y0.1125
X4.2318 Y0.114
X4.23 Y0.1151
X4.2279 Y0.1156
X4.2258 Y0.1155
X4.2024 Y0.1109 F54
X4.1999 Y0.1108
X4.1945 Y0.1104
X4.1604 Y0.0978
X4.1258 Y0.0865
X4.0905 Y0.0778
X4.0548 Y0.0714
X4.0187 Y0.067
X3.9824 Y0.0641
X3.9461 Y0.0624
X3.9098 Y0.0613
X3.8371 Y0.0604
X3.5462 Y0.06
X2.2375
X0.2743
X0.238 Y0.0619
X0.2023 Y0.0691
X0.1681 Y0.0812
X0.123 Y0.1026
X0.11 Y0.1067
X0.0967 Y0.1092
X0.0832 Y0.11
X0.081 Y0.1095 Z-0.0197 F27
X0.079 Y0.1091 Z-0.019
X0.0772 Y0.1087 Z-0.0179
X0.0757 Y0.1084 Z-0.0163
X0.0746 Y0.1082 Z-0.0145
X0.0739 Y0.1079 Z-0.0124
X0.0737 Y0.1078 Z-0.0102
G0 Z0.45
X4.2129 Y0.0803
Z0.03
G1 Z0.005 F27
Y0.0806 Z0.0011
X4.2127 Y0.0815 Z-0.0027
X4.2123 Y0.083 Z-0.0063
X4.2119 Y0.085 Z-0.0097
X4.2114 Y0.0874 Z-0.0127
X4.2107 Y0.0904 Z-0.0152
X4.21 Y0.0936 Z-0.0173
X4.2092 Y0.0972 Z-0.0188
X4.2084 Y0.1009 Z-0.0197
X4.2076 Y0.1047 Z-0.02
X4.2068 Y0.1067
X4.2056 Y0.1084
X4.2039 Y0.1097
X4.202 Y0.1106
X4.1999 Y0.1108
X4.1776 Y0.11 F54
X4.1693
X4.164 Y0.1097
X4.1488 Y0.1077
X4.077 Y0.0957
X4.041 Y0.0908
X4.0049 Y0.0871
X3.9686 Y0.0845
X3.9323 Y0.0827
X3.896 Y0.0816
X3.8233 Y0.0805
X3.6051 Y0.08
X2.1873
X0.3332
X0.2968 Y0.0803
X0.2605 Y0.0828
X0.2248 Y0.0894
X0.1899 Y0.0998
X0.1651 Y0.1087
X0.1596 Y0.1099
X0.1568 Y0.11
X0.1253
X0.1231 Y0.1095 Z-0.0197 F27
X0.1211 Y0.1091 Z-0.019
X0.1193 Y0.1087 Z-0.0179
X0.1178 Y0.1084 Z-0.0163
X0.1167 Y0.1082 Z-0.0145
X0.116 Y0.1079 Z-0.0124
X0.1158 Y0.1078 Z-0.0102
G0 Z0.45
X4.1812 Y0.079
Z0.03
G1 Z0.005 F27
X4.1811 Y0.0793 Z0.0011
X4.181 Y0.0802 Z-0.0027
X4.1807 Y0.0816 Z-0.0063
X4.1803 Y0.0837 Z-0.0097
X4.1799 Y0.0862 Z-0.0127
X4.1794 Y0.0891 Z-0.0152
X4.1788 Y0.0924 Z-0.0173
X4.1781 Y0.096 Z-0.0188
X4.1775 Y0.0997 Z-0.0197
X4.1768 Y0.1036 Z-0.02
X4.1761 Y0.1056
X4.1749 Y0.1073
X4.1733 Y0.1087
X4.1714 Y0.1096
X4.1693 Y0.11
X4.0867 F54
X4.0504 Y0.1082
X4.0141 Y0.1068
X3.9415 Y0.1034
X3.8688 Y0.1014
X3.7597 Y0.1003
X3.178 Y0.1
X2.0874
X0.3423 Y0.1001
X0.306 Y0.1011
X0.2698 Y0.1048
X0.2464 Y0.1091
X0.2394 Y0.1098
X0.2324 Y0.11
X0.1568
X0.1547 Y0.1095 Z-0.0197 F27
X0.1527 Y0.1091 Z-0.019
X0.1509 Y0.1087 Z-0.0179
X0.1494 Y0.1084 Z-0.0163
X0.1482 Y0.1082 Z-0.0145
X0.1475 Y0.1079 Z-0.0124
X0.1473 Y0.1078 Z-0.0102
G0 Z0.45
X4.0986 Y0.079
Z0.03
G1 Z0.005 F27
X4.0985 Y0.0793 Z0.0011
X4.0984 Y0.0802 Z-0.0027
X4.0981 Y0.0816 Z-0.0063
X4.0977 Y0.0837 Z-0.0097
X4.0973 Y0.0862 Z-0.0127
X4.0968 Y0.0891 Z-0.0152
X4.0962 Y0.0924 Z-0.0173
X4.0955 Y0.096 Z-0.0188
X4.0948 Y0.0997 Z-0.0197
X4.0942 Y0.1036 Z-0.02
X4.0935 Y0.1056
X4.0923 Y0.1073
X4.0907 Y0.1087
X4.0888 Y0.1096
X4.0867 Y0.11
X0.2324 F54
X0.2302 Y0.1095 Z-0.0197 F27
X0.2282 Y0.1091 Z-0.019
X0.2264 Y0.1087 Z-0.0179
X0.2249 Y0.1084 Z-0.0163
X0.2238 Y0.1082 Z-0.0145
X0.2231 Y0.1079 Z-0.0124
X0.2229 Y0.1078 Z-0.0102
G0 Z0.45
X-0.0253 Y1.6925
Z0.03
G1 Z0.005 F27
X-0.0251 Y1.6923 Z0.0011
X-0.0246 Y1.6915 Z-0.0027
X-0.0237 Y1.6903 Z-0.0063
X-0.0225 Y1.6887 Z-0.0097
X-0.021 Y1.6866 Z-0.0127
X-0.0192 Y1.6842 Z-0.0152
X-0.0172 Y1.6815 Z-0.0173
X-0.0151 Y1.6786 Z-0.0188
X-0.0128 Y1.6755 Z-0.0197
X-0.0105 Y1.6724 Z-0.02
X-0.009 Y1.6708
X-0.0072 Y1.6698
X-0.0051 Y1.6692
X-0.003 Y1.6693
X-0.001 Y1.6699
X0.0031 Y1.6719 F54
X0.0056 Y1.6733
X0.0261 Y1.7033
X0.0531 Y1.7276
X0.0847 Y1.7457
X0.1188 Y1.7581
X0.1543 Y1.766
X0.1904 Y1.7705
X0.2267 Y1.7729
X0.263 Y1.7742
X0.3357 Y1.775
X1.39 Y1.7753
X1.9717
X3.9712
X4.0803
X4.1159 Y1.7678
X4.1478 Y1.7503
X4.1742 Y1.7254
X4.177 Y1.7213
X4.1875 Y1.7079
X4.1999 Y1.6962
X4.2139 Y1.6864
X4.2292 Y1.6789
X4.2313 Y1.6785 Z-0.0198 F27
X4.2333 Y1.6781 Z-0.0191
X4.2351 Y1.6778 Z-0.0179
X4.2367 Y1.6776 Z-0.0164
X4.2378 Y1.6773 Z-0.0146
X4.2386 Y1.6774 Z-0.0125
X4.2389 Z-0.0102
G0 Z0.45
X-0.0212 Y1.6945
Z0.03
G1 Z0.005 F27
X-0.021 Y1.6943 Z0.0011
X-0.0205 Y1.6935 Z-0.0027
X-0.0196 Y1.6923 Z-0.0063
X-0.0184 Y1.6907 Z-0.0097
X-0.0169 Y1.6886 Z-0.0127
X-0.0151 Y1.6862 Z-0.0152
X-0.0131 Y1.6835 Z-0.0173
X-0.011 Y1.6806 Z-0.0188
X-0.0087 Y1.6775 Z-0.0197
X-0.0064 Y1.6744 Z-0.02
X-0.0049 Y1.6729
X-0.0031 Y1.6718
X-0.0011 Y1.6712
X0.0011 Y1.6713
X0.0031 Y1.6719
X0.0117 Y1.6755 F54
X0.0238 Y1.6797
X0.0289 Y1.6813
X0.0586 Y1.7022
X0.0908 Y1.7192
X0.1249 Y1.7319
X0.1601 Y1.7409
X0.196 Y1.7469
X0.2321 Y1.7506
X0.2684 Y1.7527
X0.3047 Y1.7539
X0.3774 Y1.7549
X0.7046 Y1.7553
X1.9771
X3.9766
X4.013
X4.0493 Y1.7534
X4.0843 Y1.7437
X4.117 Y1.7277
X4.1475 Y1.708
X4.1604 Y1.6977
X4.1735 Y1.6907
X4.1877 Y1.6862
X4.2024 Y1.6843
X4.2047 Y1.6842 Z-0.0197 F27
X4.2067 Y1.6845 Z-0.019
X4.2085 Y1.6848 Z-0.0178
X4.21 Y1.685 Z-0.0162
X4.2112 Y1.6852 Z-0.0144
X4.2119 Y1.6853 Z-0.0123
X4.2121 Z-0.0102
G0 Z0.45
X0.0046 Y1.7068
Z0.03
G1 Z0.005 F27
X0.0047 Y1.7065 Z0.0011
X0.0051 Y1.7057 Z-0.0027
X0.0057 Y1.7043 Z-0.0063
X0.0065 Y1.7024 Z-0.0097
X0.0076 Y1.7001 Z-0.0127
X0.0089 Y1.6974 Z-0.0152
X0.0103 Y1.6944 Z-0.0173
X0.0118 Y1.6911 Z-0.0188
X0.0134 Y1.6876 Z-0.0197
X0.015 Y1.6841 Z-0.02
X0.0161 Y1.6823
X0.0177 Y1.6809
X0.0196 Y1.6799
X0.0217 Y1.6795
X0.0238 Y1.6797
X0.0332 Y1.6818 F54
X0.0517 Y1.6845
X0.0571 Y1.6854
X0.0911 Y1.6981
X0.1258 Y1.7092
X0.1611 Y1.7178
X0.1969 Y1.7241
X0.233 Y1.7285
X0.2692 Y1.7313
X0.3055 Y1.733
X0.3419 Y1.734
X0.4146 Y1.7349
X0.7418 Y1.7353
X2.0142
X3.9774
X4.0137 Y1.7332
X4.0493 Y1.7257
X4.0834 Y1.7134
X4.1161 Y1.6974
X4.1328 Y1.6907
X4.1504 Y1.6866
X4.1684 Y1.6853
X4.1705 Y1.6857 Z-0.0197 F27
X4.1725 Y1.6862 Z-0.019
X4.1743 Y1.6866 Z-0.0179
X4.1758 Y1.6869 Z-0.0163
X4.177 Y1.6871 Z-0.0145
X4.1776 Y1.6874 Z-0.0124
X4.1779 Y1.6875 Z-0.0102
G0 Z0.45
X0.0362 Y1.7139
Z0.03
G1 Z0.005 F27
X0.0363 Y1.7136 Z0.0011
X0.0366 Y1.7127 Z-0.0027
X0.037 Y1.7113 Z-0.0063
X0.0376 Y1.7093 Z-0.0097
X0.0384 Y1.7069 Z-0.0127
X0.0392 Y1.704 Z-0.0152
X0.0402 Y1.7008 Z-0.0173
X0.0413 Y1.6974 Z-0.0188
X0.0424 Y1.6937 Z-0.0197
X0.0436 Y1.69 Z-0.02
X0.0445 Y1.6881
X0.0459 Y1.6865
X0.0476 Y1.6853
X0.0496 Y1.6846
X0.0517 Y1.6845
X0.0555 Y1.685 F54
X0.0816 Y1.6853
X0.087 Y1.6855
X0.1057 Y1.6882
X0.1774 Y1.7002
X0.2135 Y1.705
X0.2497 Y1.7086
X0.2859 Y1.7111
X0.3223 Y1.7127
X0.3586 Y1.7138
X0.4313 Y1.7148
X0.6494 Y1.7153
X2.0673
X3.9214
X3.9577 Y1.7148
X3.994 Y1.7118
X4.0296 Y1.7047
X4.0643 Y1.6938
X4.0827 Y1.6873
X4.0869 Y1.6862
X4.0912 Y1.6855
X4.0956 Y1.6853
X4.1243
X4.1264 Y1.6857 Z-0.0197 F27
X4.1285 Y1.6862 Z-0.019
X4.1303 Y1.6866 Z-0.0179
X4.1318 Y1.6869 Z-0.0163
X4.1329 Y1.6871 Z-0.0145
X4.1336 Y1.6874 Z-0.0124
X4.1338 Y1.6875 Z-0.0102
G0 Z0.45
X0.0698 Y1.7163
Z0.03
G1 Z0.005 F27
Y1.716 Z0.0011
X0.07 Y1.7151 Z-0.0027
X0.0703 Y1.7136 Z-0.0063
X0.0706 Y1.7116 Z-0.0097
X0.0711 Y1.7091 Z-0.0127
X0.0716 Y1.7062 Z-0.0152
X0.0722 Y1.7029 Z-0.0173
X0.0728 Y1.6993 Z-0.0188
X0.0735 Y1.6956 Z-0.0197
X0.0742 Y1.6917 Z-0.02
X0.0748 Y1.6897
X0.076 Y1.6879
X0.0776 Y1.6865
X0.0795 Y1.6856
X0.0816 Y1.6853
X0.1628 F54
X0.1992 Y1.6871
X0.2355 Y1.6885
X0.3081 Y1.6918
X0.3808 Y1.6938
X0.4899 Y1.695
X1.0352 Y1.6953
X2.1622
X3.9072 Y1.6952
X3.9436 Y1.6941
X3.9797 Y1.6905
X4.0033 Y1.6862
X4.0103 Y1.6855
X4.0174 Y1.6853
X4.0956
X4.0978 Y1.6857 Z-0.0197 F27
X4.0998 Y1.6862 Z-0.019
X4.1016 Y1.6866 Z-0.0179
X4.1031 Y1.6869 Z-0.0163
X4.1042 Y1.6871 Z-0.0145
X4.1049 Y1.6874 Z-0.0124
X4.1051 Y1.6875 Z-0.0102
G0 Z0.45
X0.151 Y1.7163
Z0.03
G1 Z0.005 F27
X0.1511 Y1.716 Z0.0011
X0.1512 Y1.7151 Z-0.0027
X0.1515 Y1.7136 Z-0.0063
X0.1519 Y1.7116 Z-0.0097
X0.1523 Y1.7091 Z-0.0127
X0.1528 Y1.7062 Z-0.0152
X0.1534 Y1.7029 Z-0.0173
X0.1541 Y1.6993 Z-0.0188
X0.1547 Y1.6956 Z-0.0197
X0.1554 Y1.6917 Z-0.02
X0.1561 Y1.6897
X0.1572 Y1.6879
X0.1588 Y1.6865
X0.1608 Y1.6856
X0.1628 Y1.6853
X4.0174 F54
X4.0195 Y1.6857 Z-0.0197 F27
X4.0215 Y1.6862 Z-0.019
X4.0233 Y1.6866 Z-0.0179
X4.0248 Y1.6869 Z-0.0163
X4.026 Y1.6871 Z-0.0145
X4.0266 Y1.6874 Z-0.0124
X4.0269 Y1.6875 Z-0.0102
G0 Z0.45
X4.2744 Y1.9771
Z0.03
G1 Z0.005 F27
X4.2743 Y1.9773 Z0.0011
X4.2737 Y1.9781 Z-0.0027
X4.2729 Y1.9793 Z-0.0063
X4.2717 Y1.981 Z-0.0097
X4.2702 Y1.9831 Z-0.0127
X4.2685 Y1.9855 Z-0.0152
X4.2666 Y1.9882 Z-0.0173
X4.2645 Y1.9912 Z-0.0188
X4.2623 Y1.9943 Z-0.0197
X4.26 Y1.9975 Z-0.02
X4.2586 Y1.999
X4.2568 Y2.0001
X4.2547 Y2.0007
X4.2526
X4.2506 Y2.0002
X4.2465 Y1.9983 F54
X4.2438 Y1.9968
X4.2233 Y1.9668
X4.1962 Y1.9426
X4.1647 Y1.9245
X4.1305 Y1.9121
X4.095 Y1.9043
X4.0589 Y1.8997
X4.0226 Y1.8973
X3.9863 Y1.8961
X3.9136 Y1.8952
X2.823 Y1.895
X2.2776
X0.2781
X0.169
X0.1335 Y1.9027
X0.1017 Y1.9203
X0.0754 Y1.9454
X0.0726 Y1.9496
X0.0636 Y1.9612
X0.0532 Y1.9716
X0.0415 Y1.9805
X0.0288 Y1.9879
X0.0152 Y1.9934
X0.0132 Y1.9937 Z-0.0198 F27
X0.0113 Y1.994 Z-0.0192
X0.0096 Y1.9942 Z-0.0182
X0.0081 Y1.9945 Z-0.0168
X0.0067 Y1.9944 Z-0.0149
X0.0058 Y1.9943 Z-0.0126
X0.0055 Z-0.0102
G0 Z0.45
X4.2704 Y1.9752
Z0.03
G1 Z0.005 F27
X4.2702 Y1.9754 Z0.0011
X4.2696 Y1.9762 Z-0.0027
X4.2688 Y1.9774 Z-0.0063
X4.2676 Y1.9791 Z-0.0097
X4.2661 Y1.9811 Z-0.0127
X4.2644 Y1.9836 Z-0.0152
X4.2625 Y1.9863 Z-0.0173
X4.2604 Y1.9893 Z-0.0188
X4.2582 Y1.9924 Z-0.0197
X4.2559 Y1.9956 Z-0.02
X4.2545 Y1.9971
X4.2527 Y1.9982
X4.2506 Y1.9988
X4.2485
X4.2465 Y1.9983
X4.2354 Y1.9936 F54
X4.2258 Y1.9905
X4.2224 Y1.9897
X4.1927 Y1.9687
X4.1606 Y1.9517
X4.1266 Y1.9388
X4.0914 Y1.9297
X4.0556 Y1.9236
X4.0194 Y1.9198
X3.9831 Y1.9176
X3.9468 Y1.9164
X3.8741 Y1.9154
X3.5469 Y1.915
X2.2381
X0.2386
X0.2022 Y1.9166
X0.1671 Y1.926
X0.1344 Y1.9418
X0.1038 Y1.9615
X0.0923 Y1.9706
X0.0794 Y1.9778
X0.0656 Y1.9829
X0.0512 Y1.9858
X0.049 Y1.9859 Z-0.0198 F27
X0.0469 Y1.9856 Z-0.019
X0.0451 Y1.9853 Z-0.0178
X0.0436 Y1.9851 Z-0.0163
X0.0424 Y1.9849 Z-0.0144
X0.0417 Y1.9848 Z-0.0124
X0.0415 Z-0.0102
G0 Z0.45
X4.2436 Y1.9624
Z0.03
G1 Z0.005 F27
X4.2434 Y1.9627 Z0.0011
X4.2431 Y1.9636 Z-0.0027
X4.2425 Y1.965 Z-0.0063
X4.2418 Y1.9669 Z-0.0097
X4.2409 Y1.9693 Z-0.0127
X4.2398 Y1.972 Z-0.0152
X4.2385 Y1.9751 Z-0.0173
X4.2372 Y1.9785 Z-0.0188
X4.2358 Y1.9821 Z-0.0197
X4.2343 Y1.9857 Z-0.02
X4.2333 Y1.9875
X4.2318 Y1.989
X4.23 Y1.9901
X4.2279 Y1.9906
X4.2258 Y1.9905
X4.2024 Y1.9859 F54
X4.1999 Y1.9858
X4.1945 Y1.9854
X4.1604 Y1.9728
X4.1258 Y1.9615
X4.0905 Y1.9528
X4.0548 Y1.9464
X4.0187 Y1.942
X3.9824 Y1.9391
X3.9461 Y1.9374
X3.9098 Y1.9363
X3.8371 Y1.9354
X3.5462 Y1.935
X2.2375
X0.2743
X0.238 Y1.9369
X0.2023 Y1.9441
X0.1681 Y1.9562
X0.123 Y1.9776
X0.11 Y1.9817
X0.0967 Y1.9842
X0.0832 Y1.985
X0.0811 Y1.9845 Z-0.0197 F27
X0.079 Y1.9841 Z-0.019
X0.0772 Y1.9837 Z-0.0179
X0.0757 Y1.9834 Z-0.0163
X0.0746 Y1.9832 Z-0.0145
X0.0739 Y1.9829 Z-0.0124
X0.0737 Y1.9828 Z-0.0102
G0 Z0.45
X4.2129 Y1.9553
Z0.03
G1 Z0.005 F27
Y1.9556 Z0.0011
X4.2127 Y1.9565 Z-0.0027
X4.2123 Y1.958 Z-0.0063
X4.2119 Y1.96 Z-0.0097
X4.2114 Y1.9624 Z-0.0127
X4.2107 Y1.9654 Z-0.0152
X4.21 Y1.9686 Z-0.0173
X4.2092 Y1.9722 Z-0.0188
X4.2084 Y1.9759 Z-0.0197
X4.2076 Y1.9797 Z-0.02
X4.2068 Y1.9817
X4.2056 Y1.9834
X4.2039 Y1.9847
X4.202 Y1.9856
X4.1999 Y1.9858
X4.1776 Y1.985 F54
X4.1693
X4.164 Y1.9847
X4.1488 Y1.9827
X4.077 Y1.9707
X4.041 Y1.9658
X4.0049 Y1.9621
X3.9686 Y1.9595
X3.9323 Y1.9577
X3.8959 Y1.9566
X3.8232 Y1.9555
X3.6051 Y1.955
X2.1873
X0.3331
X0.2968 Y1.9553
X0.2605 Y1.9578
X0.2248 Y1.9644
X0.1899 Y1.9748
X0.1651 Y1.9837
X0.1596 Y1.9849
X0.1568 Y1.985
X0.1253
X0.1231 Y1.9845 Z-0.0197 F27
X0.1211 Y1.9841 Z-0.019
X0.1193 Y1.9837 Z-0.0179
X0.1178 Y1.9834 Z-0.0163
X0.1167 Y1.9832 Z-0.0145
X0.116 Y1.9829 Z-0.0124
X0.1158 Y1.9828 Z-0.0102
G0 Z0.45
X4.1812 Y1.954
Z0.03
G1 Z0.005 F27
X4.1811 Y1.9543 Z0.0011
X4.181 Y1.9552 Z-0.0027
X4.1807 Y1.9566 Z-0.0063
X4.1803 Y1.9587 Z-0.0097
X4.1799 Y1.9612 Z-0.0127
X4.1794 Y1.9641 Z-0.0152
X4.1788 Y1.9674 Z-0.0173
X4.1781 Y1.971 Z-0.0188
X4.1775 Y1.9747 Z-0.0197
X4.1768 Y1.9786 Z-0.02
X4.1761 Y1.9806
X4.1749 Y1.9823
X4.1733 Y1.9837
X4.1714 Y1.9846
X4.1693 Y1.985
X4.0867 F54
X4.0504 Y1.9832
X4.0141 Y1.9818
X3.9415 Y1.9784
X3.8688 Y1.9764
X3.7597 Y1.9753
X3.178 Y1.975
X2.0874
X0.3423 Y1.9751
X0.306 Y1.9761
X0.2698 Y1.9799
X0.2464 Y1.9841
X0.2394 Y1.9848
X0.2324 Y1.985
X0.1568
X0.1547 Y1.9845 Z-0.0197 F27
X0.1527 Y1.9841 Z-0.019
X0.1509 Y1.9837 Z-0.0179
X0.1494 Y1.9834 Z-0.0163
X0.1482 Y1.9832 Z-0.0145
X0.1476 Y1.9829 Z-0.0124
X0.1473 Y1.9828 Z-0.0102
G0 Z0.45
X4.0986 Y1.954
Z0.03
G1 Z0.005 F27
X4.0985 Y1.9543 Z0.0011
X4.0984 Y1.9552 Z-0.0027
X4.0981 Y1.9566 Z-0.0063
X4.0977 Y1.9587 Z-0.0097
X4.0973 Y1.9612 Z-0.0127
X4.0968 Y1.9641 Z-0.0152
X4.0962 Y1.9674 Z-0.0173
X4.0955 Y1.971 Z-0.0188
X4.0948 Y1.9747 Z-0.0197
X4.0942 Y1.9786 Z-0.02
X4.0935 Y1.9806
X4.0923 Y1.9823
X4.0907 Y1.9837
X4.0888 Y1.9846
X4.0867 Y1.985
X0.2324 F54
X0.2302 Y1.9845 Z-0.0197 F27
X0.2282 Y1.9841 Z-0.019
X0.2264 Y1.9837 Z-0.0179
X0.2249 Y1.9834 Z-0.0163
X0.2238 Y1.9832 Z-0.0145
X0.2231 Y1.9829 Z-0.0124
X0.2229 Y1.9828 Z-0.0102
G0 Z0.45
X-0.0253 Y3.5675
Z0.03
G1 Z0.005 F27
X-0.0251 Y3.5673 Z0.0011
X-0.0246 Y3.5665 Z-0.0027
X-0.0237 Y3.5653 Z-0.0063
X-0.0225 Y3.5637 Z-0.0097
X-0.021 Y3.5616 Z-0.0127
X-0.0192 Y3.5592 Z-0.0152
X-0.0172 Y3.5565 Z-0.0173
X-0.0151 Y3.5536 Z-0.0188
X-0.0128 Y3.5505 Z-0.0197
X-0.0105 Y3.5474 Z-0.02
X-0.009 Y3.5458
X-0.0072 Y3.5448
X-0.0051 Y3.5442
X-0.003 Y3.5443
X-0.001 Y3.5449
X0.0031 Y3.5469 F54
X0.0056 Y3.5483
X0.0261 Y3.5783
X0.0531 Y3.6026
X0.0847 Y3.6207
X0.1188 Y3.6331
X0.1543 Y3.641
X0.1904 Y3.6455
X0.2267 Y3.6479
X0.263 Y3.6492
X0.3357 Y3.65
X1.39 Y3.6503
X1.9717
X3.9712
X4.0803
X4.1159 Y3.6428
X4.1478 Y3.6253
X4.1742 Y3.6004
X4.1776 Y3.5954
X4.1888 Y3.5813
X4.2022 Y3.5692
X4.2174 Y3.5594
X4.2339 Y3.5522
X4.236 Y3.5519 Z-0.0198 F27
X4.2379 Y3.5516 Z-0.0191
X4.2397 Y3.5513 Z-0.0181
X4.2412 Y3.5511 Z-0.0166
X4.2425 Z-0.0147
X4.2434 Y3.5512 Z-0.0125
X4.2436 Z-0.0102
G0 Z0.45
X-0.0212 Y3.5695
Z0.03
G1 Z0.005 F27
X-0.021 Y3.5693 Z0.0011
X-0.0205 Y3.5685 Z-0.0027
X-0.0196 Y3.5673 Z-0.0063
X-0.0184 Y3.5657 Z-0.0097
X-0.0169 Y3.5636 Z-0.0127
X-0.0151 Y3.5612 Z-0.0152
X-0.0131 Y3.5585 Z-0.0173
X-0.011 Y3.5556 Z-0.0188
X-0.0087 Y3.5525 Z-0.0197
X-0.0064 Y3.5494 Z-0.02
X-0.0049 Y3.5479
X-0.0031 Y3.5468
X-0.0011 Y3.5462
X0.0011 Y3.5463
X0.0031 Y3.5469
X0.0108 Y3.5503 F54
X0.0238 Y3.5544
X0.0289 Y3.5562
X0.0586 Y3.5772
X0.0907 Y3.5941
X0.1248 Y3.6069
X0.16 Y3.6159
X0.1959 Y3.6219
X0.232 Y3.6256
X0.2683 Y3.6277
X0.3046 Y3.6289
X0.3773 Y3.6299
X0.7045 Y3.6303
X1.977
X3.9765
X4.0129
X4.0492 Y3.6284
X4.0842 Y3.6187
X4.1168 Y3.6027
X4.1474 Y3.583
X4.1603 Y3.5727
X4.1735 Y3.5657
X4.1877 Y3.5612
X4.2024 Y3.5593
X4.2047 Y3.5592 Z-0.0197 F27
X4.2067 Y3.5595 Z-0.019
X4.2085 Y3.5598 Z-0.0178
X4.21 Y3.56 Z-0.0162
X4.2112 Y3.5602 Z-0.0144
X4.2119 Y3.5603 Z-0.0123
X4.2121 Z-0.0102
G0 Z0.45
X0.0035 Y3.5807
Z0.03
G1 Z0.005 F27
X0.0036 Y3.5804 Z0.0011
X0.004 Y3.5796 Z-0.0027
X0.0047 Y3.5783 Z-0.0063
X0.0057 Y3.5764 Z-0.0097
X0.0068 Y3.5742 Z-0.0127
X0.0082 Y3.5715 Z-0.0152
X0.0097 Y3.5685 Z-0.0173
X0.0113 Y3.5653 Z-0.0188
X0.013 Y3.5619 Z-0.0197
X0.0148 Y3.5584 Z-0.02
X0.016 Y3.5567
X0.0177 Y3.5553
X0.0196 Y3.5544
X0.0217 Y3.5541
X0.0238 Y3.5544
X0.0307 Y3.5565 F54
X0.0517 Y3.5595
X0.0571 Y3.5604
X0.0911 Y3.5731
X0.1258 Y3.5842
X0.1611 Y3.5928
X0.1969 Y3.5991
X0.233 Y3.6035
X0.2692 Y3.6063
X0.3055 Y3.608
X0.3419 Y3.609
X0.4146 Y3.6099
X0.7418 Y3.6103
X2.0142
X3.9774
X4.0137 Y3.6082
X4.0493 Y3.6007
X4.0834 Y3.5884
X4.1161 Y3.5724
X4.1328 Y3.5657
X4.1503 Y3.5616
X4.1683 Y3.5603
X4.1704 Y3.5607 Z-0.0197 F27
X4.1724 Y3.5612 Z-0.019
X4.1742 Y3.5616 Z-0.0179
X4.1757 Y3.5619 Z-0.0163
X4.1769 Y3.5621 Z-0.0145
X4.1775 Y3.5624 Z-0.0124
X4.1778 Y3.5625 Z-0.0102
G0 Z0.45
X0.0362 Y3.5889
Z0.03
G1 Z0.005 F27
X0.0363 Y3.5886 Z0.0011
X0.0366 Y3.5877 Z-0.0027
X0.037 Y3.5863 Z-0.0063
X0.0376 Y3.5843 Z-0.0097
X0.0384 Y3.5819 Z-0.0127
X0.0392 Y3.579 Z-0.0152
X0.0402 Y3.5758 Z-0.0173
X0.0413 Y3.5724 Z-0.0188
X0.0424 Y3.5687 Z-0.0197
X0.0436 Y3.565 Z-0.02
X0.0445 Y3.5631
X0.0459 Y3.5615
X0.0476 Y3.5603
X0.0496 Y3.5596
X0.0517 Y3.5595
X0.0555 Y3.56 F54
X0.0816 Y3.5603
X0.087 Y3.5605
X0.1057 Y3.5632
X0.1774 Y3.5752
X0.2134 Y3.58
X0.2496 Y3.5836
X0.2858 Y3.5861
X0.3222 Y3.5877
X0.3585 Y3.5887
X0.4312 Y3.5898
X0.6493 Y3.5903
X2.0672
X3.9213
X3.9576 Y3.5898
X3.9939 Y3.5868
X4.0295 Y3.5797
X4.0642 Y3.5689
X4.0826 Y3.5623
X4.0869 Y3.5612
X4.0912 Y3.5605
X4.0956 Y3.5603
X4.1243
X4.1264 Y3.5607 Z-0.0197 F27
X4.1285 Y3.5612 Z-0.019
X4.1303 Y3.5616 Z-0.0179
X4.1318 Y3.5619 Z-0.0163
X4.1329 Y3.5621 Z-0.0145
X4.1336 Y3.5624 Z-0.0124
X4.1338 Y3.5625 Z-0.0102
G0 Z0.45
X0.0698 Y3.5913
Z0.03
G1 Z0.005 F27
Y3.591 Z0.0011
X0.07 Y3.5901 Z-0.0027
X0.0703 Y3.5886 Z-0.0063
X0.0706 Y3.5866 Z-0.0097
X0.0711 Y3.5841 Z-0.0127
X0.0716 Y3.5812 Z-0.0152
X0.0722 Y3.5779 Z-0.0173
X0.0728 Y3.5743 Z-0.0188
X0.0735 Y3.5706 Z-0.0197
X0.0742 Y3.5667 Z-0.02
X0.0748 Y3.5647
X0.076 Y3.5629
X0.0776 Y3.5615
X0.0795 Y3.5606
X0.0816 Y3.5603
X0.1628 F54
X0.1992 Y3.5621
X0.2355 Y3.5635
X0.3081 Y3.5668
X0.3808 Y3.5688
X0.4899 Y3.57
X1.0352 Y3.5703
X2.1622
X3.9072 Y3.5702
X3.9436 Y3.5691
X3.9797 Y3.5654
X4.0033 Y3.5612
X4.0103 Y3.5605
X4.0173 Y3.5603
X4.0956
X4.0977 Y3.5607 Z-0.0197 F27
X4.0997 Y3.5612 Z-0.019
X4.1015 Y3.5616 Z-0.0179
X4.103 Y3.5619 Z-0.0163
X4.1042 Y3.5621 Z-0.0145
X4.1048 Y3.5624 Z-0.0124
X4.1051 Y3.5625 Z-0.0102
G0 Z0.45
X0.151 Y3.5913
Z0.03
G1 Z0.005 F27
X0.1511 Y3.591 Z0.0011
X0.1512 Y3.5901 Z-0.0027
X0.1515 Y3.5886 Z-0.0063
X0.1519 Y3.5866 Z-0.0097
X0.1523 Y3.5841 Z-0.0127
X0.1528 Y3.5812 Z-0.0152
X0.1534 Y3.5779 Z-0.0173
X0.1541 Y3.5743 Z-0.0188
X0.1547 Y3.5706 Z-0.0197
X0.1554 Y3.5667 Z-0.02
X0.1561 Y3.5647
X0.1572 Y3.5629
X0.1588 Y3.5615
X0.1608 Y3.5606
X0.1628 Y3.5603
X4.0173 F54
X4.0195 Y3.5607 Z-0.0197 F27
X4.0215 Y3.5612 Z-0.019
X4.0233 Y3.5616 Z-0.0179
X4.0248 Y3.5619 Z-0.0163
X4.0259 Y3.5621 Z-0.0145
X4.0266 Y3.5624 Z-0.0124
X4.0268 Y3.5625 Z-0.0102
G0 Z0.45
X1.9771 Y3.7256
Z0.03
G1 Z0.005 F27
X1.9773 Y3.7257 Z0.0011
X1.9781 Y3.7263 Z-0.0027
X1.9793 Y3.7271 Z-0.0063
X1.981 Y3.7283 Z-0.0097
X1.9831 Y3.7298 Z-0.0127
X1.9855 Y3.7315 Z-0.0152
X1.9882 Y3.7334 Z-0.0173
X1.9912 Y3.7355 Z-0.0188
X1.9943 Y3.7377 Z-0.0197
X1.9975 Y3.74 Z-0.02
X1.999 Y3.7414
X2.0001 Y3.7432
X2.0007 Y3.7453
Y3.7474
X2.0002 Y3.7494
X1.9983 Y3.7535 F54
X1.9968 Y3.7562
X1.9668 Y3.7767
X1.9426 Y3.8038
X1.9245 Y3.8353
X1.9121 Y3.8695
X1.9043 Y3.905
X1.8997 Y3.9411
X1.8973 Y3.9773
X1.8961 Y4.0137
X1.8952 Y4.0864
X1.895 Y5.177
Y5.7224
Y7.7219
Y7.831
X1.9027 Y7.8665
X1.9203 Y7.8983
X1.9454 Y7.9246
X1.9496 Y7.9274
X1.9612 Y7.9364
X1.9716 Y7.9468
X1.9805 Y7.9585
X1.9879 Y7.9712
X1.9934 Y7.9848
X1.9937 Y7.9868 Z-0.0198 F27
X1.994 Y7.9887 Z-0.0192
X1.9942 Y7.9904 Z-0.0182
X1.9945 Y7.9919 Z-0.0168
X1.9944 Y7.9933 Z-0.0149
X1.9943 Y7.9942 Z-0.0126
Y7.9945 Z-0.0102
G0 Z0.45
X1.9752 Y3.7296
Z0.03
G1 Z0.005 F27
X1.9754 Y3.7298 Z0.0011
X1.9762 Y3.7304 Z-0.0027
X1.9774 Y3.7312 Z-0.0063
X1.9791 Y3.7324 Z-0.0097
X1.9811 Y3.7339 Z-0.0127
X1.9836 Y3.7356 Z-0.0152
X1.9863 Y3.7375 Z-0.0173
X1.9893 Y3.7396 Z-0.0188
X1.9924 Y3.7418 Z-0.0197
X1.9956 Y3.7441 Z-0.02
X1.9971 Y3.7455
X1.9982 Y3.7473
X1.9988 Y3.7494
Y3.7515
X1.9983 Y3.7535
X1.9936 Y3.7646 F54
X1.9905 Y3.7742
X1.9897 Y3.7776
X1.9687 Y3.8073
X1.9517 Y3.8394
X1.9388 Y3.8734
X1.9297 Y3.9086
X1.9236 Y3.9444
X1.9198 Y3.9806
X1.9176 Y4.0169
X1.9164 Y4.0532
X1.9154 Y4.1259
X1.915 Y4.4531
Y5.7619
Y7.7614
X1.9166 Y7.7978
X1.926 Y7.8329
X1.9418 Y7.8656
X1.9615 Y7.8962
X1.9706 Y7.9077
X1.9778 Y7.9206
X1.9829 Y7.9344
X1.9858 Y7.9488
X1.9859 Y7.951 Z-0.0198 F27
X1.9856 Y7.9531 Z-0.019
X1.9853 Y7.9549 Z-0.0178
X1.9851 Y7.9564 Z-0.0163
X1.9849 Y7.9576 Z-0.0144
X1.9848 Y7.9583 Z-0.0124
Y7.9585 Z-0.0102
G0 Z0.45
X1.9624 Y3.7565
Z0.03
G1 Z0.005 F27
X1.9627 Y3.7566 Z0.0011
X1.9636 Y3.7569 Z-0.0027
X1.965 Y3.7575 Z-0.0063
X1.9669 Y3.7582 Z-0.0097
X1.9693 Y3.7591 Z-0.0127
X1.972 Y3.7602 Z-0.0152
X1.9751 Y3.7615 Z-0.0173
X1.9785 Y3.7628 Z-0.0188
X1.9821 Y3.7642 Z-0.0197
X1.9857 Y3.7657 Z-0.02
X1.9875 Y3.7667
X1.989 Y3.7682
X1.9901 Y3.77
X1.9906 Y3.7721
X1.9905 Y3.7742
X1.9859 Y3.7976 F54
X1.9858 Y3.8001
X1.9854 Y3.8055
X1.9728 Y3.8396
X1.9615 Y3.8742
X1.9528 Y3.9095
X1.9464 Y3.9452
X1.942 Y3.9813
X1.9391 Y4.0176
X1.9374 Y4.0539
X1.9363 Y4.0902
X1.9354 Y4.1629
X1.935 Y4.4538
Y5.7625
Y7.7257
X1.9369 Y7.762
X1.9441 Y7.7977
X1.9562 Y7.8319
X1.9776 Y7.877
X1.9817 Y7.89
X1.9842 Y7.9033
X1.985 Y7.9168
X1.9845 Y7.9189 Z-0.0197 F27
X1.9841 Y7.921 Z-0.019
X1.9837 Y7.9228 Z-0.0179
X1.9834 Y7.9243 Z-0.0163
X1.9832 Y7.9254 Z-0.0145
X1.9829 Y7.9261 Z-0.0124
X1.9828 Y7.9263 Z-0.0102
G0 Z0.45
X1.9553 Y3.7871
Z0.03
G1 Z0.005 F27
X1.9556 Z0.0011
X1.9565 Y3.7873 Z-0.0027
X1.958 Y3.7877 Z-0.0063
X1.96 Y3.7881 Z-0.0097
X1.9624 Y3.7886 Z-0.0127
X1.9654 Y3.7893 Z-0.0152
X1.9686 Y3.79 Z-0.0173
X1.9722 Y3.7908 Z-0.0188
X1.9759 Y3.7916 Z-0.0197
X1.9797 Y3.7924 Z-0.02
X1.9817 Y3.7932
X1.9834 Y3.7944
X1.9847 Y3.7961
X1.9856 Y3.798
X1.9858 Y3.8001
X1.985 Y3.8224 F54
Y3.8307
X1.9847 Y3.836
X1.9827 Y3.8512
X1.9707 Y3.923
X1.9658 Y3.959
X1.9621 Y3.9951
X1.9595 Y4.0314
X1.9577 Y4.0677
X1.9566 Y4.1041
X1.9555 Y4.1768
X1.955 Y4.3949
Y5.8127
Y7.6669
X1.9553 Y7.7032
X1.9578 Y7.7395
X1.9644 Y7.7752
X1.9748 Y7.8101
X1.9837 Y7.8349
X1.9849 Y7.8404
X1.985 Y7.8432
Y7.8747
X1.9845 Y7.8769 Z-0.0197 F27
X1.9841 Y7.8789 Z-0.019
X1.9837 Y7.8807 Z-0.0179
X1.9834 Y7.8822 Z-0.0163
X1.9832 Y7.8833 Z-0.0145
X1.9829 Y7.884 Z-0.0124
X1.9828 Y7.8842 Z-0.0102
G0 Z0.45
X1.954 Y3.8188
Z0.03
G1 Z0.005 F27
X1.9543 Y3.8189 Z0.0011
X1.9552 Y3.819 Z-0.0027
X1.9566 Y3.8193 Z-0.0063
X1.9587 Y3.8197 Z-0.0097
X1.9612 Y3.8201 Z-0.0127
X1.9641 Y3.8206 Z-0.0152
X1.9674 Y3.8212 Z-0.0173
X1.971 Y3.8219 Z-0.0188
X1.9747 Y3.8225 Z-0.0197
X1.9786 Y3.8232 Z-0.02
X1.9806 Y3.8239
X1.9823 Y3.8251
X1.9837 Y3.8267
X1.9846 Y3.8286
X1.985 Y3.8307
Y3.9133 F54
X1.9832 Y3.9496
X1.9818 Y3.9859
X1.9784 Y4.0585
X1.9764 Y4.1312
X1.9753 Y4.2403
X1.975 Y4.822
Y5.9126
X1.9751 Y7.6577
X1.9761 Y7.694
X1.9799 Y7.7302
X1.9841 Y7.7536
X1.9848 Y7.7606
X1.985 Y7.7676
Y7.8432
X1.9845 Y7.8453 Z-0.0197 F27
X1.9841 Y7.8473 Z-0.019
X1.9837 Y7.8491 Z-0.0179
X1.9834 Y7.8506 Z-0.0163
X1.9832 Y7.8518 Z-0.0145
X1.9829 Y7.8524 Z-0.0124
X1.9828 Y7.8527 Z-0.0102
G0 Z0.45
X1.954 Y3.9014
Z0.03
G1 Z0.005 F27
X1.9543 Y3.9015 Z0.0011
X1.9552 Y3.9016 Z-0.0027
X1.9566 Y3.9019 Z-0.0063
X1.9587 Y3.9023 Z-0.0097
X1.9612 Y3.9027 Z-0.0127
X1.9641 Y3.9032 Z-0.0152
X1.9674 Y3.9038 Z-0.0173
X1.971 Y3.9045 Z-0.0188
X1.9747 Y3.9052 Z-0.0197
X1.9786 Y3.9058 Z-0.02
X1.9806 Y3.9065
X1.9823 Y3.9077
X1.9837 Y3.9093
X1.9846 Y3.9112
X1.985 Y3.9133
Y7.7676 F54
X1.9845 Y7.7698 Z-0.0197 F27
X1.9841 Y7.7718 Z-0.019
X1.9837 Y7.7736 Z-0.0179
X1.9834 Y7.7751 Z-0.0163
X1.9832 Y7.7762 Z-0.0145
X1.9829 Y7.7769 Z-0.0124
X1.9828 Y7.7771 Z-0.0102
G0 Z0.45
X1.6925 Y8.0253
Z0.03
G1 Z0.005 F27
X1.6923 Y8.0251 Z0.0011
X1.6915 Y8.0246 Z-0.0027
X1.6903 Y8.0237 Z-0.0063
X1.6887 Y8.0225 Z-0.0097
X1.6866 Y8.021 Z-0.0127
X1.6842 Y8.0192 Z-0.0152
X1.6815 Y8.0172 Z-0.0173
X1.6786 Y8.0151 Z-0.0188
X1.6755 Y8.0128 Z-0.0197
X1.6724 Y8.0105 Z-0.02
X1.6708 Y8.009
X1.6698 Y8.0072
X1.6692 Y8.0051
X1.6693 Y8.003
X1.6699 Y8.001
X1.6719 Y7.9969 F54
X1.6733 Y7.9944
X1.7033 Y7.9739
X1.7276 Y7.9469
X1.7457 Y7.9153
X1.7581 Y7.8812
X1.766 Y7.8457
X1.7705 Y7.8096
X1.7729 Y7.7733
X1.7742 Y7.737
X1.775 Y7.6643
X1.7753 Y6.61
Y6.0283
Y4.0288
Y3.9197
X1.7678 Y3.8841
X1.7503 Y3.8522
X1.7254 Y3.8258
X1.7213 Y3.823
X1.7079 Y3.8125
X1.6962 Y3.8001
X1.6864 Y3.7861
X1.6789 Y3.7708
X1.6785 Y3.7687 Z-0.0198 F27
X1.6781 Y3.7667 Z-0.0191
X1.6778 Y3.7649 Z-0.0179
X1.6776 Y3.7633 Z-0.0164
X1.6773 Y3.7622 Z-0.0146
X1.6774 Y3.7614 Z-0.0125
Y3.7611 Z-0.0102
G0 Z0.45
X1.6945 Y8.0212
Z0.03
G1 Z0.005 F27
X1.6943 Y8.021 Z0.0011
X1.6935 Y8.0205 Z-0.0027
X1.6923 Y8.0196 Z-0.0063
X1.6907 Y8.0184 Z-0.0097
X1.6886 Y8.0169 Z-0.0127
X1.6862 Y8.0151 Z-0.0152
X1.6835 Y8.0131 Z-0.0173
X1.6806 Y8.011 Z-0.0188
X1.6775 Y8.0087 Z-0.0197
X1.6744 Y8.0064 Z-0.02
X1.6729 Y8.0049
X1.6718 Y8.0031
X1.6712 Y8.0011
X1.6713 Y7.9989
X1.6719 Y7.9969
X1.6755 Y7.9883 F54
X1.6797 Y7.9762
X1.6813 Y7.9711
X1.7022 Y7.9414
X1.7192 Y7.9092
X1.7319 Y7.8751
X1.7409 Y7.8399
X1.7469 Y7.804
X1.7506 Y7.7679
X1.7527 Y7.7316
X1.7539 Y7.6953
X1.7549 Y7.6226
X1.7553 Y7.2954
Y6.0229
Y4.0234
Y3.987
X1.7534 Y3.9507
X1.7437 Y3.9157
X1.7277 Y3.883
X1.708 Y3.8525
X1.6977 Y3.8396
X1.6907 Y3.8265
X1.6862 Y3.8123
X1.6843 Y3.7976
X1.6842 Y3.7953 Z-0.0197 F27
X1.6845 Y3.7933 Z-0.019
X1.6848 Y3.7915 Z-0.0178
X1.685 Y3.79 Z-0.0162
X1.6852 Y3.7888 Z-0.0144
X1.6853 Y3.7881 Z-0.0123
Y3.7879 Z-0.0102
G0 Z0.45
X1.7068 Y7.9954
Z0.03
G1 Z0.005 F27
X1.7065 Y7.9953 Z0.0011
X1.7057 Y7.9949 Z-0.0027
X1.7043 Y7.9943 Z-0.0063
X1.7024 Y7.9935 Z-0.0097
X1.7001 Y7.9924 Z-0.0127
X1.6974 Y7.9911 Z-0.0152
X1.6944 Y7.9897 Z-0.0173
X1.6911 Y7.9882 Z-0.0188
X1.6876 Y7.9866 Z-0.0197
X1.6841 Y7.985 Z-0.02
X1.6823 Y7.9839
X1.6809 Y7.9823
X1.6799 Y7.9804
X1.6795 Y7.9783
X1.6797 Y7.9762
X1.6818 Y7.9668 F54
X1.6845 Y7.9483
X1.6854 Y7.9429
X1.6981 Y7.9089
X1.7092 Y7.8742
X1.7178 Y7.8389
X1.7241 Y7.8031
X1.7285 Y7.767
X1.7313 Y7.7308
X1.733 Y7.6945
X1.734 Y7.6581
X1.7349 Y7.5854
X1.7353 Y7.2582
Y5.9858
Y4.0226
X1.7332 Y3.9863
X1.7257 Y3.9507
X1.7134 Y3.9165
X1.6974 Y3.8839
X1.6907 Y3.8672
X1.6866 Y3.8496
X1.6853 Y3.8316
X1.6857 Y3.8295 Z-0.0197 F27
X1.6862 Y3.8275 Z-0.019
X1.6866 Y3.8257 Z-0.0179
X1.6869 Y3.8242 Z-0.0163
X1.6871 Y3.823 Z-0.0145
X1.6874 Y3.8224 Z-0.0124
X1.6875 Y3.8221 Z-0.0102
G0 Z0.45
X1.7139 Y7.9638
Z0.03
G1 Z0.005 F27
X1.7136 Y7.9637 Z0.0011
X1.7127 Y7.9634 Z-0.0027
X1.7113 Y7.963 Z-0.0063
X1.7093 Y7.9624 Z-0.0097
X1.7069 Y7.9616 Z-0.0127
X1.704 Y7.9608 Z-0.0152
X1.7008 Y7.9598 Z-0.0173
X1.6974 Y7.9587 Z-0.0188
X1.6937 Y7.9576 Z-0.0197
X1.69 Y7.9564 Z-0.02
X1.6881 Y7.9555
X1.6865 Y7.9541
X1.6853 Y7.9524
X1.6846 Y7.9504
X1.6845 Y7.9483
X1.685 Y7.9445 F54
X1.6853 Y7.9184
X1.6855 Y7.913
X1.6882 Y7.8943
X1.7002 Y7.8226
X1.705 Y7.7865
X1.7086 Y7.7503
X1.7111 Y7.7141
X1.7127 Y7.6777
X1.7138 Y7.6414
X1.7148 Y7.5687
X1.7153 Y7.3506
Y5.9327
Y4.0786
X1.7148 Y4.0423
X1.7118 Y4.006
X1.7047 Y3.9704
X1.6938 Y3.9357
X1.6873 Y3.9173
X1.6862 Y3.9131
X1.6855 Y3.9088
X1.6853 Y3.9044
Y3.8757
X1.6857 Y3.8736 Z-0.0197 F27
X1.6862 Y3.8715 Z-0.019
X1.6866 Y3.8697 Z-0.0179
X1.6869 Y3.8682 Z-0.0163
X1.6871 Y3.8671 Z-0.0145
X1.6874 Y3.8664 Z-0.0124
X1.6875 Y3.8662 Z-0.0102
G0 Z0.45
X1.7163 Y7.9302
Z0.03
G1 Z0.005 F27
X1.716 Z0.0011
X1.7151 Y7.93 Z-0.0027
X1.7136 Y7.9297 Z-0.0063
X1.7116 Y7.9294 Z-0.0097
X1.7091 Y7.9289 Z-0.0127
X1.7062 Y7.9284 Z-0.0152
X1.7029 Y7.9278 Z-0.0173
X1.6993 Y7.9272 Z-0.0188
X1.6956 Y7.9265 Z-0.0197
X1.6917 Y7.9258 Z-0.02
X1.6897 Y7.9252
X1.6879 Y7.924
X1.6865 Y7.9224
X1.6856 Y7.9205
X1.6853 Y7.9184
Y7.8372 F54
X1.6871 Y7.8008
X1.6885 Y7.7645
X1.6918 Y7.6919
X1.6938 Y7.6192
X1.695 Y7.5101
X1.6953 Y6.9648
Y5.8378
X1.6952 Y4.0928
X1.6941 Y4.0564
X1.6905 Y4.0203
X1.6862 Y3.9967
X1.6855 Y3.9897
X1.6853 Y3.9826
Y3.9044
X1.6857 Y3.9022 Z-0.0197 F27
X1.6862 Y3.9002 Z-0.019
X1.6866 Y3.8984 Z-0.0179
X1.6869 Y3.8969 Z-0.0163
X1.6871 Y3.8958 Z-0.0145
X1.6874 Y3.8951 Z-0.0124
X1.6875 Y3.8949 Z-0.0102
G0 Z0.45
X1.7163 Y7.849
Z0.03
G1 Z0.005 F27
X1.716 Y7.8489 Z0.0011
X1.7151 Y7.8488 Z-0.0027
X1.7136 Y7.8485 Z-0.0063
X1.7116 Y7.8481 Z-0.0097
X1.7091 Y7.8477 Z-0.0127
X1.7062 Y7.8472 Z-0.0152
X1.7029 Y7.8466 Z-0.0173
X1.6993 Y7.8459 Z-0.0188
X1.6956 Y7.8453 Z-0.0197
X1.6917 Y7.8446 Z-0.02
X1.6897 Y7.8439
X1.6879 Y7.8428
X1.6865 Y7.8412
X1.6856 Y7.8392
X1.6853 Y7.8372
Y3.9826 F54
X1.6857 Y3.9805 Z-0.0197 F27
X1.6862 Y3.9785 Z-0.019
X1.6866 Y3.9767 Z-0.0179
X1.6869 Y3.9752 Z-0.0163
X1.6871 Y3.974 Z-0.0145
X1.6874 Y3.9734 Z-0.0124
X1.6875 Y3.9731 Z-0.0102
G0 Z0.45
X0.1019 Y3.7257
Z0.03
G1 Z0.005 F27
X0.1022 Y3.7258 Z0.0011
X0.1029 Y3.7264 Z-0.0027
X0.1042 Y3.7272 Z-0.0063
X0.1058 Y3.7284 Z-0.0097
X0.1079 Y3.7299 Z-0.0127
X0.1104 Y3.7316 Z-0.0152
X0.1131 Y3.7335 Z-0.0173
X0.1161 Y3.7356 Z-0.0188
X0.1192 Y3.7377 Z-0.0197
X0.1224 Y3.74 Z-0.02
X0.124 Y3.7414
X0.1251 Y3.7432
X0.1257 Y3.7453
Y3.7474
X0.1251 Y3.7494
X0.1232 Y3.7535 F54
X0.1218 Y3.7562
X0.0918 Y3.7767
X0.0676 Y3.8039
X0.0495 Y3.8354
X0.0371 Y3.8696
X0.0293 Y3.9051
X0.0247 Y3.9412
X0.0223 Y3.9774
X0.0211 Y4.0138
X0.0202 Y4.0865
X0.02 Y5.1771
Y5.7225
Y7.722
Y7.831
X0.0277 Y7.8666
X0.0454 Y7.8984
X0.0704 Y7.9247
X0.0745 Y7.9274
X0.0862 Y7.9364
X0.0966 Y7.9468
X0.1055 Y7.9585
X0.1129 Y7.9712
X0.1184 Y7.9848
X0.1187 Y7.9868 Z-0.0198 F27
X0.119 Y7.9887 Z-0.0192
X0.1193 Y7.9904 Z-0.0182
X0.1195 Y7.9919 Z-0.0168
X0.1194 Y7.9934 Z-0.0149
X0.1193 Y7.9942 Z-0.0126
Y7.9945 Z-0.0102
G0 Z0.45
X0.1 Y3.7297
Z0.03
G1 Z0.005 F27
X0.1003 Y3.7299 Z0.0011
X0.101 Y3.7305 Z-0.0027
X0.1023 Y3.7313 Z-0.0063
X0.104 Y3.7325 Z-0.0097
X0.106 Y3.7339 Z-0.0127
X0.1085 Y3.7357 Z-0.0152
X0.1112 Y3.7376 Z-0.0173
X0.1142 Y3.7397 Z-0.0188
X0.1173 Y3.7418 Z-0.0197
X0.1205 Y3.7441 Z-0.02
X0.1221 Y3.7455
X0.1232 Y3.7473
X0.1238 Y3.7494
Y3.7515
X0.1232 Y3.7535
X0.1186 Y3.7646 F54
X0.1155 Y3.7742
X0.1147 Y3.7776
X0.0937 Y3.8073
X0.0767 Y3.8394
X0.0638 Y3.8734
X0.0547 Y3.9086
X0.0486 Y3.9444
X0.0448 Y3.9806
X0.0426 Y4.0169
X0.0414 Y4.0532
X0.0404 Y4.1259
X0.04 Y4.4531
Y5.7619
Y7.7614
X0.0416 Y7.7978
X0.051 Y7.8329
X0.0668 Y7.8656
X0.0865 Y7.8962
X0.0956 Y7.9078
X0.1028 Y7.9206
X0.1079 Y7.9344
X0.1108 Y7.9488
X0.1109 Y7.951 Z-0.0198 F27
X0.1106 Y7.9531 Z-0.019
X0.1103 Y7.9549 Z-0.0178
X0.1101 Y7.9564 Z-0.0163
X0.1099 Y7.9576 Z-0.0144
X0.1098 Y7.9583 Z-0.0124
Y7.9585 Z-0.0102
G0 Z0.45
X0.0874 Y3.7565
Z0.03
G1 Z0.005 F27
X0.0877 Y3.7566 Z0.0011
X0.0886 Y3.7569 Z-0.0027
X0.09 Y3.7575 Z-0.0063
X0.0919 Y3.7582 Z-0.0097
X0.0943 Y3.7591 Z-0.0127
X0.097 Y3.7602 Z-0.0152
X0.1001 Y3.7615 Z-0.0173
X0.1035 Y3.7628 Z-0.0188
X0.1071 Y3.7642 Z-0.0197
X0.1107 Y3.7657 Z-0.02
X0.1125 Y3.7667
X0.114 Y3.7682
X0.1151 Y3.77
X0.1156 Y3.7721
X0.1155 Y3.7742
X0.1109 Y3.7976 F54
X0.1108 Y3.8001
X0.1104 Y3.8055
X0.0978 Y3.8396
X0.0865 Y3.8742
X0.0778 Y3.9095
X0.0714 Y3.9452
X0.067 Y3.9813
X0.0641 Y4.0176
X0.0624 Y4.0539
X0.0613 Y4.0902
X0.0604 Y4.1629
X0.06 Y4.4538
Y5.7626
Y7.7257
X0.0619 Y7.762
X0.0691 Y7.7977
X0.0812 Y7.8319
X0.1026 Y7.877
X0.1067 Y7.89
X0.1092 Y7.9033
X0.11 Y7.9168
X0.1095 Y7.919 Z-0.0197 F27
X0.1091 Y7.921 Z-0.019
X0.1087 Y7.9228 Z-0.0179
X0.1084 Y7.9243 Z-0.0163
X0.1082 Y7.9254 Z-0.0145
X0.1079 Y7.9261 Z-0.0124
X0.1078 Y7.9263 Z-0.0102
G0 Z0.45
X0.0803 Y3.7871
Z0.03
G1 Z0.005 F27
X0.0806 Z0.0011
X0.0815 Y3.7873 Z-0.0027
X0.083 Y3.7877 Z-0.0063
X0.085 Y3.7881 Z-0.0097
X0.0874 Y3.7886 Z-0.0127
X0.0904 Y3.7893 Z-0.0152
X0.0936 Y3.79 Z-0.0173
X0.0972 Y3.7908 Z-0.0188
X0.1009 Y3.7916 Z-0.0197
X0.1047 Y3.7924 Z-0.02
X0.1067 Y3.7932
X0.1084 Y3.7944
X0.1097 Y3.7961
X0.1106 Y3.798
X0.1108 Y3.8001
X0.11 Y3.8224 F54
Y3.8307
X0.1097 Y3.836
X0.1077 Y3.8512
X0.0957 Y3.923
X0.0908 Y3.959
X0.0871 Y3.9951
X0.0845 Y4.0314
X0.0827 Y4.0677
X0.0816 Y4.104
X0.0805 Y4.1767
X0.08 Y4.3949
Y5.8127
Y7.6668
X0.0803 Y7.7032
X0.0828 Y7.7395
X0.0894 Y7.7752
X0.0998 Y7.8101
X0.1087 Y7.8349
X0.1099 Y7.8404
X0.11 Y7.8432
Y7.8747
X0.1095 Y7.8769 Z-0.0197 F27
X0.1091 Y7.8789 Z-0.019
X0.1087 Y7.8807 Z-0.0179
X0.1084 Y7.8822 Z-0.0163
X0.1082 Y7.8833 Z-0.0145
X0.1079 Y7.884 Z-0.0124
X0.1078 Y7.8842 Z-0.0102
G0 Z0.45
X0.079 Y3.8188
Z0.03
G1 Z0.005 F27
X0.0793 Y3.8189 Z0.0011
X0.0802 Y3.819 Z-0.0027
X0.0816 Y3.8193 Z-0.0063
X0.0837 Y3.8197 Z-0.0097
X0.0862 Y3.8201 Z-0.0127
X0.0891 Y3.8206 Z-0.0152
X0.0924 Y3.8212 Z-0.0173
X0.096 Y3.8219 Z-0.0188
X0.0997 Y3.8225 Z-0.0197
X0.1036 Y3.8232 Z-0.02
X0.1056 Y3.8239
X0.1073 Y3.8251
X0.1087 Y3.8267
X0.1096 Y3.8286
X0.11 Y3.8307
Y3.9133 F54
X0.1082 Y3.9496
X0.1068 Y3.9859
X0.1034 Y4.0585
X0.1014 Y4.1312
X0.1003 Y4.2403
X0.1 Y4.822
Y5.9126
X0.1001 Y7.6577
X0.1011 Y7.694
X0.1048 Y7.7302
X0.1091 Y7.7536
X0.1098 Y7.7606
X0.11 Y7.7676
Y7.8432
X0.1095 Y7.8453 Z-0.0197 F27
X0.1091 Y7.8473 Z-0.019
X0.1087 Y7.8491 Z-0.0179
X0.1084 Y7.8506 Z-0.0163
X0.1082 Y7.8518 Z-0.0145
X0.1079 Y7.8525 Z-0.0124
X0.1078 Y7.8527 Z-0.0102
G0 Z0.45
X0.079 Y3.9014
Z0.03
G1 Z0.005 F27
X0.0793 Y3.9015 Z0.0011
X0.0802 Y3.9016 Z-0.0027
X0.0816 Y3.9019 Z-0.0063
X0.0837 Y3.9023 Z-0.0097
X0.0862 Y3.9027 Z-0.0127
X0.0891 Y3.9032 Z-0.0152
X0.0924 Y3.9038 Z-0.0173
X0.096 Y3.9045 Z-0.0188
X0.0997 Y3.9052 Z-0.0197
X0.1036 Y3.9058 Z-0.02
X0.1056 Y3.9065
X0.1073 Y3.9077
X0.1087 Y3.9093
X0.1096 Y3.9112
X0.11 Y3.9133
Y7.7676 F54
X0.1095 Y7.7698 Z-0.0197 F27
X0.1091 Y7.7718 Z-0.019
X0.1087 Y7.7736 Z-0.0179
X0.1084 Y7.7751 Z-0.0163
X0.1082 Y7.7762 Z-0.0145
X0.1079 Y7.7769 Z-0.0124
X0.1078 Y7.7771 Z-0.0102
G0 Z0.45
X3.5675 Y8.0253
Z0.03
G1 Z0.005 F27
X3.5673 Y8.0251 Z0.0011
X3.5665 Y8.0246 Z-0.0027
X3.5653 Y8.0237 Z-0.0063
X3.5637 Y8.0225 Z-0.0097
X3.5616 Y8.021 Z-0.0127
X3.5592 Y8.0192 Z-0.0152
X3.5565 Y8.0172 Z-0.0173
X3.5536 Y8.0151 Z-0.0188
X3.5505 Y8.0128 Z-0.0197
X3.5474 Y8.0105 Z-0.02
X3.5458 Y8.009
X3.5448 Y8.0072
X3.5442 Y8.0051
X3.5443 Y8.003
X3.5449 Y8.001
X3.5469 Y7.9969 F54
X3.5483 Y7.9944
X3.5783 Y7.9739
X3.6026 Y7.9469
X3.6207 Y7.9153
X3.6331 Y7.8812
X3.641 Y7.8457
X3.6455 Y7.8096
X3.6479 Y7.7733
X3.6492 Y7.737
X3.65 Y7.6643
X3.6503 Y6.61
Y6.0283
Y4.0288
Y3.9197
X3.6428 Y3.8841
X3.6253 Y3.8522
X3.6004 Y3.8258
X3.5954 Y3.8224
X3.5813 Y3.8112
X3.5692 Y3.7978
X3.5594 Y3.7826
X3.5522 Y3.7661
X3.5519 Y3.764 Z-0.0198 F27
X3.5516 Y3.7621 Z-0.0191
X3.5513 Y3.7603 Z-0.0181
X3.5511 Y3.7588 Z-0.0166
Y3.7575 Z-0.0147
X3.5512 Y3.7566 Z-0.0125
Y3.7564 Z-0.0102
G0 Z0.45
X3.5695 Y8.0212
Z0.03
G1 Z0.005 F27
X3.5693 Y8.021 Z0.0011
X3.5685 Y8.0205 Z-0.0027
X3.5673 Y8.0196 Z-0.0063
X3.5657 Y8.0184 Z-0.0097
X3.5636 Y8.0169 Z-0.0127
X3.5612 Y8.0151 Z-0.0152
X3.5585 Y8.0131 Z-0.0173
X3.5556 Y8.011 Z-0.0188
X3.5525 Y8.0087 Z-0.0197
X3.5494 Y8.0064 Z-0.02
X3.5479 Y8.0049
X3.5468 Y8.0031
X3.5462 Y8.0011
X3.5463 Y7.9989
X3.5469 Y7.9969
X3.5503 Y7.9892 F54
X3.5544 Y7.9762
X3.5562 Y7.9711
X3.5772 Y7.9414
X3.5941 Y7.9093
X3.6069 Y7.8752
X3.6159 Y7.84
X3.6219 Y7.8041
X3.6256 Y7.768
X3.6277 Y7.7317
X3.6289 Y7.6954
X3.6299 Y7.6227
X3.6303 Y7.2955
Y6.023
Y4.0235
Y3.9871
X3.6284 Y3.9508
X3.6187 Y3.9158
X3.6027 Y3.8832
X3.583 Y3.8526
X3.5727 Y3.8397
X3.5657 Y3.8265
X3.5612 Y3.8123
X3.5593 Y3.7976
X3.5592 Y3.7953 Z-0.0197 F27
X3.5595 Y3.7933 Z-0.019
X3.5598 Y3.7915 Z-0.0178
X3.56 Y3.79 Z-0.0162
X3.5602 Y3.7888 Z-0.0144
X3.5603 Y3.7881 Z-0.0123
Y3.7879 Z-0.0102
G0 Z0.45
X3.5807 Y7.9965
Z0.03
G1 Z0.005 F27
X3.5804 Y7.9964 Z0.0011
X3.5796 Y7.996 Z-0.0027
X3.5783 Y7.9953 Z-0.0063
X3.5764 Y7.9943 Z-0.0097
X3.5742 Y7.9932 Z-0.0127
X3.5715 Y7.9918 Z-0.0152
X3.5685 Y7.9903 Z-0.0173
X3.5653 Y7.9887 Z-0.0188
X3.5619 Y7.987 Z-0.0197
X3.5584 Y7.9852 Z-0.02
X3.5567 Y7.984
X3.5553 Y7.9823
X3.5544 Y7.9804
X3.5541 Y7.9783
X3.5544 Y7.9762
X3.5565 Y7.9693 F54
X3.5595 Y7.9483
X3.5604 Y7.9429
X3.5731 Y7.9089
X3.5842 Y7.8742
X3.5928 Y7.8389
X3.5991 Y7.8031
X3.6035 Y7.767
X3.6063 Y7.7308
X3.608 Y7.6945
X3.609 Y7.6581
X3.6099 Y7.5854
X3.6103 Y7.2582
Y5.9858
Y4.0226
X3.6082 Y3.9863
X3.6007 Y3.9507
X3.5884 Y3.9166
X3.5724 Y3.8839
X3.5657 Y3.8672
X3.5616 Y3.8497
X3.5603 Y3.8317
X3.5607 Y3.8296 Z-0.0197 F27
X3.5612 Y3.8276 Z-0.019
X3.5616 Y3.8258 Z-0.0179
X3.5619 Y3.8243 Z-0.0163
X3.5621 Y3.8231 Z-0.0145
X3.5624 Y3.8225 Z-0.0124
X3.5625 Y3.8222 Z-0.0102
G0 Z0.45
X3.5889 Y7.9638
Z0.03
G1 Z0.005 F27
X3.5886 Y7.9637 Z0.0011
X3.5877 Y7.9634 Z-0.0027
X3.5863 Y7.963 Z-0.0063
X3.5843 Y7.9624 Z-0.0097
X3.5819 Y7.9616 Z-0.0127
X3.579 Y7.9608 Z-0.0152
X3.5758 Y7.9598 Z-0.0173
X3.5724 Y7.9587 Z-0.0188
X3.5687 Y7.9576 Z-0.0197
X3.565 Y7.9564 Z-0.02
X3.5631 Y7.9555
X3.5615 Y7.9541
X3.5603 Y7.9524
X3.5596 Y7.9504
X3.5595 Y7.9483
X3.56 Y7.9445 F54
X3.5603 Y7.9184
X3.5605 Y7.913
X3.5632 Y7.8943
X3.5752 Y7.8226
X3.58 Y7.7866
X3.5836 Y7.7504
X3.5861 Y7.7142
X3.5877 Y7.6778
X3.5887 Y7.6415
X3.5898 Y7.5688
X3.5903 Y7.3507
Y5.9328
Y4.0787
X3.5898 Y4.0424
X3.5868 Y4.0061
X3.5797 Y3.9705
X3.5689 Y3.9358
X3.5623 Y3.9174
X3.5612 Y3.9131
X3.5605 Y3.9088
X3.5603 Y3.9044
Y3.8757
X3.5607 Y3.8736 Z-0.0197 F27
X3.5612 Y3.8715 Z-0.019
X3.5616 Y3.8697 Z-0.0179
X3.5619 Y3.8682 Z-0.0163
X3.5621 Y3.8671 Z-0.0145
X3.5624 Y3.8664 Z-0.0124
X3.5625 Y3.8662 Z-0.0102
G0 Z0.45
X3.5913 Y7.9302
Z0.03
G1 Z0.005 F27
X3.591 Z0.0011
X3.5901 Y7.93 Z-0.0027
X3.5886 Y7.9297 Z-0.0063
X3.5866 Y7.9294 Z-0.0097
X3.5841 Y7.9289 Z-0.0127
X3.5812 Y7.9284 Z-0.0152
X3.5779 Y7.9278 Z-0.0173
X3.5743 Y7.9272 Z-0.0188
X3.5706 Y7.9265 Z-0.0197
X3.5667 Y7.9258 Z-0.02
X3.5647 Y7.9252
X3.5629 Y7.924
X3.5615 Y7.9224
X3.5606 Y7.9205
X3.5603 Y7.9184
Y7.8372 F54
X3.5621 Y7.8008
X3.5635 Y7.7645
X3.5668 Y7.6919
X3.5688 Y7.6192
X3.57 Y7.5101
X3.5703 Y6.9648
Y5.8378
X3.5702 Y4.0928
X3.5691 Y4.0564
X3.5654 Y4.0203
X3.5612 Y3.9967
X3.5605 Y3.9897
X3.5603 Y3.9827
Y3.9044
X3.5607 Y3.9023 Z-0.0197 F27
X3.5612 Y3.9003 Z-0.019
X3.5616 Y3.8985 Z-0.0179
X3.5619 Y3.897 Z-0.0163
X3.5621 Y3.8958 Z-0.0145
X3.5624 Y3.8952 Z-0.0124
X3.5625 Y3.8949 Z-0.0102
G0 Z0.45
X3.5913 Y7.849
Z0.03
G1 Z0.005 F27
X3.591 Y7.8489 Z0.0011
X3.5901 Y7.8488 Z-0.0027
X3.5886 Y7.8485 Z-0.0063
X3.5866 Y7.8481 Z-0.0097
X3.5841 Y7.8477 Z-0.0127
X3.5812 Y7.8472 Z-0.0152
X3.5779 Y7.8466 Z-0.0173
X3.5743 Y7.8459 Z-0.0188
X3.5706 Y7.8453 Z-0.0197
X3.5667 Y7.8446 Z-0.02
X3.5647 Y7.8439
X3.5629 Y7.8428
X3.5615 Y7.8412
X3.5606 Y7.8392
X3.5603 Y7.8372
Y3.9827 F54
X3.5606 Y3.9794 F27
X3.5614 Y3.9762
X3.5625 Y3.9732
X3.5641 Y3.9696 Z-0.0197
X3.5657 Y3.9661 Z-0.0188
X3.5672 Y3.9628 Z-0.0173
X3.5686 Y3.9598 Z-0.0152
X3.5698 Y3.9571 Z-0.0127
X3.5709 Y3.9548 Z-0.0097
X3.5717 Y3.9529 Z-0.0063
X3.5724 Y3.9515 Z-0.0027
X3.5728 Y3.9507 Z0.0011
X3.5729 Y3.9504 Z0.005
G0 Z0.45
X3.7256 Y6.0229
Z0.03
G1 Z0.005 F27
X3.7257 Y6.0227 Z0.0011
X3.7263 Y6.0219 Z-0.0027
X3.7271 Y6.0207 Z-0.0063
X3.7283 Y6.019 Z-0.0097
X3.7298 Y6.0169 Z-0.0127
X3.7315 Y6.0145 Z-0.0152
X3.7334 Y6.0118 Z-0.0173
X3.7355 Y6.0088 Z-0.0188
X3.7377 Y6.0057 Z-0.0197
X3.74 Y6.0025 Z-0.02
X3.7414 Y6.001
X3.7432 Y5.9999
X3.7453 Y5.9993
X3.7474
X3.7494 Y5.9998
X3.7535 Y6.0017 F54
X3.7562 Y6.0032
X3.7767 Y6.0332
X3.8038 Y6.0574
X3.8353 Y6.0755
X3.8695 Y6.0879
X3.905 Y6.0957
X3.9411 Y6.1003
X3.9773 Y6.1027
X4.0137 Y6.1039
X4.0864 Y6.1048
X5.177 Y6.105
X5.7224
X7.7219
X7.831
X7.8665 Y6.0973
X7.8983 Y6.0797
X7.9246 Y6.0546
X7.9274 Y6.0504
X7.9364 Y6.0388
X7.9468 Y6.0284
X7.9585 Y6.0195
X7.9712 Y6.0121
X7.9848 Y6.0066
X7.9868 Y6.0063 Z-0.0198 F27
X7.9887 Y6.006 Z-0.0192
X7.9904 Y6.0058 Z-0.0182
X7.9919 Y6.0055 Z-0.0168
X7.9933 Y6.0056 Z-0.0149
X7.9942 Y6.0057 Z-0.0126
X7.9945 Z-0.0102
G0 Z0.45
X3.7296 Y6.0248
Z0.03
G1 Z0.005 F27
X3.7298 Y6.0246 Z0.0011
X3.7304 Y6.0238 Z-0.0027
X3.7312 Y6.0226 Z-0.0063
X3.7324 Y6.0209 Z-0.0097
X3.7339 Y6.0189 Z-0.0127
X3.7356 Y6.0164 Z-0.0152
X3.7375 Y6.0137 Z-0.0173
X3.7396 Y6.0107 Z-0.0188
X3.7418 Y6.0076 Z-0.0197
X3.7441 Y6.0044 Z-0.02
X3.7455 Y6.0029
X3.7473 Y6.0018
X3.7494 Y6.0012
X3.7515
X3.7535 Y6.0017
X3.7646 Y6.0064 F54
X3.7742 Y6.0095
X3.7776 Y6.0103
X3.8073 Y6.0313
X3.8394 Y6.0483
X3.8734 Y6.0612
X3.9086 Y6.0703
X3.9444 Y6.0764
X3.9806 Y6.0802
X4.0169 Y6.0824
X4.0532 Y6.0836
X4.1259 Y6.0846
X4.4531 Y6.085
X5.7619
X7.7614
X7.7978 Y6.0834
X7.8329 Y6.074
X7.8656 Y6.0582
X7.8962 Y6.0385
X7.9077 Y6.0294
X7.9206 Y6.0222
X7.9344 Y6.0171
X7.9488 Y6.0142
X7.951 Y6.0141 Z-0.0198 F27
X7.9531 Y6.0144 Z-0.019
X7.9549 Y6.0147 Z-0.0178
X7.9564 Y6.0149 Z-0.0163
X7.9576 Y6.0151 Z-0.0144
X7.9583 Y6.0152 Z-0.0124
X7.9585 Z-0.0102
G0 Z0.45
X3.7565 Y6.0376
Z0.03
G1 Z0.005 F27
X3.7566 Y6.0373 Z0.0011
X3.7569 Y6.0364 Z-0.0027
X3.7575 Y6.035 Z-0.0063
X3.7582 Y6.0331 Z-0.0097
X3.7591 Y6.0307 Z-0.0127
X3.7602 Y6.028 Z-0.0152
X3.7615 Y6.0249 Z-0.0173
X3.7628 Y6.0215 Z-0.0188
X3.7642 Y6.0179 Z-0.0197
X3.7657 Y6.0143 Z-0.02
X3.7667 Y6.0125
X3.7682 Y6.011
X3.77 Y6.0099
X3.7721 Y6.0094
X3.7742 Y6.0095
X3.7976 Y6.0141 F54
X3.8001 Y6.0142
X3.8055 Y6.0146
X3.8396 Y6.0272
X3.8742 Y6.0385
X3.9095 Y6.0472
X3.9452 Y6.0536
X3.9813 Y6.058
X4.0176 Y6.0609
X4.0539 Y6.0626
X4.0902 Y6.0637
X4.1629 Y6.0646
X4.4538 Y6.065
X5.7625
X7.7257
X7.762 Y6.0631
X7.7977 Y6.0559
X7.8319 Y6.0438
X7.877 Y6.0224
X7.89 Y6.0183
X7.9033 Y6.0158
X7.9168 Y6.015
X7.9189 Y6.0155 Z-0.0197 F27
X7.921 Y6.0159 Z-0.019
X7.9228 Y6.0163 Z-0.0179
X7.9243 Y6.0166 Z-0.0163
X7.9254 Y6.0168 Z-0.0145
X7.9261 Y6.0171 Z-0.0124
X7.9263 Y6.0172 Z-0.0102
G0 Z0.45
X3.7871 Y6.0447
Z0.03
G1 Z0.005 F27
Y6.0444 Z0.0011
X3.7873 Y6.0435 Z-0.0027
X3.7877 Y6.042 Z-0.0063
X3.7881 Y6.04 Z-0.0097
X3.7886 Y6.0376 Z-0.0127
X3.7893 Y6.0346 Z-0.0152
X3.79 Y6.0314 Z-0.0173
X3.7908 Y6.0278 Z-0.0188
X3.7916 Y6.0241 Z-0.0197
X3.7924 Y6.0203 Z-0.02
X3.7932 Y6.0183
X3.7944 Y6.0166
X3.7961 Y6.0153
X3.798 Y6.0144
X3.8001 Y6.0142
X3.8224 Y6.015 F54
X3.8307
X3.836 Y6.0153
X3.8512 Y6.0173
X3.923 Y6.0293
X3.959 Y6.0342
X3.9951 Y6.0379
X4.0314 Y6.0405
X4.0677 Y6.0423
X4.1041 Y6.0434
X4.1768 Y6.0445
X4.3949 Y6.045
X5.8127
X7.6669
X7.7032 Y6.0447
X7.7395 Y6.0422
X7.7752 Y6.0356
X7.8101 Y6.0252
X7.8349 Y6.0163
X7.8404 Y6.0151
X7.8432 Y6.015
X7.8747
X7.8769 Y6.0155 Z-0.0197 F27
X7.8789 Y6.0159 Z-0.019
X7.8807 Y6.0163 Z-0.0179
X7.8822 Y6.0166 Z-0.0163
X7.8833 Y6.0168 Z-0.0145
X7.884 Y6.0171 Z-0.0124
X7.8842 Y6.0172 Z-0.0102
G0 Z0.45
X3.8188 Y6.046
Z0.03
G1 Z0.005 F27
X3.8189 Y6.0457 Z0.0011
X3.819 Y6.0448 Z-0.0027
X3.8193 Y6.0434 Z-0.0063
X3.8197 Y6.0413 Z-0.0097
X3.8201 Y6.0388 Z-0.0127
X3.8206 Y6.0359 Z-0.0152
X3.8212 Y6.0326 Z-0.0173
X3.8219 Y6.029 Z-0.0188
X3.8225 Y6.0253 Z-0.0197
X3.8232 Y6.0214 Z-0.02
X3.8239 Y6.0194
X3.8251 Y6.0177
X3.8267 Y6.0163
X3.8286 Y6.0154
X3.8307 Y6.015
X3.9133 F54
X3.9496 Y6.0168
X3.9859 Y6.0182
X4.0585 Y6.0216
X4.1312 Y6.0236
X4.2403 Y6.0247
X4.822 Y6.025
X5.9126
X7.6577 Y6.0249
X7.694 Y6.0239
X7.7302 Y6.0201
X7.7536 Y6.0159
X7.7606 Y6.0152
X7.7676 Y6.015
X7.8432
X7.8453 Y6.0155 Z-0.0197 F27
X7.8473 Y6.0159 Z-0.019
X7.8491 Y6.0163 Z-0.0179
X7.8506 Y6.0166 Z-0.0163
X7.8518 Y6.0168 Z-0.0145
X7.8524 Y6.0171 Z-0.0124
X7.8527 Y6.0172 Z-0.0102
G0 Z0.45
X3.9014 Y6.046
Z0.03
G1 Z0.005 F27
X3.9015 Y6.0457 Z0.0011
X3.9016 Y6.0448 Z-0.0027
X3.9019 Y6.0434 Z-0.0063
X3.9023 Y6.0413 Z-0.0097
X3.9027 Y6.0388 Z-0.0127
X3.9032 Y6.0359 Z-0.0152
X3.9038 Y6.0326 Z-0.0173
X3.9045 Y6.029 Z-0.0188
X3.9052 Y6.0253 Z-0.0197
X3.9058 Y6.0214 Z-0.02
X3.9065 Y6.0194
X3.9077 Y6.0177
X3.9093 Y6.0163
X3.9112 Y6.0154
X3.9133 Y6.015
X7.7676 F54
X7.7698 Y6.0155 Z-0.0197 F27
X7.7718 Y6.0159 Z-0.019
X7.7736 Y6.0163 Z-0.0179
X7.7751 Y6.0166 Z-0.0163
X7.7762 Y6.0168 Z-0.0145
X7.7769 Y6.0171 Z-0.0124
X7.7771 Y6.0172 Z-0.0102
G0 Z0.45
X8.0253 Y6.3075
Z0.03
G1 Z0.005 F27
X8.0251 Y6.3077 Z0.0011
X8.0246 Y6.3085 Z-0.0027
X8.0237 Y6.3097 Z-0.0063
X8.0225 Y6.3113 Z-0.0097
X8.021 Y6.3134 Z-0.0127
X8.0192 Y6.3158 Z-0.0152
X8.0172 Y6.3185 Z-0.0173
X8.0151 Y6.3214 Z-0.0188
X8.0128 Y6.3245 Z-0.0197
X8.0105 Y6.3276 Z-0.02
X8.009 Y6.3292
X8.0072 Y6.3302
X8.0051 Y6.3308
X8.003 Y6.3307
X8.001 Y6.3301
X7.9969 Y6.3281 F54
X7.9944 Y6.3267
X7.9739 Y6.2967
X7.9469 Y6.2724
X7.9153 Y6.2543
X7.8812 Y6.2419
X7.8457 Y6.234
X7.8096 Y6.2295
X7.7733 Y6.2271
X7.737 Y6.2258
X7.6643 Y6.225
X6.61 Y6.2247
X6.0283
X4.0288
X3.9197
X3.8841 Y6.2322
X3.8522 Y6.2497
X3.8258 Y6.2746
X3.823 Y6.2787
X3.8125 Y6.2921
X3.8001 Y6.3038
X3.7861 Y6.3136
X3.7708 Y6.3211
X3.7687 Y6.3215 Z-0.0198 F27
X3.7667 Y6.3219 Z-0.0191
X3.7649 Y6.3222 Z-0.0179
X3.7633 Y6.3224 Z-0.0164
X3.7622 Y6.3227 Z-0.0146
X3.7614 Y6.3226 Z-0.0125
X3.7611 Z-0.0102
G0 Z0.45
X8.0212 Y6.3055
Z0.03
G1 Z0.005 F27
X8.021 Y6.3057 Z0.0011
X8.0205 Y6.3065 Z-0.0027
X8.0196 Y6.3077 Z-0.0063
X8.0184 Y6.3093 Z-0.0097
X8.0169 Y6.3114 Z-0.0127
X8.0151 Y6.3138 Z-0.0152
X8.0131 Y6.3165 Z-0.0173
X8.011 Y6.3194 Z-0.0188
X8.0087 Y6.3225 Z-0.0197
X8.0064 Y6.3256 Z-0.02
X8.0049 Y6.3271
X8.0031 Y6.3282
X8.0011 Y6.3288
X7.9989 Y6.3287
X7.9969 Y6.3281
X7.9883 Y6.3245 F54
X7.9762 Y6.3203
X7.9711 Y6.3187
X7.9414 Y6.2978
X7.9092 Y6.2808
X7.8751 Y6.2681
X7.8399 Y6.2591
X7.804 Y6.2531
X7.7679 Y6.2494
X7.7316 Y6.2473
X7.6953 Y6.2461
X7.6226 Y6.2451
X7.2954 Y6.2447
X6.0229
X4.0234
X3.987
X3.9507 Y6.2466
X3.9157 Y6.2563
X3.883 Y6.2723
X3.8525 Y6.292
X3.8396 Y6.3023
X3.8265 Y6.3093
X3.8123 Y6.3138
X3.7976 Y6.3157
X3.7953 Y6.3158 Z-0.0197 F27
X3.7933 Y6.3155 Z-0.019
X3.7915 Y6.3152 Z-0.0178
X3.79 Y6.315 Z-0.0162
X3.7888 Y6.3148 Z-0.0144
X3.7881 Y6.3147 Z-0.0123
X3.7879 Z-0.0102
G0 Z0.45
X7.9954 Y6.2932
Z0.03
G1 Z0.005 F27
X7.9953 Y6.2935 Z0.0011
X7.9949 Y6.2943 Z-0.0027
X7.9943 Y6.2957 Z-0.0063
X7.9935 Y6.2976 Z-0.0097
X7.9924 Y6.2999 Z-0.0127
X7.9911 Y6.3026 Z-0.0152
X7.9897 Y6.3056 Z-0.0173
X7.9882 Y6.3089 Z-0.0188
X7.9866 Y6.3124 Z-0.0197
X7.985 Y6.3159 Z-0.02
X7.9839 Y6.3177
X7.9823 Y6.3191
X7.9804 Y6.3201
X7.9783 Y6.3205
X7.9762 Y6.3203
X7.9668 Y6.3182 F54
X7.9483 Y6.3155
X7.9429 Y6.3146
X7.9089 Y6.3019
X7.8742 Y6.2908
X7.8389 Y6.2822
X7.8031 Y6.2759
X7.767 Y6.2715
X7.7308 Y6.2687
X7.6945 Y6.267
X7.6581 Y6.266
X7.5854 Y6.2651
X7.2582 Y6.2647
X5.9858
X4.0226
X3.9863 Y6.2668
X3.9507 Y6.2743
X3.9165 Y6.2866
X3.8839 Y6.3026
X3.8672 Y6.3093
X3.8496 Y6.3134
X3.8316 Y6.3147
X3.8295 Y6.3143 Z-0.0197 F27
X3.8275 Y6.3138 Z-0.019
X3.8257 Y6.3134 Z-0.0179
X3.8242 Y6.3131 Z-0.0163
X3.823 Y6.3129 Z-0.0145
X3.8224 Y6.3126 Z-0.0124
X3.8221 Y6.3125 Z-0.0102
G0 Z0.45
X7.9638 Y6.2861
Z0.03
G1 Z0.005 F27
X7.9637 Y6.2864 Z0.0011
X7.9634 Y6.2873 Z-0.0027
X7.963 Y6.2887 Z-0.0063
X7.9624 Y6.2907 Z-0.0097
X7.9616 Y6.2931 Z-0.0127
X7.9608 Y6.296 Z-0.0152
X7.9598 Y6.2992 Z-0.0173
X7.9587 Y6.3026 Z-0.0188
X7.9576 Y6.3063 Z-0.0197
X7.9564 Y6.31 Z-0.02
X7.9555 Y6.3119
X7.9541 Y6.3135
X7.9524 Y6.3147
X7.9504 Y6.3154
X7.9483 Y6.3155
X7.9445 Y6.315 F54
X7.9184 Y6.3147
X7.913 Y6.3145
X7.8943 Y6.3118
X7.8226 Y6.2998
X7.7865 Y6.295
X7.7503 Y6.2914
X7.7141 Y6.2889
X7.6777 Y6.2873
X7.6414 Y6.2862
X7.5687 Y6.2852
X7.3506 Y6.2847
X5.9327
X4.0786
X4.0423 Y6.2852
X4.006 Y6.2882
X3.9704 Y6.2953
X3.9357 Y6.3062
X3.9173 Y6.3127
X3.9131 Y6.3138
X3.9088 Y6.3145
X3.9044 Y6.3147
X3.8757
X3.8736 Y6.3143 Z-0.0197 F27
X3.8715 Y6.3138 Z-0.019
X3.8697 Y6.3134 Z-0.0179
X3.8682 Y6.3131 Z-0.0163
X3.8671 Y6.3129 Z-0.0145
X3.8664 Y6.3126 Z-0.0124
X3.8662 Y6.3125 Z-0.0102
G0 Z0.45
X7.9302 Y6.2837
Z0.03
G1 Z0.005 F27
Y6.284 Z0.0011
X7.93 Y6.2849 Z-0.0027
X7.9297 Y6.2864 Z-0.0063
X7.9294 Y6.2884 Z-0.0097
X7.9289 Y6.2909 Z-0.0127
X7.9284 Y6.2938 Z-0.0152
X7.9278 Y6.2971 Z-0.0173
X7.9272 Y6.3007 Z-0.0188
X7.9265 Y6.3044 Z-0.0197
X7.9258 Y6.3083 Z-0.02
X7.9252 Y6.3103
X7.924 Y6.3121
X7.9224 Y6.3135
X7.9205 Y6.3144
X7.9184 Y6.3147
X7.8372 F54
X7.8008 Y6.3129
X7.7645 Y6.3115
X7.6919 Y6.3082
X7.6192 Y6.3062
X7.5101 Y6.305
X6.9648 Y6.3047
X5.8378
X4.0928 Y6.3048
X4.0564 Y6.3059
X4.0203 Y6.3095
X3.9967 Y6.3138
X3.9897 Y6.3145
X3.9826 Y6.3147
X3.9044
X3.9022 Y6.3143 Z-0.0197 F27
X3.9002 Y6.3138 Z-0.019
X3.8984 Y6.3134 Z-0.0179
X3.8969 Y6.3131 Z-0.0163
X3.8958 Y6.3129 Z-0.0145
X3.8951 Y6.3126 Z-0.0124
X3.8949 Y6.3125 Z-0.0102
G0 Z0.45
X7.849 Y6.2837
Z0.03
G1 Z0.005 F27
X7.8489 Y6.284 Z0.0011
X7.8488 Y6.2849 Z-0.0027
X7.8485 Y6.2864 Z-0.0063
X7.8481 Y6.2884 Z-0.0097
X7.8477 Y6.2909 Z-0.0127
X7.8472 Y6.2938 Z-0.0152
X7.8466 Y6.2971 Z-0.0173
X7.8459 Y6.3007 Z-0.0188
X7.8453 Y6.3044 Z-0.0197
X7.8446 Y6.3083 Z-0.02
X7.8439 Y6.3103
X7.8428 Y6.3121
X7.8412 Y6.3135
X7.8392 Y6.3144
X7.8372 Y6.3147
X3.9826 F54
X3.9805 Y6.3143 Z-0.0197 F27
X3.9785 Y6.3138 Z-0.019
X3.9767 Y6.3134 Z-0.0179
X3.9752 Y6.3131 Z-0.0163
X3.974 Y6.3129 Z-0.0145
X3.9734 Y6.3126 Z-0.0124
X3.9731 Y6.3125 Z-0.0102
G0 Z0.45
X3.7257 Y7.8981
Z0.03
G1 Z0.005 F27
X3.7258 Y7.8978 Z0.0011
X3.7264 Y7.8971 Z-0.0027
X3.7272 Y7.8958 Z-0.0063
X3.7284 Y7.8942 Z-0.0097
X3.7299 Y7.8921 Z-0.0127
X3.7316 Y7.8896 Z-0.0152
X3.7335 Y7.8869 Z-0.0173
X3.7356 Y7.8839 Z-0.0188
X3.7377 Y7.8808 Z-0.0197
X3.74 Y7.8776 Z-0.02
X3.7414 Y7.876
X3.7432 Y7.8749
X3.7453 Y7.8743
X3.7474
X3.7494 Y7.8749
X3.7535 Y7.8768 F54
X3.7562 Y7.8782
X3.7767 Y7.9082
X3.8039 Y7.9324
X3.8354 Y7.9505
X3.8696 Y7.9629
X3.9051 Y7.9707
X3.9412 Y7.9753
X3.9774 Y7.9777
X4.0138 Y7.9789
X4.0865 Y7.9798
X5.1771 Y7.98
X5.7225
X7.722
X7.831
X7.8666 Y7.9723
X7.8984 Y7.9546
X7.9247 Y7.9296
X7.9274 Y7.9255
X7.9364 Y7.9138
X7.9468 Y7.9034
X7.9585 Y7.8945
X7.9712 Y7.8871
X7.9848 Y7.8816
X7.9868 Y7.8813 Z-0.0198 F27
X7.9887 Y7.881 Z-0.0192
X7.9904 Y7.8807 Z-0.0182
X7.9919 Y7.8805 Z-0.0168
X7.9934 Y7.8806 Z-0.0149
X7.9942 Y7.8807 Z-0.0126
X7.9945 Z-0.0102
G0 Z0.45
X3.7297 Y7.9
Z0.03
G1 Z0.005 F27
X3.7299 Y7.8997 Z0.0011
X3.7305 Y7.899 Z-0.0027
X3.7313 Y7.8977 Z-0.0063
X3.7325 Y7.896 Z-0.0097
X3.7339 Y7.894 Z-0.0127
X3.7357 Y7.8915 Z-0.0152
X3.7376 Y7.8888 Z-0.0173
X3.7397 Y7.8858 Z-0.0188
X3.7418 Y7.8827 Z-0.0197
X3.7441 Y7.8795 Z-0.02
X3.7455 Y7.8779
X3.7473 Y7.8768
X3.7494 Y7.8762
X3.7515
X3.7535 Y7.8768
X3.7646 Y7.8814 F54
X3.7742 Y7.8845
X3.7776 Y7.8853
X3.8073 Y7.9063
X3.8394 Y7.9233
X3.8734 Y7.9362
X3.9086 Y7.9453
X3.9444 Y7.9514
X3.9806 Y7.9552
X4.0169 Y7.9574
X4.0532 Y7.9586
X4.1259 Y7.9596
X4.4531 Y7.96
X5.7619
X7.7614
X7.7978 Y7.9584
X7.8329 Y7.949
X7.8656 Y7.9332
X7.8962 Y7.9135
X7.9078 Y7.9044
X7.9206 Y7.8972
X7.9344 Y7.8921
X7.9488 Y7.8892
X7.951 Y7.8891 Z-0.0198 F27
X7.9531 Y7.8894 Z-0.019
X7.9549 Y7.8897 Z-0.0178
X7.9564 Y7.8899 Z-0.0163
X7.9576 Y7.8901 Z-0.0144
X7.9583 Y7.8902 Z-0.0124
X7.9585 Z-0.0102
G0 Z0.45
X3.7565 Y7.9126
Z0.03
G1 Z0.005 F27
X3.7566 Y7.9123 Z0.0011
X3.7569 Y7.9114 Z-0.0027
X3.7575 Y7.91 Z-0.0063
X3.7582 Y7.9081 Z-0.0097
X3.7591 Y7.9057 Z-0.0127
X3.7602 Y7.903 Z-0.0152
X3.7615 Y7.8999 Z-0.0173
X3.7628 Y7.8965 Z-0.0188
X3.7642 Y7.8929 Z-0.0197
X3.7657 Y7.8893 Z-0.02
X3.7667 Y7.8875
X3.7682 Y7.886
X3.77 Y7.8849
X3.7721 Y7.8844
X3.7742 Y7.8845
X3.7976 Y7.8891 F54
X3.8001 Y7.8892
X3.8055 Y7.8896
X3.8396 Y7.9022
X3.8742 Y7.9135
X3.9095 Y7.9222
X3.9452 Y7.9286
X3.9813 Y7.933
X4.0176 Y7.9359
X4.0539 Y7.9376
X4.0902 Y7.9387
X4.1629 Y7.9396
X4.4538 Y7.94
X5.7626
X7.7257
X7.762 Y7.9381
X7.7977 Y7.9309
X7.8319 Y7.9188
X7.877 Y7.8974
X7.89 Y7.8933
X7.9033 Y7.8908
X7.9168 Y7.89
X7.919 Y7.8905 Z-0.0197 F27
X7.921 Y7.8909 Z-0.019
X7.9228 Y7.8913 Z-0.0179
X7.9243 Y7.8916 Z-0.0163
X7.9254 Y7.8918 Z-0.0145
X7.9261 Y7.8921 Z-0.0124
X7.9263 Y7.8922 Z-0.0102
G0 Z0.45
X3.7871 Y7.9197
Z0.03
G1 Z0.005 F27
Y7.9194 Z0.0011
X3.7873 Y7.9185 Z-0.0027
X3.7877 Y7.917 Z-0.0063
X3.7881 Y7.915 Z-0.0097
X3.7886 Y7.9126 Z-0.0127
X3.7893 Y7.9096 Z-0.0152
X3.79 Y7.9064 Z-0.0173
X3.7908 Y7.9028 Z-0.0188
X3.7916 Y7.8991 Z-0.0197
X3.7924 Y7.8953 Z-0.02
X3.7932 Y7.8933
X3.7944 Y7.8916
X3.7961 Y7.8903
X3.798 Y7.8894
X3.8001 Y7.8892
X3.8224 Y7.89 F54
X3.8307
X3.836 Y7.8903
X3.8512 Y7.8923
X3.923 Y7.9043
X3.959 Y7.9092
X3.9951 Y7.9129
X4.0314 Y7.9155
X4.0677 Y7.9173
X4.104 Y7.9184
X4.1767 Y7.9195
X4.3949 Y7.92
X5.8127
X7.6668
X7.7032 Y7.9197
X7.7395 Y7.9172
X7.7752 Y7.9106
X7.8101 Y7.9002
X7.8349 Y7.8913
X7.8404 Y7.8901
X7.8432 Y7.89
X7.8747
X7.8769 Y7.8905 Z-0.0197 F27
X7.8789 Y7.8909 Z-0.019
X7.8807 Y7.8913 Z-0.0179
X7.8822 Y7.8916 Z-0.0163
X7.8833 Y7.8918 Z-0.0145
X7.884 Y7.8921 Z-0.0124
X7.8842 Y7.8922 Z-0.0102
G0 Z0.45
X3.8188 Y7.921
Z0.03
G1 Z0.005 F27
X3.8189 Y7.9207 Z0.0011
X3.819 Y7.9198 Z-0.0027
X3.8193 Y7.9184 Z-0.0063
X3.8197 Y7.9163 Z-0.0097
X3.8201 Y7.9138 Z-0.0127
X3.8206 Y7.9109 Z-0.0152
X3.8212 Y7.9076 Z-0.0173
X3.8219 Y7.904 Z-0.0188
X3.8225 Y7.9003 Z-0.0197
X3.8232 Y7.8964 Z-0.02
X3.8239 Y7.8944
X3.8251 Y7.8927
X3.8267 Y7.8913
X3.8286 Y7.8904
X3.8307 Y7.89
X3.9133 F54
X3.9496 Y7.8918
X3.9859 Y7.8932
X4.0585 Y7.8966
X4.1312 Y7.8986
X4.2403 Y7.8997
X4.822 Y7.9
X5.9126
X7.6577 Y7.8999
X7.694 Y7.8989
X7.7302 Y7.8952
X7.7536 Y7.8909
X7.7606 Y7.8902
X7.7676 Y7.89
X7.8432
X7.8453 Y7.8905 Z-0.0197 F27
X7.8473 Y7.8909 Z-0.019
X7.8491 Y7.8913 Z-0.0179
X7.8506 Y7.8916 Z-0.0163
X7.8518 Y7.8918 Z-0.0145
X7.8525 Y7.8921 Z-0.0124
X7.8527 Y7.8922 Z-0.0102
G0 Z0.45
X3.9014 Y7.921
Z0.03
G1 Z0.005 F27
X3.9015 Y7.9207 Z0.0011
X3.9016 Y7.9198 Z-0.0027
X3.9019 Y7.9184 Z-0.0063
X3.9023 Y7.9163 Z-0.0097
X3.9027 Y7.9138 Z-0.0127
X3.9032 Y7.9109 Z-0.0152
X3.9038 Y7.9076 Z-0.0173
X3.9045 Y7.904 Z-0.0188
X3.9052 Y7.9003 Z-0.0197
X3.9058 Y7.8964 Z-0.02
X3.9065 Y7.8944
X3.9077 Y7.8927
X3.9093 Y7.8913
X3.9112 Y7.8904
X3.9133 Y7.89
X7.7676 F54
X7.7698 Y7.8905 Z-0.0197 F27
X7.7718 Y7.8909 Z-0.019
X7.7736 Y7.8913 Z-0.0179
X7.7751 Y7.8916 Z-0.0163
X7.7762 Y7.8918 Z-0.0145
X7.7769 Y7.8921 Z-0.0124
X7.7771 Y7.8922 Z-0.0102
G0 Z0.45
X8.0253 Y4.4325
Z0.03
G1 Z0.005 F27
X8.0251 Y4.4327 Z0.0011
X8.0246 Y4.4335 Z-0.0027
X8.0237 Y4.4347 Z-0.0063
X8.0225 Y4.4363 Z-0.0097
X8.021 Y4.4384 Z-0.0127
X8.0192 Y4.4408 Z-0.0152
X8.0172 Y4.4435 Z-0.0173
X8.0151 Y4.4464 Z-0.0188
X8.0128 Y4.4495 Z-0.0197
X8.0105 Y4.4526 Z-0.02
X8.009 Y4.4542
X8.0072 Y4.4552
X8.0051 Y4.4558
X8.003 Y4.4557
X8.001 Y4.4551
X7.9969 Y4.4531 F54
X7.9944 Y4.4517
X7.9739 Y4.4217
X7.9469 Y4.3974
X7.9153 Y4.3793
X7.8812 Y4.3669
X7.8457 Y4.359
X7.8096 Y4.3545
X7.7733 Y4.3521
X7.737 Y4.3508
X7.6643 Y4.35
X6.61 Y4.3497
X6.0283
X4.0288
X3.9197
X3.8841 Y4.3572
X3.8522 Y4.3747
X3.8258 Y4.3996
X3.8224 Y4.4046
X3.8112 Y4.4187
X3.7978 Y4.4308
X3.7826 Y4.4406
X3.7661 Y4.4478
X3.764 Y4.4481 Z-0.0198 F27
X3.7621 Y4.4484 Z-0.0191
X3.7603 Y4.4487 Z-0.0181
X3.7588 Y4.4489 Z-0.0166
X3.7575 Z-0.0147
X3.7566 Y4.4488 Z-0.0125
X3.7564 Z-0.0102
G0 Z0.45
X8.0212 Y4.4305
Z0.03
G1 Z0.005 F27
X8.021 Y4.4307 Z0.0011
X8.0205 Y4.4315 Z-0.0027
X8.0196 Y4.4327 Z-0.0063
X8.0184 Y4.4343 Z-0.0097
X8.0169 Y4.4364 Z-0.0127
X8.0151 Y4.4388 Z-0.0152
X8.0131 Y4.4415 Z-0.0173
X8.011 Y4.4444 Z-0.0188
X8.0087 Y4.4475 Z-0.0197
X8.0064 Y4.4506 Z-0.02
X8.0049 Y4.4521
X8.0031 Y4.4532
X8.0011 Y4.4538
X7.9989 Y4.4537
X7.9969 Y4.4531
X7.9892 Y4.4497 F54
X7.9762 Y4.4456
X7.9711 Y4.4438
X7.9414 Y4.4228
X7.9093 Y4.4059
X7.8752 Y4.3931
X7.84 Y4.3841
X7.8041 Y4.3781
X7.768 Y4.3744
X7.7317 Y4.3723
X7.6954 Y4.3711
X7.6227 Y4.3701
X7.2955 Y4.3697
X6.023
X4.0235
X3.9871
X3.9508 Y4.3716
X3.9158 Y4.3813
X3.8832 Y4.3973
X3.8526 Y4.417
X3.8397 Y4.4273
X3.8265 Y4.4343
X3.8123 Y4.4388
X3.7976 Y4.4407
X3.7953 Y4.4408 Z-0.0197 F27
X3.7933 Y4.4405 Z-0.019
X3.7915 Y4.4402 Z-0.0178
X3.79 Y4.44 Z-0.0162
X3.7888 Y4.4398 Z-0.0144
X3.7881 Y4.4397 Z-0.0123
X3.7879 Z-0.0102
G0 Z0.45
X7.9965 Y4.4193
Z0.03
G1 Z0.005 F27
X7.9964 Y4.4196 Z0.0011
X7.996 Y4.4204 Z-0.0027
X7.9953 Y4.4217 Z-0.0063
X7.9943 Y4.4236 Z-0.0097
X7.9932 Y4.4258 Z-0.0127
X7.9918 Y4.4285 Z-0.0152
X7.9903 Y4.4315 Z-0.0173
X7.9887 Y4.4347 Z-0.0188
X7.987 Y4.4381 Z-0.0197
X7.9852 Y4.4416 Z-0.02
X7.984 Y4.4433
X7.9823 Y4.4447
X7.9804 Y4.4456
X7.9783 Y4.4459
X7.9762 Y4.4456
X7.9693 Y4.4435 F54
X7.9483 Y4.4405
X7.9429 Y4.4396
X7.9089 Y4.4269
X7.8742 Y4.4158
X7.8389 Y4.4072
X7.8031 Y4.4009
X7.767 Y4.3965
X7.7308 Y4.3937
X7.6945 Y4.392
X7.6581 Y4.391
X7.5854 Y4.3901
X7.2582 Y4.3897
X5.9858
X4.0226
X3.9863 Y4.3918
X3.9507 Y4.3993
X3.9166 Y4.4116
X3.8839 Y4.4276
X3.8672 Y4.4343
X3.8497 Y4.4384
X3.8317 Y4.4397
X3.8296 Y4.4393 Z-0.0197 F27
X3.8276 Y4.4388 Z-0.019
X3.8258 Y4.4384 Z-0.0179
X3.8243 Y4.4381 Z-0.0163
X3.8231 Y4.4379 Z-0.0145
X3.8225 Y4.4376 Z-0.0124
X3.8222 Y4.4375 Z-0.0102
G0 Z0.45
X7.9638 Y4.4111
Z0.03
G1 Z0.005 F27
X7.9637 Y4.4114 Z0.0011
X7.9634 Y4.4123 Z-0.0027
X7.963 Y4.4137 Z-0.0063
X7.9624 Y4.4157 Z-0.0097
X7.9616 Y4.4181 Z-0.0127
X7.9608 Y4.421 Z-0.0152
X7.9598 Y4.4242 Z-0.0173
X7.9587 Y4.4276 Z-0.0188
X7.9576 Y4.4313 Z-0.0197
X7.9564 Y4.435 Z-0.02
X7.9555 Y4.4369
X7.9541 Y4.4385
X7.9524 Y4.4397
X7.9504 Y4.4404
X7.9483 Y4.4405
X7.9445 Y4.44 F54
X7.9184 Y4.4397
X7.913 Y4.4395
X7.8943 Y4.4368
X7.8226 Y4.4248
X7.7866 Y4.42
X7.7504 Y4.4164
X7.7142 Y4.4139
X7.6778 Y4.4123
X7.6415 Y4.4113
X7.5688 Y4.4102
X7.3507 Y4.4097
X5.9328
X4.0787
X4.0424 Y4.4102
X4.0061 Y4.4132
X3.9705 Y4.4203
X3.9358 Y4.4311
X3.9174 Y4.4377
X3.9131 Y4.4388
X3.9088 Y4.4395
X3.9044 Y4.4397
X3.8757
X3.8736 Y4.4393 Z-0.0197 F27
X3.8715 Y4.4388 Z-0.019
X3.8697 Y4.4384 Z-0.0179
X3.8682 Y4.4381 Z-0.0163
X3.8671 Y4.4379 Z-0.0145
X3.8664 Y4.4376 Z-0.0124
X3.8662 Y4.4375 Z-0.0102
G0 Z0.45
X7.9302 Y4.4087
Z0.03
G1 Z0.005 F27
Y4.409 Z0.0011
X7.93 Y4.4099 Z-0.0027
X7.9297 Y4.4114 Z-0.0063
X7.9294 Y4.4134 Z-0.0097
X7.9289 Y4.4159 Z-0.0127
X7.9284 Y4.4188 Z-0.0152
X7.9278 Y4.4221 Z-0.0173
X7.9272 Y4.4257 Z-0.0188
X7.9265 Y4.4294 Z-0.0197
X7.9258 Y4.4333 Z-0.02
X7.9252 Y4.4353
X7.924 Y4.4371
X7.9224 Y4.4385
X7.9205 Y4.4394
X7.9184 Y4.4397
X7.8372 F54
X7.8008 Y4.4379
X7.7645 Y4.4365
X7.6919 Y4.4332
X7.6192 Y4.4312
X7.5101 Y4.43
X6.9648 Y4.4297
X5.8378
X4.0928 Y4.4298
X4.0564 Y4.4309
X4.0203 Y4.4346
X3.9967 Y4.4388
X3.9897 Y4.4395
X3.9827 Y4.4397
X3.9044
X3.9023 Y4.4393 Z-0.0197 F27
X3.9003 Y4.4388 Z-0.019
X3.8985 Y4.4384 Z-0.0179
X3.897 Y4.4381 Z-0.0163
X3.8958 Y4.4379 Z-0.0145
X3.8952 Y4.4376 Z-0.0124
X3.8949 Y4.4375 Z-0.0102
G0 Z0.45
X7.849 Y4.4087
Z0.03
G1 Z0.005 F27
X7.8489 Y4.409 Z0.0011
X7.8488 Y4.4099 Z-0.0027
X7.8485 Y4.4114 Z-0.0063
X7.8481 Y4.4134 Z-0.0097
X7.8477 Y4.4159 Z-0.0127
X7.8472 Y4.4188 Z-0.0152
X7.8466 Y4.4221 Z-0.0173
X7.8459 Y4.4257 Z-0.0188
X7.8453 Y4.4294 Z-0.0197
X7.8446 Y4.4333 Z-0.02
X7.8439 Y4.4353
X7.8428 Y4.4371
X7.8412 Y4.4385
X7.8392 Y4.4394
X7.8372 Y4.4397
X3.9827 F54
X3.9805 Y4.4393 Z-0.0197 F27
X3.9785 Y4.4388 Z-0.019
X3.9767 Y4.4384 Z-0.0179
X3.9752 Y4.4381 Z-0.0163
X3.9741 Y4.4379 Z-0.0145
X3.9734 Y4.4376 Z-0.0124
X3.9732 Y4.4375 Z-0.0102
G0 Z0.45
X6.0229 Y4.2744
Z0.03
G1 Z0.005 F27
X6.0227 Y4.2743 Z0.0011
X6.0219 Y4.2737 Z-0.0027
X6.0207 Y4.2729 Z-0.0063
X6.019 Y4.2717 Z-0.0097
X6.0169 Y4.2702 Z-0.0127
X6.0145 Y4.2685 Z-0.0152
X6.0118 Y4.2666 Z-0.0173
X6.0088 Y4.2645 Z-0.0188
X6.0057 Y4.2623 Z-0.0197
X6.0025 Y4.26 Z-0.02
X6.001 Y4.2586
X5.9999 Y4.2568
X5.9993 Y4.2547
Y4.2526
X5.9998 Y4.2506
X6.0017 Y4.2465 F54
X6.0032 Y4.2438
X6.0332 Y4.2233
X6.0574 Y4.1962
X6.0755 Y4.1647
X6.0879 Y4.1305
X6.0957 Y4.095
X6.1003 Y4.0589
X6.1027 Y4.0226
X6.1039 Y3.9863
X6.1048 Y3.9136
X6.105 Y2.823
Y2.2776
Y0.2781
Y0.169
X6.0973 Y0.1335
X6.0797 Y0.1017
X6.0546 Y0.0754
X6.0504 Y0.0726
X6.0388 Y0.0636
X6.0284 Y0.0532
X6.0195 Y0.0415
X6.0121 Y0.0288
X6.0066 Y0.0152
X6.0063 Y0.0132 Z-0.0198 F27
X6.006 Y0.0113 Z-0.0192
X6.0058 Y0.0096 Z-0.0182
X6.0055 Y0.0081 Z-0.0168
X6.0056 Y0.0067 Z-0.0149
X6.0057 Y0.0058 Z-0.0126
Y0.0055 Z-0.0102
G0 Z0.45
X6.0248 Y4.2704
Z0.03
G1 Z0.005 F27
X6.0246 Y4.2702 Z0.0011
X6.0238 Y4.2696 Z-0.0027
X6.0226 Y4.2688 Z-0.0063
X6.0209 Y4.2676 Z-0.0097
X6.0189 Y4.2661 Z-0.0127
X6.0164 Y4.2644 Z-0.0152
X6.0137 Y4.2625 Z-0.0173
X6.0107 Y4.2604 Z-0.0188
X6.0076 Y4.2582 Z-0.0197
X6.0044 Y4.2559 Z-0.02
X6.0029 Y4.2545
X6.0018 Y4.2527
X6.0012 Y4.2506
Y4.2485
X6.0017 Y4.2465
X6.0064 Y4.2354 F54
X6.0095 Y4.2258
X6.0103 Y4.2224
X6.0313 Y4.1927
X6.0483 Y4.1606
X6.0612 Y4.1266
X6.0703 Y4.0914
X6.0764 Y4.0556
X6.0802 Y4.0194
X6.0824 Y3.9831
X6.0836 Y3.9468
X6.0846 Y3.8741
X6.085 Y3.5469
Y2.2381
Y0.2386
X6.0834 Y0.2022
X6.074 Y0.1671
X6.0582 Y0.1344
X6.0385 Y0.1038
X6.0294 Y0.0923
X6.0222 Y0.0794
X6.0171 Y0.0656
X6.0142 Y0.0512
X6.0141 Y0.049 Z-0.0198 F27
X6.0144 Y0.0469 Z-0.019
X6.0147 Y0.0451 Z-0.0178
X6.0149 Y0.0436 Z-0.0163
X6.0151 Y0.0424 Z-0.0144
X6.0152 Y0.0417 Z-0.0124
Y0.0415 Z-0.0102
G0 Z0.45
X6.0376 Y4.2436
Z0.03
G1 Z0.005 F27
X6.0373 Y4.2434 Z0.0011
X6.0364 Y4.2431 Z-0.0027
X6.035 Y4.2425 Z-0.0063
X6.0331 Y4.2418 Z-0.0097
X6.0307 Y4.2409 Z-0.0127
X6.028 Y4.2398 Z-0.0152
X6.0249 Y4.2385 Z-0.0173
X6.0215 Y4.2372 Z-0.0188
X6.0179 Y4.2358 Z-0.0197
X6.0143 Y4.2343 Z-0.02
X6.0125 Y4.2333
X6.011 Y4.2318
X6.0099 Y4.23
X6.0094 Y4.2279
X6.0095 Y4.2258
X6.0141 Y4.2024 F54
X6.0142 Y4.1999
X6.0146 Y4.1945
X6.0272 Y4.1604
X6.0385 Y4.1258
X6.0472 Y4.0905
X6.0536 Y4.0548
X6.058 Y4.0187
X6.0609 Y3.9824
X6.0626 Y3.9461
X6.0637 Y3.9098
X6.0646 Y3.8371
X6.065 Y3.5462
Y2.2375
Y0.2743
X6.0631 Y0.238
X6.0559 Y0.2023
X6.0438 Y0.1681
X6.0224 Y0.123
X6.0183 Y0.11
X6.0158 Y0.0967
X6.015 Y0.0832
X6.0155 Y0.0811 Z-0.0197 F27
X6.0159 Y0.079 Z-0.019
X6.0163 Y0.0772 Z-0.0179
X6.0166 Y0.0757 Z-0.0163
X6.0168 Y0.0746 Z-0.0145
X6.0171 Y0.0739 Z-0.0124
X6.0172 Y0.0737 Z-0.0102
G0 Z0.45
X6.0447 Y4.2129
Z0.03
G1 Z0.005 F27
X6.0444 Z0.0011
X6.0435 Y4.2127 Z-0.0027
X6.042 Y4.2123 Z-0.0063
X6.04 Y4.2119 Z-0.0097
X6.0376 Y4.2114 Z-0.0127
X6.0346 Y4.2107 Z-0.0152
X6.0314 Y4.21 Z-0.0173
X6.0278 Y4.2092 Z-0.0188
X6.0241 Y4.2084 Z-0.0197
X6.0203 Y4.2076 Z-0.02
X6.0183 Y4.2068
X6.0166 Y4.2056
X6.0153 Y4.2039
X6.0144 Y4.202
X6.0142 Y4.1999
X6.015 Y4.1776 F54
Y4.1693
X6.0153 Y4.164
X6.0173 Y4.1488
X6.0293 Y4.077
X6.0342 Y4.041
X6.0379 Y4.0049
X6.0405 Y3.9686
X6.0423 Y3.9323
X6.0434 Y3.8959
X6.0445 Y3.8232
X6.045 Y3.6051
Y2.1873
Y0.3331
X6.0447 Y0.2968
X6.0422 Y0.2605
X6.0356 Y0.2248
X6.0252 Y0.1899
X6.0163 Y0.1651
X6.0151 Y0.1596
X6.015 Y0.1568
Y0.1253
X6.0155 Y0.1231 Z-0.0197 F27
X6.0159 Y0.1211 Z-0.019
X6.0163 Y0.1193 Z-0.0179
X6.0166 Y0.1178 Z-0.0163
X6.0168 Y0.1167 Z-0.0145
X6.0171 Y0.116 Z-0.0124
X6.0172 Y0.1158 Z-0.0102
G0 Z0.45
X6.046 Y4.1812
Z0.03
G1 Z0.005 F27
X6.0457 Y4.1811 Z0.0011
X6.0448 Y4.181 Z-0.0027
X6.0434 Y4.1807 Z-0.0063
X6.0413 Y4.1803 Z-0.0097
X6.0388 Y4.1799 Z-0.0127
X6.0359 Y4.1794 Z-0.0152
X6.0326 Y4.1788 Z-0.0173
X6.029 Y4.1781 Z-0.0188
X6.0253 Y4.1775 Z-0.0197
X6.0214 Y4.1768 Z-0.02
X6.0194 Y4.1761
X6.0177 Y4.1749
X6.0163 Y4.1733
X6.0154 Y4.1714
X6.015 Y4.1693
Y4.0867 F54
X6.0168 Y4.0504
X6.0182 Y4.0141
X6.0216 Y3.9415
X6.0236 Y3.8688
X6.0247 Y3.7597
X6.025 Y3.178
Y2.0874
X6.0249 Y0.3423
X6.0239 Y0.306
X6.0201 Y0.2698
X6.0159 Y0.2464
X6.0152 Y0.2394
X6.015 Y0.2324
Y0.1568
X6.0155 Y0.1547 Z-0.0197 F27
X6.0159 Y0.1527 Z-0.019
X6.0163 Y0.1509 Z-0.0179
X6.0166 Y0.1494 Z-0.0163
X6.0168 Y0.1482 Z-0.0145
X6.0171 Y0.1476 Z-0.0124
X6.0172 Y0.1473 Z-0.0102
G0 Z0.45
X6.046 Y4.0986
Z0.03
G1 Z0.005 F27
X6.0457 Y4.0985 Z0.0011
X6.0448 Y4.0984 Z-0.0027
X6.0434 Y4.0981 Z-0.0063
X6.0413 Y4.0977 Z-0.0097
X6.0388 Y4.0973 Z-0.0127
X6.0359 Y4.0968 Z-0.0152
X6.0326 Y4.0962 Z-0.0173
X6.029 Y4.0955 Z-0.0188
X6.0253 Y4.0948 Z-0.0197
X6.0214 Y4.0942 Z-0.02
X6.0194 Y4.0935
X6.0177 Y4.0923
X6.0163 Y4.0907
X6.0154 Y4.0888
X6.015 Y4.0867
Y0.2324 F54
X6.0155 Y0.2302 Z-0.0197 F27
X6.0159 Y0.2282 Z-0.019
X6.0163 Y0.2264 Z-0.0179
X6.0166 Y0.2249 Z-0.0163
X6.0168 Y0.2238 Z-0.0145
X6.0171 Y0.2231 Z-0.0124
X6.0172 Y0.2229 Z-0.0102
G0 Z0.45
X6.3075 Y-0.0253
Z0.03
G1 Z0.005 F27
X6.3077 Y-0.0251 Z0.0011
X6.3085 Y-0.0246 Z-0.0027
X6.3097 Y-0.0237 Z-0.0063
X6.3113 Y-0.0225 Z-0.0097
X6.3134 Y-0.021 Z-0.0127
X6.3158 Y-0.0192 Z-0.0152
X6.3185 Y-0.0172 Z-0.0173
X6.3214 Y-0.0151 Z-0.0188
X6.3245 Y-0.0128 Z-0.0197
X6.3276 Y-0.0105 Z-0.02
X6.3292 Y-0.009
X6.3302 Y-0.0072
X6.3308 Y-0.0051
X6.3307 Y-0.003
X6.3301 Y-0.001
X6.3281 Y0.0031 F54
X6.3267 Y0.0056
X6.2967 Y0.0261
X6.2724 Y0.0531
X6.2543 Y0.0847
X6.2419 Y0.1188
X6.234 Y0.1543
X6.2295 Y0.1904
X6.2271 Y0.2267
X6.2258 Y0.263
X6.225 Y0.3357
X6.2247 Y1.39
Y1.9717
Y3.9712
Y4.0803
X6.2322 Y4.1159
X6.2497 Y4.1478
X6.2746 Y4.1742
X6.2787 Y4.177
X6.2921 Y4.1875
X6.3038 Y4.1999
X6.3136 Y4.2139
X6.3211 Y4.2292
X6.3215 Y4.2313 Z-0.0198 F27
X6.3219 Y4.2333 Z-0.0191
X6.3222 Y4.2351 Z-0.0179
X6.3224 Y4.2367 Z-0.0164
X6.3227 Y4.2378 Z-0.0146
X6.3226 Y4.2386 Z-0.0125
Y4.2389 Z-0.0102
G0 Z0.45
X6.3055 Y-0.0212
Z0.03
G1 Z0.005 F27
X6.3057 Y-0.021 Z0.0011
X6.3065 Y-0.0205 Z-0.0027
X6.3077 Y-0.0196 Z-0.0063
X6.3093 Y-0.0184 Z-0.0097
X6.3114 Y-0.0169 Z-0.0127
X6.3138 Y-0.0151 Z-0.0152
X6.3165 Y-0.0131 Z-0.0173
X6.3194 Y-0.011 Z-0.0188
X6.3225 Y-0.0087 Z-0.0197
X6.3256 Y-0.0064 Z-0.02
X6.3271 Y-0.0049
X6.3282 Y-0.0031
X6.3288 Y-0.0011
X6.3287 Y0.0011
X6.3281 Y0.0031
X6.3245 Y0.0117 F54
X6.3203 Y0.0238
X6.3187 Y0.0289
X6.2978 Y0.0586
X6.2808 Y0.0908
X6.2681 Y0.1249
X6.2591 Y0.1601
X6.2531 Y0.196
X6.2494 Y0.2321
X6.2473 Y0.2684
X6.2461 Y0.3047
X6.2451 Y0.3774
X6.2447 Y0.7046
Y1.9771
Y3.9766
Y4.013
X6.2466 Y4.0493
X6.2563 Y4.0843
X6.2723 Y4.117
X6.292 Y4.1475
X6.3023 Y4.1604
X6.3093 Y4.1735
X6.3138 Y4.1877
X6.3157 Y4.2024
X6.3158 Y4.2047 Z-0.0197 F27
X6.3155 Y4.2067 Z-0.019
X6.3152 Y4.2085 Z-0.0178
X6.315 Y4.21 Z-0.0162
X6.3148 Y4.2112 Z-0.0144
X6.3147 Y4.2119 Z-0.0123
Y4.2121 Z-0.0102
G0 Z0.45
X6.2932 Y0.0046
Z0.03
G1 Z0.005 F27
X6.2935 Y0.0047 Z0.0011
X6.2943 Y0.0051 Z-0.0027
X6.2957 Y0.0057 Z-0.0063
X6.2976 Y0.0065 Z-0.0097
X6.2999 Y0.0076 Z-0.0127
X6.3026 Y0.0089 Z-0.0152
X6.3056 Y0.0103 Z-0.0173
X6.3089 Y0.0118 Z-0.0188
X6.3124 Y0.0134 Z-0.0197
X6.3159 Y0.015 Z-0.02
X6.3177 Y0.0161
X6.3191 Y0.0177
X6.3201 Y0.0196
X6.3205 Y0.0217
X6.3203 Y0.0238
X6.3182 Y0.0332 F54
X6.3155 Y0.0517
X6.3146 Y0.0571
X6.3019 Y0.0911
X6.2908 Y0.1258
X6.2822 Y0.1611
X6.2759 Y0.1969
X6.2715 Y0.233
X6.2687 Y0.2692
X6.267 Y0.3055
X6.266 Y0.3419
X6.2651 Y0.4146
X6.2647 Y0.7418
Y2.0142
Y3.9774
X6.2668 Y4.0137
X6.2743 Y4.0493
X6.2866 Y4.0834
X6.3026 Y4.1161
X6.3093 Y4.1328
X6.3134 Y4.1504
X6.3147 Y4.1684
X6.3143 Y4.1705 Z-0.0197 F27
X6.3138 Y4.1725 Z-0.019
X6.3134 Y4.1743 Z-0.0179
X6.3131 Y4.1758 Z-0.0163
X6.3129 Y4.177 Z-0.0145
X6.3126 Y4.1776 Z-0.0124
X6.3125 Y4.1779 Z-0.0102
G0 Z0.45
X6.2861 Y0.0362
Z0.03
G1 Z0.005 F27
X6.2864 Y0.0363 Z0.0011
X6.2873 Y0.0366 Z-0.0027
X6.2887 Y0.037 Z-0.0063
X6.2907 Y0.0376 Z-0.0097
X6.2931 Y0.0384 Z-0.0127
X6.296 Y0.0392 Z-0.0152
X6.2992 Y0.0402 Z-0.0173
X6.3026 Y0.0413 Z-0.0188
X6.3063 Y0.0424 Z-0.0197
X6.31 Y0.0436 Z-0.02
X6.3119 Y0.0445
X6.3135 Y0.0459
X6.3147 Y0.0476
X6.3154 Y0.0496
X6.3155 Y0.0517
X6.315 Y0.0555 F54
X6.3147 Y0.0816
X6.3145 Y0.087
X6.3118 Y0.1057
X6.2998 Y0.1774
X6.295 Y0.2135
X6.2914 Y0.2497
X6.2889 Y0.2859
X6.2873 Y0.3223
X6.2862 Y0.3586
X6.2852 Y0.4313
X6.2847 Y0.6494
Y2.0673
Y3.9214
X6.2852 Y3.9577
X6.2882 Y3.994
X6.2953 Y4.0296
X6.3062 Y4.0643
X6.3127 Y4.0827
X6.3138 Y4.0869
X6.3145 Y4.0912
X6.3147 Y4.0956
Y4.1243
X6.3143 Y4.1264 Z-0.0197 F27
X6.3138 Y4.1285 Z-0.019
X6.3134 Y4.1303 Z-0.0179
X6.3131 Y4.1318 Z-0.0163
X6.3129 Y4.1329 Z-0.0145
X6.3126 Y4.1336 Z-0.0124
X6.3125 Y4.1338 Z-0.0102
G0 Z0.45
X6.2837 Y0.0698
Z0.03
G1 Z0.005 F27
X6.284 Z0.0011
X6.2849 Y0.07 Z-0.0027
X6.2864 Y0.0703 Z-0.0063
X6.2884 Y0.0706 Z-0.0097
X6.2909 Y0.0711 Z-0.0127
X6.2938 Y0.0716 Z-0.0152
X6.2971 Y0.0722 Z-0.0173
X6.3007 Y0.0728 Z-0.0188
X6.3044 Y0.0735 Z-0.0197
X6.3083 Y0.0742 Z-0.02
X6.3103 Y0.0748
X6.3121 Y0.076
X6.3135 Y0.0776
X6.3144 Y0.0795
X6.3147 Y0.0816
Y0.1628 F54
X6.3129 Y0.1992
X6.3115 Y0.2355
X6.3082 Y0.3081
X6.3062 Y0.3808
X6.305 Y0.4899
X6.3047 Y1.0352
Y2.1622
X6.3048 Y3.9072
X6.3059 Y3.9436
X6.3095 Y3.9797
X6.3138 Y4.0033
X6.3145 Y4.0103
X6.3147 Y4.0174
Y4.0956
X6.3143 Y4.0978 Z-0.0197 F27
X6.3138 Y4.0998 Z-0.019
X6.3134 Y4.1016 Z-0.0179
X6.3131 Y4.1031 Z-0.0163
X6.3129 Y4.1042 Z-0.0145
X6.3126 Y4.1049 Z-0.0124
X6.3125 Y4.1051 Z-0.0102
G0 Z0.45
X6.2837 Y0.151
Z0.03
G1 Z0.005 F27
X6.284 Y0.1511 Z0.0011
X6.2849 Y0.1512 Z-0.0027
X6.2864 Y0.1515 Z-0.0063
X6.2884 Y0.1519 Z-0.0097
X6.2909 Y0.1523 Z-0.0127
X6.2938 Y0.1528 Z-0.0152
X6.2971 Y0.1534 Z-0.0173
X6.3007 Y0.1541 Z-0.0188
X6.3044 Y0.1547 Z-0.0197
X6.3083 Y0.1554 Z-0.02
X6.3103 Y0.1561
X6.3121 Y0.1572
X6.3135 Y0.1588
X6.3144 Y0.1608
X6.3147 Y0.1628
Y4.0174 F54
X6.3143 Y4.0195 Z-0.0197 F27
X6.3138 Y4.0215 Z-0.019
X6.3134 Y4.0233 Z-0.0179
X6.3131 Y4.0248 Z-0.0163
X6.3129 Y4.026 Z-0.0145
X6.3126 Y4.0266 Z-0.0124
X6.3125 Y4.0269 Z-0.0102
G0 Z0.45
X7.8981 Y4.2743
Z0.03
G1 Z0.005 F27
X7.8978 Y4.2742 Z0.0011
X7.8971 Y4.2736 Z-0.0027
X7.8958 Y4.2728 Z-0.0063
X7.8942 Y4.2716 Z-0.0097
X7.8921 Y4.2701 Z-0.0127
X7.8896 Y4.2684 Z-0.0152
X7.8869 Y4.2665 Z-0.0173
X7.8839 Y4.2644 Z-0.0188
X7.8808 Y4.2623 Z-0.0197
X7.8776 Y4.26 Z-0.02
X7.876 Y4.2586
X7.8749 Y4.2568
X7.8743 Y4.2547
Y4.2526
X7.8749 Y4.2506
X7.8768 Y4.2465 F54
X7.8782 Y4.2438
X7.9082 Y4.2233
X7.9324 Y4.1961
X7.9505 Y4.1646
X7.9629 Y4.1304
X7.9707 Y4.0949
X7.9753 Y4.0588
X7.9777 Y4.0226
X7.9789 Y3.9862
X7.9798 Y3.9135
X7.98 Y2.8229
Y2.2775
Y0.278
Y0.169
X7.9723 Y0.1334
X7.9546 Y0.1016
X7.9296 Y0.0753
X7.9255 Y0.0726
X7.9138 Y0.0636
X7.9034 Y0.0532
X7.8945 Y0.0415
X7.8871 Y0.0288
X7.8816 Y0.0152
X7.8813 Y0.0132 Z-0.0198 F27
X7.881 Y0.0113 Z-0.0192
X7.8807 Y0.0096 Z-0.0182
X7.8805 Y0.0081 Z-0.0168
X7.8806 Y0.0066 Z-0.0149
X7.8807 Y0.0058 Z-0.0126
Y0.0055 Z-0.0102
G0 Z0.45
X7.9 Y4.2703
Z0.03
G1 Z0.005 F27
X7.8997 Y4.2701 Z0.0011
X7.899 Y4.2695 Z-0.0027
X7.8977 Y4.2687 Z-0.0063
X7.896 Y4.2675 Z-0.0097
X7.894 Y4.2661 Z-0.0127
X7.8915 Y4.2643 Z-0.0152
X7.8888 Y4.2624 Z-0.0173
X7.8858 Y4.2603 Z-0.0188
X7.8827 Y4.2582 Z-0.0197
X7.8795 Y4.2559 Z-0.02
X7.8779 Y4.2545
X7.8768 Y4.2527
X7.8762 Y4.2506
Y4.2485
X7.8768 Y4.2465
X7.8814 Y4.2354 F54
X7.8845 Y4.2258
X7.8853 Y4.2224
X7.9063 Y4.1927
X7.9233 Y4.1606
X7.9362 Y4.1266
X7.9453 Y4.0914
X7.9514 Y4.0556
X7.9552 Y4.0194
X7.9574 Y3.9831
X7.9586 Y3.9468
X7.9596 Y3.8741
X7.96 Y3.5469
Y2.2381
Y0.2386
X7.9584 Y0.2022
X7.949 Y0.1671
X7.9332 Y0.1344
X7.9135 Y0.1038
X7.9044 Y0.0922
X7.8972 Y0.0794
X7.8921 Y0.0656
X7.8892 Y0.0512
X7.8891 Y0.049 Z-0.0198 F27
X7.8894 Y0.0469 Z-0.019
X7.8897 Y0.0451 Z-0.0178
X7.8899 Y0.0436 Z-0.0163
X7.8901 Y0.0424 Z-0.0144
X7.8902 Y0.0417 Z-0.0124
Y0.0415 Z-0.0102
G0 Z0.45
X7.9126 Y4.2436
Z0.03
G1 Z0.005 F27
X7.9123 Y4.2434 Z0.0011
X7.9114 Y4.2431 Z-0.0027
X7.91 Y4.2425 Z-0.0063
X7.9081 Y4.2418 Z-0.0097
X7.9057 Y4.2409 Z-0.0127
X7.903 Y4.2398 Z-0.0152
X7.8999 Y4.2385 Z-0.0173
X7.8965 Y4.2372 Z-0.0188
X7.8929 Y4.2358 Z-0.0197
X7.8893 Y4.2343 Z-0.02
X7.8875 Y4.2333
X7.886 Y4.2318
X7.8849 Y4.23
X7.8844 Y4.2279
X7.8845 Y4.2258
X7.8891 Y4.2024 F54
X7.8892 Y4.1999
X7.8896 Y4.1945
X7.9022 Y4.1604
X7.9135 Y4.1258
X7.9222 Y4.0905
X7.9286 Y4.0548
X7.933 Y4.0187
X7.9359 Y3.9824
X7.9376 Y3.9461
X7.9387 Y3.9098
X7.9396 Y3.8371
X7.94 Y3.5462
Y2.2375
Y0.2743
X7.9381 Y0.238
X7.9309 Y0.2023
X7.9188 Y0.1681
X7.8974 Y0.123
X7.8933 Y0.11
X7.8908 Y0.0967
X7.89 Y0.0832
X7.8905 Y0.081 Z-0.0197 F27
X7.8909 Y0.079 Z-0.019
X7.8913 Y0.0772 Z-0.0179
X7.8916 Y0.0757 Z-0.0163
X7.8918 Y0.0746 Z-0.0145
X7.8921 Y0.0739 Z-0.0124
X7.8922 Y0.0737 Z-0.0102
G0 Z0.45
X7.9197 Y4.2129
Z0.03
G1 Z0.005 F27
X7.9194 Z0.0011
X7.9185 Y4.2127 Z-0.0027
X7.917 Y4.2123 Z-0.0063
X7.915 Y4.2119 Z-0.0097
X7.9126 Y4.2114 Z-0.0127
X7.9096 Y4.2107 Z-0.0152
X7.9064 Y4.21 Z-0.0173
X7.9028 Y4.2092 Z-0.0188
X7.8991 Y4.2084 Z-0.0197
X7.8953 Y4.2076 Z-0.02
X7.8933 Y4.2068
X7.8916 Y4.2056
X7.8903 Y4.2039
X7.8894 Y4.202
X7.8892 Y4.1999
X7.89 Y4.1776 F54
Y4.1693
X7.8903 Y4.164
X7.8923 Y4.1488
X7.9043 Y4.077
X7.9092 Y4.041
X7.9129 Y4.0049
X7.9155 Y3.9686
X7.9173 Y3.9323
X7.9184 Y3.896
X7.9195 Y3.8233
X7.92 Y3.6051
Y2.1873
Y0.3332
X7.9197 Y0.2968
X7.9172 Y0.2605
X7.9106 Y0.2248
X7.9002 Y0.1899
X7.8913 Y0.1651
X7.8901 Y0.1596
X7.89 Y0.1568
Y0.1253
X7.8905 Y0.1231 Z-0.0197 F27
X7.8909 Y0.1211 Z-0.019
X7.8913 Y0.1193 Z-0.0179
X7.8916 Y0.1178 Z-0.0163
X7.8918 Y0.1167 Z-0.0145
X7.8921 Y0.116 Z-0.0124
X7.8922 Y0.1158 Z-0.0102
G0 Z0.45
X7.921 Y4.1812
Z0.03
G1 Z0.005 F27
X7.9207 Y4.1811 Z0.0011
X7.9198 Y4.181 Z-0.0027
X7.9184 Y4.1807 Z-0.0063
X7.9163 Y4.1803 Z-0.0097
X7.9138 Y4.1799 Z-0.0127
X7.9109 Y4.1794 Z-0.0152
X7.9076 Y4.1788 Z-0.0173
X7.904 Y4.1781 Z-0.0188
X7.9003 Y4.1775 Z-0.0197
X7.8964 Y4.1768 Z-0.02
X7.8944 Y4.1761
X7.8927 Y4.1749
X7.8913 Y4.1733
X7.8904 Y4.1714
X7.89 Y4.1693
Y4.0867 F54
X7.8918 Y4.0504
X7.8932 Y4.0141
X7.8966 Y3.9415
X7.8986 Y3.8688
X7.8997 Y3.7597
X7.9 Y3.178
Y2.0874
X7.8999 Y0.3423
X7.8989 Y0.306
X7.8952 Y0.2698
X7.8909 Y0.2464
X7.8902 Y0.2394
X7.89 Y0.2324
Y0.1568
X7.8905 Y0.1547 Z-0.0197 F27
X7.8909 Y0.1527 Z-0.019
X7.8913 Y0.1509 Z-0.0179
X7.8916 Y0.1494 Z-0.0163
X7.8918 Y0.1482 Z-0.0145
X7.8921 Y0.1475 Z-0.0124
X7.8922 Y0.1473 Z-0.0102
G0 Z0.45
X7.921 Y4.0986
Z0.03
G1 Z0.005 F27
X7.9207 Y4.0985 Z0.0011
X7.9198 Y4.0984 Z-0.0027
X7.9184 Y4.0981 Z-0.0063
X7.9163 Y4.0977 Z-0.0097
X7.9138 Y4.0973 Z-0.0127
X7.9109 Y4.0968 Z-0.0152
X7.9076 Y4.0962 Z-0.0173
X7.904 Y4.0955 Z-0.0188
X7.9003 Y4.0948 Z-0.0197
X7.8964 Y4.0942 Z-0.02
X7.8944 Y4.0935
X7.8927 Y4.0923
X7.8913 Y4.0907
X7.8904 Y4.0888
X7.89 Y4.0867
Y0.2324 F54
X7.8905 Y0.2302 Z-0.0197 F27
X7.8909 Y0.2282 Z-0.019
X7.8913 Y0.2264 Z-0.0179
X7.8916 Y0.2249 Z-0.0163
X7.8918 Y0.2238 Z-0.0145
X7.8921 Y0.2231 Z-0.0124
X7.8922 Y0.2229 Z-0.0102
G0 Z0.45
X4.4325 Y-0.0253
Z0.03
G1 Z0.005 F27
X4.4327 Y-0.0251 Z0.0011
X4.4335 Y-0.0246 Z-0.0027
X4.4347 Y-0.0237 Z-0.0063
X4.4363 Y-0.0225 Z-0.0097
X4.4384 Y-0.021 Z-0.0127
X4.4408 Y-0.0192 Z-0.0152
X4.4435 Y-0.0172 Z-0.0173
X4.4464 Y-0.0151 Z-0.0188
X4.4495 Y-0.0128 Z-0.0197
X4.4526 Y-0.0105 Z-0.02
X4.4542 Y-0.009
X4.4552 Y-0.0072
X4.4558 Y-0.0051
X4.4557 Y-0.003
X4.4551 Y-0.001
X4.4531 Y0.0031 F54
X4.4517 Y0.0056
X4.4217 Y0.0261
X4.3974 Y0.0531
X4.3793 Y0.0847
X4.3669 Y0.1188
X4.359 Y0.1543
X4.3545 Y0.1904
X4.3521 Y0.2267
X4.3508 Y0.263
X4.35 Y0.3357
X4.3497 Y1.39
Y1.9717
Y3.9712
Y4.0803
X4.3572 Y4.1159
X4.3747 Y4.1478
X4.3996 Y4.1742
X4.4046 Y4.1776
X4.4187 Y4.1888
X4.4308 Y4.2022
X4.4406 Y4.2174
X4.4478 Y4.2339
X4.4481 Y4.236 Z-0.0198 F27
X4.4484 Y4.2379 Z-0.0191
X4.4487 Y4.2397 Z-0.0181
X4.4489 Y4.2412 Z-0.0166
Y4.2425 Z-0.0147
X4.4488 Y4.2434 Z-0.0125
Y4.2436 Z-0.0102
G0 Z0.45
X4.4305 Y-0.0212
Z0.03
G1 Z0.005 F27
X4.4307 Y-0.021 Z0.0011
X4.4315 Y-0.0205 Z-0.0027
X4.4327 Y-0.0196 Z-0.0063
X4.4343 Y-0.0184 Z-0.0097
X4.4364 Y-0.0169 Z-0.0127
X4.4388 Y-0.0151 Z-0.0152
X4.4415 Y-0.0131 Z-0.0173
X4.4444 Y-0.011 Z-0.0188
X4.4475 Y-0.0087 Z-0.0197
X4.4506 Y-0.0064 Z-0.02
X4.4521 Y-0.0049
X4.4532 Y-0.0031
X4.4538 Y-0.0011
X4.4537 Y0.0011
X4.4531 Y0.0031
X4.4497 Y0.0108 F54
X4.4456 Y0.0238
X4.4438 Y0.0289
X4.4228 Y0.0586
X4.4059 Y0.0907
X4.3931 Y0.1248
X4.3841 Y0.16
X4.3781 Y0.1959
X4.3744 Y0.232
X4.3723 Y0.2683
X4.3711 Y0.3046
X4.3701 Y0.3773
X4.3697 Y0.7045
Y1.977
Y3.9765
Y4.0129
X4.3716 Y4.0492
X4.3813 Y4.0842
X4.3973 Y4.1168
X4.417 Y4.1474
X4.4273 Y4.1603
X4.4343 Y4.1735
X4.4388 Y4.1877
X4.4407 Y4.2024
X4.4408 Y4.2047 Z-0.0197 F27
X4.4405 Y4.2067 Z-0.019
X4.4402 Y4.2085 Z-0.0178
X4.44 Y4.21 Z-0.0162
X4.4398 Y4.2112 Z-0.0144
X4.4397 Y4.2119 Z-0.0123
Y4.2121 Z-0.0102
G0 Z0.45
X4.4193 Y0.0035
Z0.03
G1 Z0.005 F27
X4.4196 Y0.0036 Z0.0011
X4.4204 Y0.004 Z-0.0027
X4.4217 Y0.0047 Z-0.0063
X4.4236 Y0.0057 Z-0.0097
X4.4258 Y0.0068 Z-0.0127
X4.4285 Y0.0082 Z-0.0152
X4.4315 Y0.0097 Z-0.0173
X4.4347 Y0.0113 Z-0.0188
X4.4381 Y0.013 Z-0.0197
X4.4416 Y0.0148 Z-0.02
X4.4433 Y0.016
X4.4447 Y0.0177
X4.4456 Y0.0196
X4.4459 Y0.0217
X4.4456 Y0.0238
X4.4435 Y0.0307 F54
X4.4405 Y0.0517
X4.4396 Y0.0571
X4.4269 Y0.0911
X4.4158 Y0.1258
X4.4072 Y0.1611
X4.4009 Y0.1969
X4.3965 Y0.233
X4.3937 Y0.2692
X4.392 Y0.3055
X4.391 Y0.3419
X4.3901 Y0.4146
X4.3897 Y0.7418
Y2.0142
Y3.9774
X4.3918 Y4.0137
X4.3993 Y4.0493
X4.4116 Y4.0834
X4.4276 Y4.1161
X4.4343 Y4.1328
X4.4384 Y4.1503
X4.4397 Y4.1683
X4.4393 Y4.1704 Z-0.0197 F27
X4.4388 Y4.1724 Z-0.019
X4.4384 Y4.1742 Z-0.0179
X4.4381 Y4.1757 Z-0.0163
X4.4379 Y4.1769 Z-0.0145
X4.4376 Y4.1775 Z-0.0124
X4.4375 Y4.1778 Z-0.0102
G0 Z0.45
X4.4111 Y0.0362
Z0.03
G1 Z0.005 F27
X4.4114 Y0.0363 Z0.0011
X4.4123 Y0.0366 Z-0.0027
X4.4137 Y0.037 Z-0.0063
X4.4157 Y0.0376 Z-0.0097
X4.4181 Y0.0384 Z-0.0127
X4.421 Y0.0392 Z-0.0152
X4.4242 Y0.0402 Z-0.0173
X4.4276 Y0.0413 Z-0.0188
X4.4313 Y0.0424 Z-0.0197
X4.435 Y0.0436 Z-0.02
X4.4369 Y0.0445
X4.4385 Y0.0459
X4.4397 Y0.0476
X4.4404 Y0.0496
X4.4405 Y0.0517
X4.44 Y0.0555 F54
X4.4397 Y0.0816
X4.4395 Y0.087
X4.4368 Y0.1057
X4.4248 Y0.1774
X4.42 Y0.2134
X4.4164 Y0.2496
X4.4139 Y0.2858
X4.4123 Y0.3222
X4.4113 Y0.3585
X4.4102 Y0.4312
X4.4097 Y0.6493
Y2.0672
Y3.9213
X4.4102 Y3.9576
X4.4132 Y3.9939
X4.4203 Y4.0295
X4.4311 Y4.0642
X4.4377 Y4.0826
X4.4388 Y4.0869
X4.4395 Y4.0912
X4.4397 Y4.0956
Y4.1243
X4.4393 Y4.1264 Z-0.0197 F27
X4.4388 Y4.1285 Z-0.019
X4.4384 Y4.1303 Z-0.0179
X4.4381 Y4.1318 Z-0.0163
X4.4379 Y4.1329 Z-0.0145
X4.4376 Y4.1336 Z-0.0124
X4.4375 Y4.1338 Z-0.0102
G0 Z0.45
X4.4087 Y0.0698
Z0.03
G1 Z0.005 F27
X4.409 Z0.0011
X4.4099 Y0.07 Z-0.0027
X4.4114 Y0.0703 Z-0.0063
X4.4134 Y0.0706 Z-0.0097
X4.4159 Y0.0711 Z-0.0127
X4.4188 Y0.0716 Z-0.0152
X4.4221 Y0.0722 Z-0.0173
X4.4257 Y0.0728 Z-0.0188
X4.4294 Y0.0735 Z-0.0197
X4.4333 Y0.0742 Z-0.02
X4.4353 Y0.0748
X4.4371 Y0.076
X4.4385 Y0.0776
X4.4394 Y0.0795
X4.4397 Y0.0816
Y0.1628 F54
X4.4379 Y0.1992
X4.4365 Y0.2355
X4.4332 Y0.3081
X4.4312 Y0.3808
X4.43 Y0.4899
X4.4297 Y1.0352
Y2.1622
X4.4298 Y3.9072
X4.4309 Y3.9436
X4.4346 Y3.9797
X4.4388 Y4.0033
X4.4395 Y4.0103
X4.4397 Y4.0173
Y4.0956
X4.4393 Y4.0977 Z-0.0197 F27
X4.4388 Y4.0997 Z-0.019
X4.4384 Y4.1015 Z-0.0179
X4.4381 Y4.103 Z-0.0163
X4.4379 Y4.1042 Z-0.0145
X4.4376 Y4.1048 Z-0.0124
X4.4375 Y4.1051 Z-0.0102
G0 Z0.45
X4.4087 Y0.151
Z0.03
G1 Z0.005 F27
X4.409 Y0.1511 Z0.0011
X4.4099 Y0.1512 Z-0.0027
X4.4114 Y0.1515 Z-0.0063
X4.4134 Y0.1519 Z-0.0097
X4.4159 Y0.1523 Z-0.0127
X4.4188 Y0.1528 Z-0.0152
X4.4221 Y0.1534 Z-0.0173
X4.4257 Y0.1541 Z-0.0188
X4.4294 Y0.1547 Z-0.0197
X4.4333 Y0.1554 Z-0.02
X4.4353 Y0.1561
X4.4371 Y0.1572
X4.4385 Y0.1588
X4.4394 Y0.1608
X4.4397 Y0.1628
Y4.0173 F54
X4.4393 Y4.0195 Z-0.0197 F27
X4.4388 Y4.0215 Z-0.019
X4.4384 Y4.0233 Z-0.0179
X4.4381 Y4.0248 Z-0.0163
X4.4379 Y4.0259 Z-0.0145
X4.4376 Y4.0266 Z-0.0124
X4.4375 Y4.0268 Z-0.0102
G0 Z0.45
Z0.85

(Profile finishing)
X3.9375 Y3.6828
Z0.85
Z0.49
G1 Z0.37 F6
Z0.0425
G19 G2 Y3.6203 Z-0.02 J-0.0625 K0 F27
G1 Y3.6078
G17 G3 X4 Y3.5453 I0.0625 J0
G1 X4.1875 F54
G2 X4.3125 Y3.4203 I0 J-0.125
G1 Y2.125
G2 X4.1875 Y2 I-0.125 J0
G1 X0.0625
G2 X-0.0625 Y2.125 I0 J0.125
G1 Y3.4203
G2 X0.0625 Y3.5453 I0.125 J0
G1 X4
X4.1875
G2 X4.2 Y3.5447 I0 J-0.125
G3 X4.2683 Y3.6006 I0.0062 J0.0621 F27
G1 X4.2697 Y3.613
X4.2703 Y3.6191 Z-0.0197
X4.2709 Y3.6252 Z-0.0188
X4.2715 Y3.6311 Z-0.0173
X4.272 Y3.6368 Z-0.0152
X4.2726 Y3.6424 Z-0.0126
X4.2731 Y3.6476 Z-0.0095
X4.2736 Y3.6525 Z-0.0058
X4.2741 Y3.657 Z-0.0017
X4.2745 Y3.6611 Z0.0029
X4.2748 Y3.6647 Z0.0078
X4.2752 Y3.6679 Z0.013
X4.2754 Y3.6705 Z0.0186
X4.2756 Y3.6725 Z0.0244
X4.2758 Y3.674 Z0.0303
X4.2759 Y3.6749 Z0.0364
Y3.6752 Z0.0425
G0 Z0.49
X4.3172 Y3.9375
G1 Z0.37 F6
Z0.0425
G18 G2 X4.3797 Z-0.02 I0.0625 K0 F27
G1 X4.3922
G17 G3 X4.4547 Y4 I0 J0.0625
G1 Y4.1875 F54
G2 X4.5797 Y4.3125 I0.125 J0
G1 X5.875
G2 X6 Y4.1875 I0 J-0.125
G1 Y0.0625
G2 X5.875 Y-0.0625 I-0.125 J0
G1 X4.5797
G2 X4.4547 Y0.0625 I0 J0.125
G1 Y4
Y4.1875
G2 X4.4553 Y4.2 I0.125 J0
G3 X4.3994 Y4.2683 I-0.0621 J0.0062 F27
G1 X4.387 Y4.2697
X4.3809 Y4.2703 Z-0.0197
X4.3748 Y4.2709 Z-0.0188
X4.3689 Y4.2715 Z-0.0173
X4.3632 Y4.272 Z-0.0152
X4.3576 Y4.2726 Z-0.0126
X4.3524 Y4.2731 Z-0.0095
X4.3475 Y4.2736 Z-0.0058
X4.343 Y4.2741 Z-0.0017
X4.3389 Y4.2745 Z0.0029
X4.3353 Y4.2748 Z0.0078
X4.3321 Y4.2752 Z0.013
X4.3295 Y4.2754 Z0.0186
X4.3275 Y4.2756 Z0.0244
X4.326 Y4.2758 Z0.0303
X4.3251 Y4.2759 Z0.0364
X4.3248 Z0.0425
G0 Z0.49
X4.0625 Y4.3172
G1 Z0.37 F6
Z0.0425
G19 G3 Y4.3797 Z-0.02 J0.0625 K0 F27
G1 Y4.3922
G17 G3 X4 Y4.4547 I-0.0625 J0
G1 X3.8125 F54
G2 X3.6875 Y4.5797 I0 J0.125
G1 Y5.875
G2 X3.8125 Y6 I0.125 J0
G1 X7.9375
G2 X8.0625 Y5.875 I0 J-0.125
G1 Y4.5797
G2 X7.9375 Y4.4547 I-0.125 J0
G1 X4
X3.8125
G2 X3.8 Y4.4553 I0 J0.125
G3 X3.7317 Y4.3994 I-0.0062 J-0.0621 F27
G1 X3.7303 Y4.387
X3.7297 Y4.3809 Z-0.0197
X3.7291 Y4.3748 Z-0.0188
X3.7285 Y4.3689 Z-0.0173
X3.728 Y4.3632 Z-0.0152
X3.7274 Y4.3576 Z-0.0126
X3.7269 Y4.3524 Z-0.0095
X3.7264 Y4.3475 Z-0.0058
X3.7259 Y4.343 Z-0.0017
X3.7255 Y4.3389 Z0.0029
X3.7252 Y4.3353 Z0.0078
X3.7248 Y4.3321 Z0.013
X3.7246 Y4.3295 Z0.0186
X3.7244 Y4.3275 Z0.0244
X3.7242 Y4.326 Z0.0303
X3.7241 Y4.3251 Z0.0364
Y4.3248 Z0.0425
G0 Z0.49
X3.6828 Y4.0625
G1 Z0.37 F6
Z0.0425
G18 G3 X3.6203 Z-0.02 I-0.0625 K0 F27
G1 X3.6078
G17 G3 X3.5453 Y4 I0 J-0.0625
G1 Y3.8125 F54
G2 X3.4203 Y3.6875 I-0.125 J0
G1 X2.125
G2 X2 Y3.8125 I0 J0.125
G1 Y7.9375
G2 X2.125 Y8.0625 I0.125 J0
G1 X3.4203
G2 X3.5453 Y7.9375 I0 J-0.125
G1 Y4
Y3.8125
G2 X3.5447 Y3.8 I-0.125 J0
G3 X3.6006 Y3.7317 I0.0621 J-0.0062 F27
G1 X3.613 Y3.7303
X3.6191 Y3.7297 Z-0.0197
X3.6252 Y3.7291 Z-0.0188
X3.6311 Y3.7285 Z-0.0173
X3.6368 Y3.728 Z-0.0152
X3.6424 Y3.7274 Z-0.0126
X3.6476 Y3.7269 Z-0.0095
X3.6525 Y3.7264 Z-0.0058
X3.657 Y3.7259 Z-0.0017
X3.6611 Y3.7255 Z0.0029
X3.6647 Y3.7252 Z0.0078
X3.6679 Y3.7248 Z0.013
X3.6705 Y3.7246 Z0.0186
X3.6725 Y3.7244 Z0.0244
X3.674 Y3.7242 Z0.0303
X3.6749 Y3.7241 Z0.0364
X3.6752 Z0.0425
G0 Z0.49
X1.8146 Y3.7952
G1 Z0.37 F6
Z0.0425
X1.8143 Y3.7953 Z0.0364 F27
X1.8134 Y3.7955 Z0.0303
X1.812 Y3.796 Z0.0244
X1.81 Y3.7966 Z0.0186
X1.8075 Y3.7974 Z0.013
X1.8045 Y3.7983 Z0.0078
X1.801 Y3.7994 Z0.0029
X1.7971 Y3.8006 Z-0.0017
X1.7927 Y3.8019 Z-0.0058
X1.788 Y3.8033 Z-0.0095
X1.783 Y3.8049 Z-0.0126
X1.7777 Y3.8065 Z-0.0152
X1.7722 Y3.8082 Z-0.0173
X1.7665 Y3.81 Z-0.0188
X1.7607 Y3.8117 Z-0.0197
X1.7548 Y3.8135 Z-0.02
X1.7429 Y3.8172
G3 X1.6648 Y3.7758 I-0.0184 J-0.0597
G2 X1.5453 Y3.6875 I-0.1195 J0.0367 F54
G1 X0.25
G2 X0.125 Y3.8125 I0 J0.125
G1 Y7.9375
G2 X0.25 Y8.0625 I0.125 J0
G1 X1.5453
G2 X1.6703 Y7.9375 I0 J-0.125
G1 Y3.8125
G2 X1.5453 Y3.6875 I-0.125 J0
G1 X1.5044
G3 X1.4419 Y3.625 I0 J-0.0625 F27
G1 Y3.6125
G19 G2 Y3.55 Z0.0425 J0 K0.0625
G0 Z0.49
X4.2048 Y1.8146
G1 Z0.37 F6
Z0.0425
X4.2047 Y1.8143 Z0.0364 F27
X4.2045 Y1.8134 Z0.0303
X4.204 Y1.812 Z0.0244
X4.2034 Y1.81 Z0.0186
X4.2026 Y1.8075 Z0.013
X4.2017 Y1.8045 Z0.0078
X4.2006 Y1.801 Z0.0029
X4.1994 Y1.7971 Z-0.0017
X4.1981 Y1.7927 Z-0.0058
X4.1967 Y1.788 Z-0.0095
X4.1951 Y1.783 Z-0.0126
X4.1935 Y1.7777 Z-0.0152
X4.1918 Y1.7722 Z-0.0173
X4.19 Y1.7665 Z-0.0188
X4.1883 Y1.7607 Z-0.0197
X4.1865 Y1.7548 Z-0.02
X4.1828 Y1.7429
G17 G3 X4.2242 Y1.6648 I0.0597 J-0.0184
G2 X4.3125 Y1.5453 I-0.0367 J-0.1195 F54
G1 Y0.25
G2 X4.1875 Y0.125 I-0.125 J0
G1 X0.0625
G2 X-0.0625 Y0.25 I0 J0.125
G1 Y1.5453
G2 X0.0625 Y1.6703 I0.125 J0
G1 X4.1875
G2 X4.3125 Y1.5453 I0 J-0.125
G1 Y1.5044
G3 X4.375 Y1.4419 I0.0625 J0 F27
G1 X4.3875
G18 G2 X4.45 Z0.0425 I0 K0.0625
G0 Z0.49
X6.1922 Y0
G1 Z0.37 F6
Z0.0425
G2 X6.2547 Z-0.02 I0.0625 K0 F27
G1 X6.2672
G17 G3 X6.3297 Y0.0625 I0 J0.0625
G1 Y4.1875 F54
G2 X6.4547 Y4.3125 I0.125 J0
G1 X7.75
G2 X7.875 Y4.1875 I0 J-0.125
G1 Y0.0625
G2 X7.75 Y-0.0625 I-0.125 J0
G1 X6.4547
G2 X6.3297 Y0.0625 I0 J0.125
G1 Y0.2625
G3 X6.2672 Y0.325 I-0.0625 J0 F27
G1 X6.2547
G18 G3 X6.1922 Z0.0425 I0 K0.0625
G0 Z0.49
X3.7952 Y6.1854
G1 Z0.37 F6
Z0.0425
X3.7953 Y6.1857 Z0.0364 F27
X3.7955 Y6.1866 Z0.0303
X3.796 Y6.188 Z0.0244
X3.7966 Y6.19 Z0.0186
X3.7974 Y6.1925 Z0.013
X3.7983 Y6.1955 Z0.0078
X3.7994 Y6.199 Z0.0029
X3.8006 Y6.2029 Z-0.0017
X3.8019 Y6.2073 Z-0.0058
X3.8033 Y6.212 Z-0.0095
X3.8049 Y6.217 Z-0.0126
X3.8065 Y6.2223 Z-0.0152
X3.8082 Y6.2278 Z-0.0173
X3.81 Y6.2335 Z-0.0188
X3.8117 Y6.2393 Z-0.0197
X3.8135 Y6.2452 Z-0.02
X3.8172 Y6.2571
G17 G3 X3.7758 Y6.3352 I-0.0597 J0.0184
G2 X3.6875 Y6.4547 I0.0367 J0.1195 F54
G1 Y7.75
G2 X3.8125 Y7.875 I0.125 J0
G1 X7.9375
G2 X8.0625 Y7.75 I0 J-0.125
G1 Y6.4547
G2 X7.9375 Y6.3297 I-0.125 J0
G1 X3.8125
G2 X3.6875 Y6.4547 I0 J0.125
G1 Y6.4956
G3 X3.625 Y6.5581 I-0.0625 J0 F27
G1 X3.6125
G18 G3 X3.55 Z0.0425 I0 K0.0625
G0 Z0.85
G17
G28 G91 Z0
G90
G28 G91 X0 Y0
G90
M30
%
