%
(OHMYGODPLEASE1)
(ARGH)
(T1  D=0.25 CR=0 - ZMIN=-0.008 - flat end mill)
G90
G17
G20
G28 G91 Z0
G90

(Profile roughing)
T1 M6
(Speeds and feeds for Al, 20 THOU STEPOVER NO MORE NO LESS)
S24000 M3
G54
G0 X4.3093 Y0.1339
Z0.85
Z0.45
Z0.1457
G1 Z0.0707 F18
Z-0.008
G3 X4.2506 Y0.1252 I-0.0123 J-0.1191
G1 X4.2485 Y0.1242 F54
X4.2471 Y0.1234
X4.2312 Y0.0908
X4.2072 Y0.0634
X4.1775 Y0.0425
X4.1441 Y0.0281
X4.1088 Y0.0194
X4.0727 Y0.0149
X4.0364 Y0.013
X4.0001 Y0.0123
X3.782 Y0.012
X2.2914
X0.2919
X0.1464
X0.1114 Y0.0217
X0.0804 Y0.0407
X0.0553 Y0.0669
X0.047 Y0.0808
X0.0375 Y0.0945
X0.0262 Y0.1066
X0.0132 Y0.1171
X-0.0011 Y0.1255
X-0.0059 Y0.1273 Z-0.0077 F18
X-0.0106 Y0.129 Z-0.0069
X-0.0152 Y0.1307 Z-0.0056
X-0.0197 Y0.1324 Z-0.0038
X-0.0242 Y0.1332 Z-0.0015
X-0.0284 Y0.1341 Z0.0013
X-0.0324 Y0.1348 Z0.0045
X-0.0359 Y0.1355 Z0.0082
X-0.0391 Y0.1361 Z0.0122
X-0.0419 Y0.1363 Z0.0165
X-0.0443 Y0.1365 Z0.0211
X-0.0461 Y0.1367 Z0.0259
X-0.0475 Y0.1368 Z0.0308
X-0.0483 Z0.0359
X-0.0485 Z0.0411
G0 Z0.45
X4.3072 Y0.1329
Z0.1457
G1 Z0.0707 F18
Z-0.008
G3 X4.2485 Y0.1242 I-0.0123 J-0.119
G1 X4.239 Y0.12 F54
X4.2349 Y0.1181
X4.2112 Y0.0906
X4.1827 Y0.0679
X4.1507 Y0.0507
X4.1164 Y0.0387
X4.0808 Y0.0313
X4.0447 Y0.0272
X4.0084 Y0.0253
X3.972 Y0.0245
X3.8266 Y0.024
X2.2634
X0.2638
X0.1911
X0.1552 Y0.0294
X0.1215 Y0.0431
X0.0912 Y0.0632
X0.0637 Y0.0873
X0.0554 Y0.0971
X0.0456 Y0.1053
X0.0345 Y0.1117
X0.0224 Y0.116
X0.0174 Y0.1171 Z-0.0077 F18
X0.0125 Y0.1181 Z-0.0069
X0.0077 Y0.1191 Z-0.0056
X0.003 Y0.1201 Z-0.0038
X-0.0014 Y0.1204 Z-0.0016
X-0.0056 Y0.1207 Z0.0011
X-0.0096 Y0.1209 Z0.0043
X-0.0131 Y0.1212 Z0.0078
X-0.0165 Y0.121 Z0.0118
X-0.0194 Y0.1208 Z0.0161
X-0.0218 Y0.1207 Z0.0208
X-0.0237 Y0.1206 Z0.0257
X-0.025 Z0.0307
X-0.0259 Y0.1205 Z0.0359
X-0.0262 Z0.0411
G0 Z0.45
X4.2981 Y0.1257
Z0.1457
G1 Z0.0707 F18
Z-0.008
G3 X4.239 Y0.12 I-0.0184 J-0.1182
G1 X4.2272 Y0.1158 F54
X4.2258 Y0.1155
X4.221 Y0.1143
X4.1924 Y0.0919
X4.1612 Y0.0732
X4.1278 Y0.059
X4.0928 Y0.0491
X4.057 Y0.0428
X4.0208 Y0.0392
X3.9845 Y0.0374
X3.9482 Y0.0366
X3.8391 Y0.036
X2.2395
X0.2399
X0.2036 Y0.0371
X0.168 Y0.0443
X0.1342 Y0.0578
X0.1031 Y0.0766
X0.0826 Y0.092
X0.0708 Y0.0998
X0.058 Y0.1061
X0.0446 Y0.1108
X0.0307 Y0.1138
X0.0256 Y0.1143 Z-0.0077 F18
X0.0206 Y0.1148 Z-0.0069
X0.0157 Y0.1153 Z-0.0056
X0.011 Y0.1157 Z-0.0038
X0.0087 Y0.1158 Z-0.0028
X0.004 Y0.1154 Z0
X-0.0004 Y0.115 Z0.0032
X-0.0044 Y0.1147 Z0.0069
X-0.0079 Y0.1144 Z0.011
X-0.011 Y0.1142 Z0.0155
X-0.0135 Y0.1137 Z0.0202
X-0.0155 Y0.1133 Z0.0252
X-0.0169 Y0.1131 Z0.0304
X-0.0178 Y0.1129 Z0.0357
X-0.0181 Y0.1128 Z0.0411
G0 Z0.45
X4.2851 Y0.1189
Z0.1457
G1 Z0.0707 F18
Z-0.008
G3 X4.2258 Y0.1155 I-0.0141 J-0.2753
G1 X4.2093 Y0.1122 F54
X4.204 Y0.111
X4.1722 Y0.0934
X4.139 Y0.0785
X4.1045 Y0.0671
X4.0691 Y0.059
X4.0331 Y0.0539
X3.9968 Y0.0509
X3.9605 Y0.0493
X3.9242 Y0.0486
X3.7788 Y0.048
X2.2518
X0.2523 Y0.0481
X0.216 Y0.0504
X0.1804 Y0.0578
X0.1464 Y0.0707
X0.1144 Y0.0878
X0.1039 Y0.094
X0.0886 Y0.1016
X0.0723 Y0.1071
X0.0555 Y0.1103
X0.0499 Y0.1105 Z-0.0077 F18
X0.0445 Y0.1108 Z-0.0068
X0.0392 Y0.1104 Z-0.0052
X0.0341 Y0.11 Z-0.0031
X0.0293 Y0.1096 Z-0.0004
X0.0248 Y0.1092 Z0.0028
X0.0208 Y0.1083 Z0.0065
X0.0173 Y0.1074 Z0.0106
X0.0142 Y0.1067 Z0.0151
X0.0116 Y0.1061 Z0.0199
X0.0096 Y0.1056 Z0.025
X0.0082 Y0.1053 Z0.0302
X0.0073 Y0.1051 Z0.0356
X0.007 Y0.105 Z0.0411
G0 Z0.45
X4.3284 Y0.081
Z0.142
G1 Z0.067 F18
X4.3281 Y0.0811 Z0.0605
X4.3273 Y0.0814 Z0.054
X4.326 Y0.0819 Z0.0476
X4.3242 Y0.0826 Z0.0413
X4.3218 Y0.0834 Z0.0353
X4.319 Y0.0845 Z0.0295
X4.3157 Y0.0857 Z0.024
X4.312 Y0.0871 Z0.0188
X4.3078 Y0.0886 Z0.014
X4.3033 Y0.0903 Z0.0095
X4.2984 Y0.0921 Z0.0056
X4.2933 Y0.094 Z0.002
X4.2878 Y0.0961 Z-0.001
X4.2821 Y0.0982 Z-0.0035
X4.2763 Y0.1003 Z-0.0054
X4.2703 Y0.1026 Z-0.0069
X4.2642 Y0.1048 Z-0.0077
X4.2581 Y0.1071 Z-0.008
G3 X4.2093 Y0.1122 I-0.0344 J-0.0927
G1 X4.201 Y0.1109 F54
X4.1941 Y0.1106
X4.1888 Y0.1101
X4.1546 Y0.0976
X4.1203 Y0.0857
X4.0852 Y0.0763
X4.0494 Y0.0696
X4.0133 Y0.0653
X3.9771 Y0.0627
X3.9407 Y0.0613
X3.868 Y0.0603
X3.1409 Y0.06
X2.2321
X0.3052
X0.2689 Y0.0602
X0.2326 Y0.0627
X0.1969 Y0.0694
X0.1624 Y0.0809
X0.1199 Y0.0999
X0.1049 Y0.1054
X0.0893 Y0.1088
X0.0734 Y0.1101
X0.0684 Y0.1096 Z-0.0077 F18
X0.0633 Y0.109 Z-0.0069
X0.0585 Y0.1085 Z-0.0056
X0.0537 Y0.108 Z-0.0038
X0.0493 Y0.1069 Z-0.0015
X0.0451 Y0.1057 Z0.0013
X0.0412 Y0.1047 Z0.0045
X0.0377 Y0.1038 Z0.0082
X0.0346 Y0.1029 Z0.0122
X0.032 Y0.1019 Z0.0165
X0.0298 Y0.101 Z0.0211
X0.0281 Y0.1003 Z0.0259
X0.0268 Y0.0998 Z0.0308
X0.0261 Y0.0995 Z0.0359
X0.0258 Y0.0994 Z0.0411
G0 Z0.45
X4.3077 Y0.0629
Z0.142
G1 Z0.067 F18
X4.3074 Y0.063 Z0.0605
X4.3067 Y0.0634 Z0.054
X4.3054 Y0.0641 Z0.0476
X4.3037 Y0.065 Z0.0413
X4.3015 Y0.0662 Z0.0353
X4.2988 Y0.0677 Z0.0295
X4.2957 Y0.0693 Z0.024
X4.2922 Y0.0712 Z0.0188
X4.2883 Y0.0734 Z0.014
X4.2841 Y0.0757 Z0.0095
X4.2795 Y0.0781 Z0.0056
X4.2747 Y0.0808 Z0.002
X4.2696 Y0.0835 Z-0.001
X4.2643 Y0.0864 Z-0.0035
X4.2588 Y0.0894 Z-0.0054
X4.2532 Y0.0924 Z-0.0069
X4.2475 Y0.0955 Z-0.0077
X4.2417 Y0.0986 Z-0.008
G3 X4.1941 Y0.1105 I-0.0471 J-0.0869
G1 X4.1751 Y0.11 F54
X4.1697 Y0.1097
X4.0918 Y0.0909
X4.0561 Y0.084
X4.0201 Y0.0791
X3.9838 Y0.0759
X3.9475 Y0.074
X3.9112 Y0.073
X3.8385 Y0.0722
X2.2025 Y0.072
X0.312
X0.2757 Y0.0728
X0.2395 Y0.0759
X0.2038 Y0.083
X0.1692 Y0.0939
X0.1445 Y0.1032
X0.1318 Y0.107
X0.1187 Y0.1092
X0.1054 Y0.11
X0.1003 Y0.1094 Z-0.0077 F18
X0.0953 Y0.1088 Z-0.0069
X0.0904 Y0.1083 Z-0.0056
X0.0857 Y0.1077 Z-0.0038
X0.0813 Y0.1065 Z-0.0015
X0.0771 Y0.1053 Z0.0013
X0.0733 Y0.1043 Z0.0045
X0.0697 Y0.1033 Z0.0082
X0.0666 Y0.1024 Z0.0122
X0.064 Y0.1013 Z0.0165
X0.0618 Y0.1004 Z0.0211
X0.0601 Y0.0997 Z0.0259
X0.0589 Y0.0992 Z0.0308
X0.0581 Y0.0989 Z0.0359
X0.0579 Y0.0988 Z0.0411
G0 Z0.45
X4.2867 Y0.0578
Z0.142
G1 Z0.067 F18
X4.2864 Y0.058 Z0.0605
X4.2857 Y0.0584 Z0.054
X4.2845 Y0.0591 Z0.0476
X4.2828 Y0.0601 Z0.0413
X4.2806 Y0.0614 Z0.0353
X4.278 Y0.063 Z0.0295
X4.275 Y0.0648 Z0.024
X4.2716 Y0.0668 Z0.0188
X4.2678 Y0.0691 Z0.014
X4.2636 Y0.0715 Z0.0095
X4.2592 Y0.0742 Z0.0056
X4.2544 Y0.077 Z0.002
X4.2495 Y0.08 Z-0.001
X4.2443 Y0.0831 Z-0.0035
X4.2389 Y0.0862 Z-0.0054
X4.2334 Y0.0895 Z-0.0069
X4.2278 Y0.0928 Z-0.0077
X4.2222 Y0.0962 Z-0.008
G3 X4.1751 Y0.11 I-0.0505 J-0.0851
G1 X4.1515 F54
X4.1405 Y0.1092
X4.1143 Y0.1058
X4.0425 Y0.0946
X4.0064 Y0.0904
X3.9701 Y0.0877
X3.9338 Y0.086
X3.8975 Y0.085
X3.8248 Y0.0842
X2.5523 Y0.084
X2.1524
X0.3347
X0.2983 Y0.0845
X0.262 Y0.0869
X0.2261 Y0.0925
X0.1909 Y0.1014
X0.1728 Y0.107
X0.1628 Y0.1097
X0.1595 Y0.11
X0.1054
X0.1003 Y0.1094 Z-0.0077 F18
X0.0953 Y0.1088 Z-0.0069
X0.0904 Y0.1083 Z-0.0056
X0.0857 Y0.1077 Z-0.0038
X0.0813 Y0.1065 Z-0.0015
X0.0771 Y0.1053 Z0.0013
X0.0733 Y0.1043 Z0.0045
X0.0697 Y0.1033 Z0.0082
X0.0666 Y0.1024 Z0.0122
X0.064 Y0.1013 Z0.0165
X0.0618 Y0.1004 Z0.0211
X0.0601 Y0.0997 Z0.0259
X0.0589 Y0.0992 Z0.0308
X0.0581 Y0.0989 Z0.0359
X0.0579 Y0.0988 Z0.0411
G0 Z0.45
X4.263 Y0.0578
Z0.142
G1 Z0.067 F18
X4.2628 Y0.058 Z0.0605
X4.262 Y0.0584 Z0.054
X4.2608 Y0.0591 Z0.0476
X4.2591 Y0.0601 Z0.0413
X4.257 Y0.0614 Z0.0353
X4.2544 Y0.063 Z0.0295
X4.2514 Y0.0648 Z0.024
X4.2479 Y0.0668 Z0.0188
X4.2441 Y0.0691 Z0.014
X4.24 Y0.0715 Z0.0095
X4.2355 Y0.0742 Z0.0056
X4.2308 Y0.077 Z0.002
X4.2258 Y0.08 Z-0.001
X4.2206 Y0.0831 Z-0.0035
X4.2152 Y0.0862 Z-0.0054
X4.2097 Y0.0895 Z-0.0069
X4.2042 Y0.0928 Z-0.0077
X4.1985 Y0.0962 Z-0.008
G3 X4.1515 Y0.11 I-0.0505 J-0.0851
G1 X4.107 F54
X4.0781 Y0.1086
X4.0418 Y0.1059
X4.0056 Y0.1027
X3.9694 Y0.1001
X3.9331 Y0.0984
X3.8967 Y0.0973
X3.824 Y0.0963
X3.4605 Y0.096
X2.1153
X0.3339 Y0.0962
X0.2976 Y0.0972
X0.2614 Y0.1005
X0.2165 Y0.1085
X0.2073 Y0.1096
X0.1981 Y0.11
X0.1595
X0.1545 Y0.1094 Z-0.0077 F18
X0.1495 Y0.1088 Z-0.0069
X0.1446 Y0.1083 Z-0.0056
X0.1398 Y0.1077 Z-0.0038
X0.1354 Y0.1065 Z-0.0015
X0.1313 Y0.1053 Z0.0013
X0.1274 Y0.1043 Z0.0045
X0.1239 Y0.1033 Z0.0082
X0.1208 Y0.1024 Z0.0122
X0.1182 Y0.1013 Z0.0165
X0.116 Y0.1004 Z0.0211
X0.1143 Y0.0997 Z0.0259
X0.113 Y0.0992 Z0.0308
X0.1123 Y0.0989 Z0.0359
X0.112 Y0.0988 Z0.0411
G0 Z0.45
X4.2185 Y0.0578
Z0.142
G1 Z0.067 F18
X4.2183 Y0.058 Z0.0605
X4.2176 Y0.0584 Z0.054
X4.2163 Y0.0591 Z0.0476
X4.2147 Y0.0601 Z0.0413
X4.2125 Y0.0614 Z0.0353
X4.2099 Y0.063 Z0.0295
X4.2069 Y0.0648 Z0.024
X4.2035 Y0.0668 Z0.0188
X4.1997 Y0.0691 Z0.014
X4.1955 Y0.0715 Z0.0095
X4.1911 Y0.0742 Z0.0056
X4.1863 Y0.077 Z0.002
X4.1813 Y0.08 Z-0.001
X4.1761 Y0.0831 Z-0.0035
X4.1708 Y0.0862 Z-0.0054
X4.1653 Y0.0895 Z-0.0069
X4.1597 Y0.0928 Z-0.0077
X4.1541 Y0.0962 Z-0.008
G3 X4.107 Y0.11 I-0.0506 J-0.0851
G1 X3.9711 F54
X3.9348 Y0.1082
X3.899 Y0.1088
X3.7172 Y0.1081
X1.9722 Y0.108
X0.3726 Y0.1081
X0.3362 Y0.1084
X0.2977 Y0.11
X0.1981
X0.1931 Y0.1094 Z-0.0077 F18
X0.1881 Y0.1088 Z-0.0069
X0.1832 Y0.1083 Z-0.0056
X0.1784 Y0.1077 Z-0.0038
X0.174 Y0.1065 Z-0.0015
X0.1699 Y0.1053 Z0.0013
X0.166 Y0.1043 Z0.0045
X0.1625 Y0.1033 Z0.0082
X0.1594 Y0.1024 Z0.0122
X0.1568 Y0.1013 Z0.0165
X0.1546 Y0.1004 Z0.0211
X0.1529 Y0.0997 Z0.0259
X0.1516 Y0.0992 Z0.0308
X0.1509 Y0.0989 Z0.0359
X0.1506 Y0.0988 Z0.0411
G0 Z0.45
X4.0827 Y0.0578
Z0.142
G1 Z0.067 F18
X4.0824 Y0.058 Z0.0605
X4.0817 Y0.0584 Z0.054
X4.0805 Y0.0591 Z0.0476
X4.0788 Y0.0601 Z0.0413
X4.0766 Y0.0614 Z0.0353
X4.074 Y0.063 Z0.0295
X4.071 Y0.0648 Z0.024
X4.0676 Y0.0668 Z0.0188
X4.0638 Y0.0691 Z0.014
X4.0596 Y0.0715 Z0.0095
X4.0552 Y0.0742 Z0.0056
X4.0504 Y0.077 Z0.002
X4.0454 Y0.08 Z-0.001
X4.0402 Y0.0831 Z-0.0035
X4.0349 Y0.0862 Z-0.0054
X4.0294 Y0.0895 Z-0.0069
X4.0238 Y0.0928 Z-0.0077
X4.0182 Y0.0962 Z-0.008
G3 X3.9711 Y0.11 I-0.0506 J-0.0851
G1 X0.2977 F54
X0.2926 Y0.1094 Z-0.0077 F18
X0.2876 Y0.1088 Z-0.0069
X0.2827 Y0.1083 Z-0.0056
X0.278 Y0.1077 Z-0.0038
X0.2736 Y0.1065 Z-0.0015
X0.2694 Y0.1053 Z0.0013
X0.2656 Y0.1043 Z0.0045
X0.262 Y0.1033 Z0.0082
X0.2589 Y0.1024 Z0.0122
X0.2563 Y0.1013 Z0.0165
X0.2541 Y0.1004 Z0.0211
X0.2524 Y0.0997 Z0.0259
X0.2512 Y0.0992 Z0.0308
X0.2504 Y0.0989 Z0.0359
X0.2502 Y0.0988 Z0.0411
G0 Z0.45
X-0.1241 Y1.6675
Z0.142
G1 Z0.067 F18
X-0.1239 Z0.0605
X-0.123 Y1.6674 Z0.054
X-0.1216 Y1.6673 Z0.0476
X-0.1196 Y1.6672 Z0.0413
X-0.1171 Y1.667 Z0.0353
X-0.1141 Y1.6667 Z0.0295
X-0.1106 Y1.6664 Z0.024
X-0.1066 Y1.6661 Z0.0188
X-0.1022 Y1.6658 Z0.014
X-0.0974 Y1.6654 Z0.0095
X-0.0923 Y1.665 Z0.0056
X-0.0868 Y1.6645 Z0.002
X-0.081 Y1.6641 Z-0.001
X-0.0749 Y1.6636 Z-0.0035
X-0.0687 Y1.6631 Z-0.0054
X-0.0624 Y1.6626 Z-0.0069
X-0.0559 Y1.6621 Z-0.0077
X-0.0494 Y1.6615 Z-0.008
G3 X-0.001 Y1.6699 I0.0079 J0.0986
G1 X0.0011 Y1.6709 F54
X0.0024 Y1.6716
X0.0183 Y1.7043
X0.0422 Y1.7317
X0.0719 Y1.7527
X0.1052 Y1.7672
X0.1405 Y1.7759
X0.1766 Y1.7803
X0.2129 Y1.7822
X0.2493 Y1.7829
X0.4674 Y1.7833
X1.958
X3.9575
X4.1029
X4.138 Y1.7738
X4.1691 Y1.7549
X4.1943 Y1.7288
X4.2056 Y1.71
X4.2147 Y1.6973
X4.2256 Y1.6861
X4.2381 Y1.6767
X4.252 Y1.6694
X4.2567 Y1.6676 Z-0.0077 F18
X4.2614 Y1.6658 Z-0.0069
X4.266 Y1.664 Z-0.0056
X4.2704 Y1.6622 Z-0.0038
X4.2749 Y1.6613 Z-0.0015
X4.2791 Y1.6603 Z0.0013
X4.283 Y1.6595 Z0.0045
X4.2866 Y1.6587 Z0.0082
X4.2898 Y1.658 Z0.0122
X4.2926 Y1.6578 Z0.0165
X4.2949 Y1.6575 Z0.0211
X4.2967 Y1.6574 Z0.0259
X4.2981 Y1.6572 Z0.0308
X4.2989 Z0.0359
X4.2992 Y1.6571 Z0.0411
G0 Z0.45
X-0.122 Y1.6686
Z0.142
G1 Z0.067 F18
X-0.1217 Y1.6685 Z0.0605
X-0.1209 Z0.054
X-0.1195 Y1.6684 Z0.0476
X-0.1175 Y1.6682 Z0.0413
X-0.115 Y1.668 Z0.0353
X-0.112 Y1.6678 Z0.0295
X-0.1085 Y1.6675 Z0.024
X-0.1045 Y1.6672 Z0.0188
X-0.1001 Y1.6668 Z0.014
X-0.0953 Y1.6664 Z0.0095
X-0.0902 Y1.666 Z0.0056
X-0.0847 Y1.6656 Z0.002
X-0.0789 Y1.6651 Z-0.001
X-0.0728 Y1.6646 Z-0.0035
X-0.0666 Y1.6641 Z-0.0054
X-0.0603 Y1.6636 Z-0.0069
X-0.0538 Y1.6631 Z-0.0077
X-0.0473 Y1.6626 Z-0.008
G3 X0.0011 Y1.6709 I0.0079 J0.0986
G1 X0.0092 Y1.6746 F54
X0.0107 Y1.6751
X0.0154 Y1.6771
X0.039 Y1.7048
X0.0674 Y1.7274
X0.0994 Y1.7447
X0.1337 Y1.7567
X0.1693 Y1.7641
X0.2055 Y1.7681
X0.2418 Y1.77
X0.2781 Y1.7708
X0.4235 Y1.7713
X1.9868
X3.9863
X4.0591
X4.095 Y1.7658
X4.1286 Y1.752
X4.1589 Y1.7318
X4.1859 Y1.7076
X4.1942 Y1.6979
X4.2041 Y1.6898
X4.2152 Y1.6836
X4.2272 Y1.6795
X4.2323 Y1.6788 Z-0.0077 F18
X4.2373 Y1.6782 Z-0.0069
X4.2421 Y1.6775 Z-0.0056
X4.2469 Y1.6769 Z-0.0038
X4.2501 Y1.6768 Z-0.0023
X4.2532 Y1.6767 Z-0.0005
X4.2575 Y1.6771 Z0.0026
X4.2615 Y1.6774 Z0.0062
X4.265 Y1.6777 Z0.0101
X4.2682 Y1.6779 Z0.0144
X4.2708 Y1.6781 Z0.019
X4.2729 Y1.6783 Z0.0239
X4.2743 Y1.6785 Z0.0281
X4.2752 Y1.6787 Z0.0323
X4.2758 Y1.6788 Z0.0367
X4.276 Z0.0411
G0 Z0.45
X-0.1121 Y1.6849
Z0.142
G1 Z0.067 F18
X-0.1118 Y1.6848 Z0.0605
X-0.111 Y1.6847 Z0.054
X-0.1096 Y1.6844 Z0.0476
X-0.1076 Y1.6841 Z0.0413
X-0.1052 Y1.6837 Z0.0353
X-0.1022 Y1.6831 Z0.0295
X-0.0987 Y1.6825 Z0.024
X-0.0948 Y1.6818 Z0.0188
X-0.0905 Y1.681 Z0.014
X-0.0857 Y1.6801 Z0.0095
X-0.0806 Y1.6792 Z0.0056
X-0.0752 Y1.6782 Z0.002
X-0.0695 Y1.6772 Z-0.001
X-0.0635 Y1.6761 Z-0.0035
X-0.0574 Y1.675 Z-0.0054
X-0.0511 Y1.6739 Z-0.0069
X-0.0447 Y1.6727 Z-0.0077
X-0.0383 Y1.6716 Z-0.008
G3 X0.0107 Y1.6751 I0.0176 J0.0973
G1 X0.0249 Y1.68 F54
X0.0283 Y1.681
X0.057 Y1.7033
X0.0882 Y1.722
X0.1217 Y1.7362
X0.1566 Y1.7461
X0.1924 Y1.7524
X0.2286 Y1.756
X0.2649 Y1.7579
X0.3013 Y1.7587
X0.4103 Y1.7592
X2.0099 Y1.7593
X4.0095
X4.0458 Y1.7582
X4.0815 Y1.751
X4.1152 Y1.7376
X4.1463 Y1.7187
X4.1666 Y1.7034
X4.1812 Y1.694
X4.1971 Y1.6869
X4.2138 Y1.6822
X4.2189 Y1.6817 Z-0.0077 F18
X4.2239 Y1.6813 Z-0.0069
X4.2288 Y1.6809 Z-0.0056
X4.2335 Y1.6805 Z-0.0038
X4.2343 Z-0.0035
X4.2389 Y1.6809 Z-0.001
X4.2433 Y1.6812 Z0.0019
X4.2473 Y1.6815 Z0.0053
X4.2509 Y1.6818 Z0.0091
X4.2541 Y1.6821 Z0.0132
X4.2566 Y1.6826 Z0.0174
X4.2587 Y1.683 Z0.0219
X4.2604 Y1.6833 Z0.0265
X4.2616 Y1.6835 Z0.0313
X4.2623 Y1.6837 Z0.0362
X4.2626 Z0.0411
G0 Z0.45
X-0.0961 Y1.7026
Z0.142
G1 Z0.067 F18
X-0.0959 Y1.7025 Z0.0605
X-0.095 Y1.7022 Z0.054
X-0.0937 Y1.7018 Z0.0476
X-0.0918 Y1.7013 Z0.0413
X-0.0894 Y1.7006 Z0.0353
X-0.0865 Y1.6997 Z0.0295
X-0.0831 Y1.6988 Z0.024
X-0.0793 Y1.6976 Z0.0188
X-0.0751 Y1.6964 Z0.014
X-0.0704 Y1.6951 Z0.0095
X-0.0654 Y1.6936 Z0.0056
X-0.0601 Y1.6921 Z0.002
X-0.0546 Y1.6904 Z-0.001
X-0.0488 Y1.6888 Z-0.0035
X-0.0428 Y1.687 Z-0.0054
X-0.0366 Y1.6852 Z-0.0069
X-0.0304 Y1.6834 Z-0.0077
X-0.0241 Y1.6816 Z-0.008
G3 X0.0249 Y1.68 I0.0276 J0.0949
G1 X0.0332 Y1.6818 F54
X0.0398 Y1.6828
X0.0439 Y1.6837
X0.0758 Y1.7012
X0.1089 Y1.7162
X0.1434 Y1.7278
X0.1788 Y1.7359
X0.2148 Y1.7412
X0.251 Y1.7443
X0.2873 Y1.7459
X0.3236 Y1.7467
X0.4327 Y1.7472
X2.0323 Y1.7473
X3.9955 Y1.7472
X4.0318 Y1.7451
X4.0674 Y1.7379
X4.1015 Y1.7253
X4.1336 Y1.7083
X4.1468 Y1.7005
X4.1597 Y1.6939
X4.1733 Y1.689
X4.1873 Y1.6858
X4.2017 Y1.6844
X4.2022 F18
X4.2073 Y1.6848 Z-0.0077
X4.2123 Y1.6852 Z-0.0068
X4.2172 Y1.6856 Z-0.0054
X4.222 Y1.6859 Z-0.0036
X4.2264 Y1.687 Z-0.0012
X4.2307 Y1.688 Z0.0017
X4.2346 Y1.689 Z0.0051
X4.2381 Y1.6898 Z0.0088
X4.2412 Y1.6906 Z0.0129
X4.2437 Y1.6915 Z0.0171
X4.2458 Y1.6923 Z0.0216
X4.2474 Y1.6929 Z0.0263
X4.2486 Y1.6933 Z0.0312
X4.2493 Y1.6936 Z0.0361
X4.2495 Y1.6937 Z0.0411
G0 Z0.45
X-0.0783 Y1.7178
Z0.142
G1 Z0.067 F18
X-0.0781 Y1.7177 Z0.0605
X-0.0773 Y1.7174 Z0.054
X-0.076 Y1.7168 Z0.0476
X-0.0741 Y1.7161 Z0.0413
X-0.0718 Y1.7152 Z0.0353
X-0.069 Y1.714 Z0.0295
X-0.0658 Y1.7127 Z0.024
X-0.0621 Y1.7112 Z0.0188
X-0.058 Y1.7095 Z0.014
X-0.0535 Y1.7077 Z0.0095
X-0.0487 Y1.7057 Z0.0056
X-0.0436 Y1.7037 Z0.002
X-0.0382 Y1.7015 Z-0.001
X-0.0326 Y1.6992 Z-0.0035
X-0.0269 Y1.6968 Z-0.0054
X-0.0209 Y1.6944 Z-0.0069
X-0.0149 Y1.692 Z-0.0077
X-0.0089 Y1.6895 Z-0.008
G3 X0.0398 Y1.6828 I0.0374 J0.0916
G1 X0.0568 Y1.685 F54
X0.0595 Y1.6852
X0.1281 Y1.7093
X0.1632 Y1.7187
X0.1989 Y1.7255
X0.235 Y1.7299
X0.2713 Y1.7325
X0.3076 Y1.734
X0.3803 Y1.735
X1.0347 Y1.7353
X2.0527
X3.9431
X3.9795 Y1.7351
X4.0158 Y1.7327
X4.0515 Y1.7261
X4.086 Y1.7148
X4.1284 Y1.6958
X4.144 Y1.69
X4.1603 Y1.6865
X4.1769 Y1.6853
X4.1819 Y1.6859 Z-0.0077 F18
X4.1869 Y1.6864 Z-0.0069
X4.1918 Y1.687 Z-0.0056
X4.1965 Y1.6875 Z-0.0038
X4.201 Y1.6888 Z-0.0015
X4.2051 Y1.6899 Z0.0013
X4.209 Y1.691 Z0.0045
X4.2125 Y1.692 Z0.0082
X4.2156 Y1.6929 Z0.0122
X4.2182 Y1.6939 Z0.0165
X4.2204 Y1.6948 Z0.0211
X4.2221 Y1.6955 Z0.0259
X4.2233 Y1.696 Z0.0308
X4.2241 Y1.6964 Z0.0359
X4.2243 Y1.6965 Z0.0411
G0 Z0.45
X-0.0554 Y1.7357
Z0.142
G1 Z0.067 F18
X-0.0551 Y1.7356 Z0.0605
X-0.0544 Y1.7352 Z0.054
X-0.0532 Y1.7345 Z0.0476
X-0.0515 Y1.7335 Z0.0413
X-0.0493 Y1.7322 Z0.0353
X-0.0467 Y1.7307 Z0.0295
X-0.0436 Y1.7289 Z0.024
X-0.0402 Y1.727 Z0.0188
X-0.0364 Y1.7247 Z0.014
X-0.0322 Y1.7223 Z0.0095
X-0.0277 Y1.7197 Z0.0056
X-0.0229 Y1.717 Z0.002
X-0.0179 Y1.7141 Z-0.001
X-0.0127 Y1.7111 Z-0.0035
X-0.0073 Y1.7079 Z-0.0054
X-0.0017 Y1.7047 Z-0.0069
X0.0039 Y1.7015 Z-0.0077
X0.0096 Y1.6982 Z-0.008
G3 X0.0568 Y1.685 I0.0494 J0.0857
G1 X0.0745 Y1.6852 F54
X0.0799 Y1.6855
X0.1599 Y1.7048
X0.1956 Y1.7116
X0.2317 Y1.7164
X0.2679 Y1.7195
X0.3042 Y1.7213
X0.3405 Y1.7223
X0.4132 Y1.7231
X2.0492 Y1.7233
X3.9397 Y1.7232
X3.976 Y1.7224
X4.0122 Y1.7191
X4.0478 Y1.7118
X4.0824 Y1.7006
X4.1048 Y1.6921
X4.1176 Y1.6883
X4.1307 Y1.686
X4.1441 Y1.6853
X4.1491 Y1.6859 Z-0.0077 F18
X4.1541 Y1.6864 Z-0.0069
X4.159 Y1.687 Z-0.0056
X4.1638 Y1.6875 Z-0.0038
X4.1682 Y1.6888 Z-0.0015
X4.1723 Y1.6899 Z0.0013
X4.1762 Y1.691 Z0.0045
X4.1797 Y1.692 Z0.0082
X4.1828 Y1.6929 Z0.0122
X4.1854 Y1.6939 Z0.0165
X4.1876 Y1.6948 Z0.0211
X4.1893 Y1.6955 Z0.0259
X4.1906 Y1.696 Z0.0308
X4.1913 Y1.6964 Z0.0359
X4.1916 Y1.6965 Z0.0411
G0 Z0.45
X-0.0377 Y1.7361
Z0.142
G1 Z0.067 F18
X-0.0374 Y1.7359 Z0.0605
X-0.0367 Y1.7355 Z0.054
X-0.0355 Y1.7348 Z0.0476
X-0.0338 Y1.7338 Z0.0413
X-0.0316 Y1.7326 Z0.0353
X-0.029 Y1.7311 Z0.0295
X-0.0259 Y1.7293 Z0.024
X-0.0225 Y1.7273 Z0.0188
X-0.0187 Y1.7251 Z0.014
X-0.0145 Y1.7227 Z0.0095
X-0.01 Y1.7201 Z0.0056
X-0.0052 Y1.7173 Z0.002
X-0.0002 Y1.7144 Z-0.001
X0.005 Y1.7114 Z-0.0035
X0.0104 Y1.7082 Z-0.0054
X0.0159 Y1.705 Z-0.0069
X0.0216 Y1.7018 Z-0.0077
X0.0272 Y1.6985 Z-0.008
G3 X0.0745 Y1.6852 I0.0496 J0.0856
G1 X0.0981 Y1.6853 F54
X0.1092 Y1.6861
X0.1358 Y1.6896
X0.2076 Y1.7008
X0.2437 Y1.7049
X0.28 Y1.7076
X0.3163 Y1.7093
X0.3526 Y1.7103
X0.4254 Y1.711
X1.6614 Y1.7113
X2.0977
X3.9154 Y1.7112
X3.9518 Y1.7108
X3.9881 Y1.7084
X4.024 Y1.7027
X4.0592 Y1.6937
X4.0766 Y1.6883
X4.0867 Y1.6856
X4.0901 Y1.6853
X4.1441
X4.1491 Y1.6859 Z-0.0077 F18
X4.1541 Y1.6864 Z-0.0069
X4.159 Y1.687 Z-0.0056
X4.1638 Y1.6875 Z-0.0038
X4.1682 Y1.6888 Z-0.0015
X4.1723 Y1.6899 Z0.0013
X4.1762 Y1.691 Z0.0045
X4.1797 Y1.692 Z0.0082
X4.1828 Y1.6929 Z0.0122
X4.1854 Y1.6939 Z0.0165
X4.1876 Y1.6948 Z0.0211
X4.1893 Y1.6955 Z0.0259
X4.1906 Y1.696 Z0.0308
X4.1913 Y1.6964 Z0.0359
X4.1916 Y1.6965 Z0.0411
G0 Z0.45
X-0.0134 Y1.7374
Z0.142
G1 Z0.067 F18
X-0.0132 Y1.7373 Z0.0605
X-0.0125 Y1.7369 Z0.054
X-0.0112 Y1.7361 Z0.0476
X-0.0095 Y1.7351 Z0.0413
X-0.0074 Y1.7338 Z0.0353
X-0.0048 Y1.7323 Z0.0295
X-0.0018 Y1.7305 Z0.024
X0.0016 Y1.7285 Z0.0188
X0.0054 Y1.7262 Z0.014
X0.0096 Y1.7237 Z0.0095
X0.0141 Y1.7211 Z0.0056
X0.0188 Y1.7183 Z0.002
X0.0238 Y1.7153 Z-0.001
X0.029 Y1.7122 Z-0.0035
X0.0343 Y1.709 Z-0.0054
X0.0398 Y1.7058 Z-0.0069
X0.0454 Y1.7024 Z-0.0077
X0.051 Y1.6991 Z-0.008
G3 X0.0981 Y1.6852 I0.0506 J0.085
G1 X0.1426 Y1.6853 F54
X0.1718 Y1.6867
X0.2081 Y1.6893
X0.2443 Y1.6926
X0.2805 Y1.6952
X0.3169 Y1.6969
X0.3532 Y1.698
X0.4259 Y1.6989
X0.7895 Y1.6993
X2.1346
X3.916 Y1.6991
X3.9523 Y1.698
X3.9885 Y1.6947
X4.0332 Y1.6867
X4.0422 Y1.6856
X4.0512 Y1.6853
X4.0901
X4.0952 Y1.6859 Z-0.0077 F18
X4.1002 Y1.6864 Z-0.0069
X4.105 Y1.687 Z-0.0056
X4.1098 Y1.6875 Z-0.0038
X4.1142 Y1.6888 Z-0.0015
X4.1184 Y1.6899 Z0.0013
X4.1222 Y1.691 Z0.0045
X4.1257 Y1.692 Z0.0082
X4.1288 Y1.6929 Z0.0122
X4.1315 Y1.6939 Z0.0165
X4.1336 Y1.6948 Z0.0211
X4.1353 Y1.6955 Z0.0259
X4.1366 Y1.696 Z0.0308
X4.1373 Y1.6964 Z0.0359
X4.1376 Y1.6965 Z0.0411
G0 Z0.45
X0.031 Y1.7374
Z0.142
G1 Z0.067 F18
X0.0313 Y1.7373 Z0.0605
X0.032 Y1.7369 Z0.054
X0.0332 Y1.7361 Z0.0476
X0.0349 Y1.7351 Z0.0413
X0.0371 Y1.7338 Z0.0353
X0.0397 Y1.7323 Z0.0295
X0.0427 Y1.7305 Z0.024
X0.0461 Y1.7285 Z0.0188
X0.0499 Y1.7262 Z0.014
X0.0541 Y1.7237 Z0.0095
X0.0585 Y1.7211 Z0.0056
X0.0633 Y1.7183 Z0.002
X0.0683 Y1.7153 Z-0.001
X0.0735 Y1.7122 Z-0.0035
X0.0788 Y1.709 Z-0.0054
X0.0843 Y1.7058 Z-0.0069
X0.0899 Y1.7024 Z-0.0077
X0.0955 Y1.6991 Z-0.008
G3 X0.1426 Y1.6852 I0.0506 J0.085
G1 X0.2785 Y1.6853 F54
X0.3148 Y1.6871
X0.3502 Y1.6865
X0.5683 Y1.6873
X2.277
X3.8766 Y1.6872
X3.913 Y1.6868
X3.9523 Y1.6853
X4.0512
X4.0562 Y1.6859 Z-0.0077 F18
X4.0612 Y1.6864 Z-0.0069
X4.0661 Y1.687 Z-0.0056
X4.0709 Y1.6875 Z-0.0038
X4.0753 Y1.6888 Z-0.0015
X4.0795 Y1.6899 Z0.0013
X4.0833 Y1.691 Z0.0045
X4.0868 Y1.692 Z0.0082
X4.0899 Y1.6929 Z0.0122
X4.0925 Y1.6939 Z0.0165
X4.0947 Y1.6948 Z0.0211
X4.0964 Y1.6955 Z0.0259
X4.0977 Y1.696 Z0.0308
X4.0984 Y1.6964 Z0.0359
X4.0987 Y1.6965 Z0.0411
G0 Z0.45
X0.1669 Y1.7374
Z0.142
G1 Z0.067 F18
X0.1672 Y1.7373 Z0.0605
X0.1679 Y1.7369 Z0.054
X0.1691 Y1.7361 Z0.0476
X0.1708 Y1.7351 Z0.0413
X0.173 Y1.7338 Z0.0353
X0.1756 Y1.7323 Z0.0295
X0.1786 Y1.7305 Z0.024
X0.182 Y1.7285 Z0.0188
X0.1858 Y1.7262 Z0.014
X0.19 Y1.7237 Z0.0095
X0.1944 Y1.7211 Z0.0056
X0.1992 Y1.7183 Z0.002
X0.2042 Y1.7153 Z-0.001
X0.2093 Y1.7122 Z-0.0035
X0.2147 Y1.709 Z-0.0054
X0.2202 Y1.7058 Z-0.0069
X0.2258 Y1.7024 Z-0.0077
X0.2314 Y1.6991 Z-0.008
G3 X0.2785 Y1.6853 I0.0505 J0.085
G1 X3.9523 F54
X3.9573 Y1.6859 Z-0.0077 F18
X3.9623 Y1.6864 Z-0.0069
X3.9672 Y1.687 Z-0.0056
X3.972 Y1.6875 Z-0.0038
X3.9764 Y1.6888 Z-0.0015
X3.9805 Y1.6899 Z0.0013
X3.9844 Y1.691 Z0.0045
X3.9879 Y1.692 Z0.0082
X3.991 Y1.6929 Z0.0122
X3.9936 Y1.6939 Z0.0165
X3.9958 Y1.6948 Z0.0211
X3.9975 Y1.6955 Z0.0259
X3.9988 Y1.696 Z0.0308
X3.9995 Y1.6964 Z0.0359
X3.9998 Y1.6965 Z0.0411
G0 Z0.45
X4.3093 Y2.0092
Z0.1457
G1 Z0.0707 F18
Z-0.008
G3 X4.2506 Y2.0002 I-0.0118 J-0.1191
G1 X4.2485 Y1.9992 F54
X4.2471 Y1.9985
X4.2312 Y1.9658
X4.2072 Y1.9384
X4.1775 Y1.9175
X4.1442 Y1.9031
X4.1089 Y1.8944
X4.0728 Y1.8899
X4.0365 Y1.888
X4.0001 Y1.8873
X3.782 Y1.887
X2.2914
X0.2919
X0.1465
X0.1114 Y1.8967
X0.0804 Y1.9157
X0.0553 Y1.9419
X0.047 Y1.9558
X0.0375 Y1.9694
X0.0262 Y1.9816
X0.0132 Y1.992
X-0.001 Y2.0005
X-0.0058 Y2.0022 Z-0.0077 F18
X-0.0106 Y2.0039 Z-0.0069
X-0.0152 Y2.0056 Z-0.0056
X-0.0196 Y2.0073 Z-0.0038
X-0.0242 Y2.0081 Z-0.0015
X-0.0284 Y2.009 Z0.0013
X-0.0323 Y2.0097 Z0.0045
X-0.0359 Y2.0104 Z0.0082
X-0.0391 Y2.011 Z0.0122
X-0.0419 Y2.0113 Z0.0165
X-0.0442 Y2.0114 Z0.0211
X-0.0461 Y2.0116 Z0.0259
X-0.0474 Y2.0117 Z0.0308
X-0.0482 Z0.0359
X-0.0485 Y2.0118 Z0.0411
G0 Z0.45
X4.3072 Y2.0082
Z0.1457
G1 Z0.0707 F18
Z-0.008
G3 X4.2485 Y1.9992 I-0.0118 J-0.1191
G1 X4.2392 Y1.9951 F54
X4.2351 Y1.9932
X4.2114 Y1.9657
X4.1829 Y1.943
X4.151 Y1.9257
X4.1167 Y1.9137
X4.0811 Y1.9063
X4.0449 Y1.9023
X4.0086 Y1.9003
X3.9723 Y1.8995
X3.8269 Y1.899
X2.2636
X0.2641
X0.1914
X0.1554 Y1.9043
X0.1217 Y1.918
X0.0914 Y1.938
X0.0637 Y1.9624
X0.0554 Y1.9721
X0.0456 Y1.9803
X0.0345 Y1.9867
X0.0224 Y1.991
X0.0174 Y1.9921 Z-0.0077 F18
X0.0125 Y1.9931 Z-0.0069
X0.0077 Y1.9941 Z-0.0056
X0.003 Y1.9951 Z-0.0038
X-0.0014 Y1.9954 Z-0.0016
X-0.0056 Y1.9957 Z0.0011
X-0.0096 Y1.9959 Z0.0043
X-0.0131 Y1.9962 Z0.0078
X-0.0165 Y1.996 Z0.0118
X-0.0194 Y1.9958 Z0.0161
X-0.0218 Y1.9957 Z0.0208
X-0.0237 Y1.9956 Z0.0257
X-0.025 Z0.0307
X-0.0259 Y1.9955 Z0.0359
X-0.0262 Z0.0411
G0 Z0.45
X4.2983 Y2.001
Z0.1457
G1 Z0.0707 F18
Z-0.008
G3 X4.2392 Y1.9951 I-0.0181 J-0.1183
G1 X4.2272 Y1.9908 F54
X4.2258 Y1.9905
X4.221 Y1.9893
X4.1924 Y1.9669
X4.1613 Y1.9482
X4.1278 Y1.9339
X4.0928 Y1.924
X4.057 Y1.9178
X4.0208 Y1.9142
X3.9845 Y1.9124
X3.9482 Y1.9116
X3.8391 Y1.911
X2.2395
X0.24
X0.2036 Y1.9121
X0.168 Y1.9193
X0.1342 Y1.9327
X0.1031 Y1.9516
X0.0827 Y1.967
X0.0708 Y1.9748
X0.058 Y1.9811
X0.0446 Y1.9858
X0.0307 Y1.9888
X0.0256 Y1.9893 Z-0.0077 F18
X0.0206 Y1.9898 Z-0.0069
X0.0157 Y1.9903 Z-0.0056
X0.011 Y1.9907 Z-0.0038
X0.0087 Y1.9908 Z-0.0028
X0.004 Y1.9904 Z0
X-0.0004 Y1.99 Z0.0032
X-0.0044 Y1.9897 Z0.0069
X-0.0079 Y1.9894 Z0.011
X-0.011 Y1.9892 Z0.0155
X-0.0135 Y1.9887 Z0.0202
X-0.0155 Y1.9883 Z0.0252
X-0.0169 Y1.9881 Z0.0304
X-0.0178 Y1.9879 Z0.0357
X-0.0181 Y1.9878 Z0.0411
G0 Z0.45
X4.2851 Y1.9939
Z0.1457
G1 Z0.0707 F18
Z-0.008
G3 X4.2258 Y1.9905 I-0.0141 J-0.2753
G1 X4.2093 Y1.9872 F54
X4.204 Y1.986
X4.1722 Y1.9684
X4.139 Y1.9535
X4.1045 Y1.942
X4.0691 Y1.934
X4.0331 Y1.9289
X3.9968 Y1.9259
X3.9605 Y1.9243
X3.9242 Y1.9236
X3.7788 Y1.923
X2.2518
X0.2523 Y1.9231
X0.216 Y1.9254
X0.1805 Y1.9328
X0.1464 Y1.9457
X0.1144 Y1.9629
X0.1039 Y1.969
X0.0886 Y1.9766
X0.0723 Y1.9821
X0.0555 Y1.9853
X0.0499 Y1.9855 Z-0.0077 F18
X0.0445 Y1.9858 Z-0.0068
X0.0392 Y1.9854 Z-0.0052
X0.0341 Y1.985 Z-0.0031
X0.0293 Y1.9846 Z-0.0004
X0.0248 Y1.9842 Z0.0028
X0.0208 Y1.9833 Z0.0065
X0.0173 Y1.9824 Z0.0106
X0.0142 Y1.9817 Z0.0151
X0.0116 Y1.9811 Z0.0199
X0.0096 Y1.9806 Z0.025
X0.0082 Y1.9803 Z0.0302
X0.0073 Y1.9801 Z0.0356
X0.007 Y1.98 Z0.0411
G0 Z0.45
X4.3284 Y1.956
Z0.142
G1 Z0.067 F18
X4.3281 Y1.9561 Z0.0605
X4.3273 Y1.9564 Z0.054
X4.326 Y1.9569 Z0.0476
X4.3242 Y1.9576 Z0.0413
X4.3218 Y1.9584 Z0.0353
X4.319 Y1.9595 Z0.0295
X4.3157 Y1.9607 Z0.024
X4.312 Y1.9621 Z0.0188
X4.3078 Y1.9636 Z0.014
X4.3033 Y1.9653 Z0.0095
X4.2984 Y1.9671 Z0.0056
X4.2933 Y1.969 Z0.002
X4.2878 Y1.9711 Z-0.001
X4.2821 Y1.9732 Z-0.0035
X4.2763 Y1.9753 Z-0.0054
X4.2703 Y1.9776 Z-0.0069
X4.2642 Y1.9798 Z-0.0077
X4.2581 Y1.9821 Z-0.008
G3 X4.2093 Y1.9872 I-0.0344 J-0.0927
G1 X4.201 Y1.9859 F54
X4.1941 Y1.9856
X4.1888 Y1.9851
X4.1546 Y1.9726
X4.1203 Y1.9606
X4.0852 Y1.9513
X4.0494 Y1.9446
X4.0133 Y1.9403
X3.9771 Y1.9377
X3.9407 Y1.9363
X3.868 Y1.9353
X3.1409 Y1.935
X2.2321
X0.3052
X0.2689 Y1.9352
X0.2326 Y1.9377
X0.1969 Y1.9444
X0.1624 Y1.9559
X0.1199 Y1.9749
X0.1049 Y1.9804
X0.0893 Y1.9838
X0.0734 Y1.9851
X0.0684 Y1.9846 Z-0.0077 F18
X0.0634 Y1.984 Z-0.0069
X0.0585 Y1.9835 Z-0.0056
X0.0537 Y1.983 Z-0.0038
X0.0493 Y1.9819 Z-0.0015
X0.0451 Y1.9807 Z0.0013
X0.0412 Y1.9797 Z0.0045
X0.0377 Y1.9788 Z0.0082
X0.0346 Y1.9779 Z0.0122
X0.032 Y1.9769 Z0.0165
X0.0298 Y1.976 Z0.0211
X0.0281 Y1.9753 Z0.0259
X0.0268 Y1.9748 Z0.0308
X0.0261 Y1.9745 Z0.0359
X0.0258 Y1.9744 Z0.0411
G0 Z0.45
X4.3077 Y1.9379
Z0.142
G1 Z0.067 F18
X4.3074 Y1.938 Z0.0605
X4.3067 Y1.9384 Z0.054
X4.3054 Y1.9391 Z0.0476
X4.3037 Y1.94 Z0.0413
X4.3015 Y1.9412 Z0.0353
X4.2988 Y1.9427 Z0.0295
X4.2957 Y1.9443 Z0.024
X4.2922 Y1.9462 Z0.0188
X4.2883 Y1.9484 Z0.014
X4.2841 Y1.9507 Z0.0095
X4.2795 Y1.9531 Z0.0056
X4.2747 Y1.9558 Z0.002
X4.2696 Y1.9585 Z-0.001
X4.2643 Y1.9614 Z-0.0035
X4.2588 Y1.9644 Z-0.0054
X4.2532 Y1.9674 Z-0.0069
X4.2475 Y1.9705 Z-0.0077
X4.2417 Y1.9736 Z-0.008
G3 X4.1941 Y1.9855 I-0.0471 J-0.0869
G1 X4.1751 Y1.985 F54
X4.1697 Y1.9847
X4.0918 Y1.9659
X4.0561 Y1.959
X4.02 Y1.9541
X3.9838 Y1.9509
X3.9475 Y1.949
X3.9112 Y1.948
X3.8385 Y1.9472
X2.2025 Y1.947
X0.312
X0.2757 Y1.9478
X0.2395 Y1.9509
X0.2038 Y1.958
X0.1691 Y1.9689
X0.1446 Y1.9782
X0.1318 Y1.982
X0.1187 Y1.9842
X0.1054 Y1.985
X0.1003 Y1.9844 Z-0.0077 F18
X0.0953 Y1.9838 Z-0.0069
X0.0904 Y1.9833 Z-0.0056
X0.0857 Y1.9827 Z-0.0038
X0.0813 Y1.9815 Z-0.0015
X0.0771 Y1.9803 Z0.0013
X0.0733 Y1.9793 Z0.0045
X0.0698 Y1.9783 Z0.0082
X0.0666 Y1.9774 Z0.0122
X0.064 Y1.9763 Z0.0165
X0.0619 Y1.9754 Z0.0211
X0.0601 Y1.9747 Z0.0259
X0.0589 Y1.9742 Z0.0308
X0.0582 Y1.9739 Z0.0359
X0.0579 Y1.9738 Z0.0411
G0 Z0.45
X4.2867 Y1.9328
Z0.142
G1 Z0.067 F18
X4.2864 Y1.933 Z0.0605
X4.2857 Y1.9334 Z0.054
X4.2845 Y1.9341 Z0.0476
X4.2828 Y1.9351 Z0.0413
X4.2806 Y1.9364 Z0.0353
X4.278 Y1.938 Z0.0295
X4.275 Y1.9398 Z0.024
X4.2716 Y1.9418 Z0.0188
X4.2678 Y1.9441 Z0.014
X4.2636 Y1.9465 Z0.0095
X4.2592 Y1.9492 Z0.0056
X4.2544 Y1.952 Z0.002
X4.2495 Y1.955 Z-0.001
X4.2443 Y1.9581 Z-0.0035
X4.2389 Y1.9612 Z-0.0054
X4.2334 Y1.9645 Z-0.0069
X4.2278 Y1.9678 Z-0.0077
X4.2222 Y1.9712 Z-0.008
G3 X4.1751 Y1.985 I-0.0505 J-0.0851
G1 X4.1515 F54
X4.1405 Y1.9842
X4.114 Y1.9807
X4.0422 Y1.9695
X4.0061 Y1.9654
X3.9698 Y1.9627
X3.9335 Y1.961
X3.8971 Y1.96
X3.8244 Y1.9592
X2.4793 Y1.959
X2.1521
X0.3344
X0.298 Y1.9595
X0.2617 Y1.9619
X0.2258 Y1.9676
X0.1906 Y1.9765
X0.1728 Y1.982
X0.1628 Y1.9847
X0.1596 Y1.985
X0.1054
X0.1003 Y1.9844 Z-0.0077 F18
X0.0953 Y1.9838 Z-0.0069
X0.0904 Y1.9833 Z-0.0056
X0.0857 Y1.9827 Z-0.0038
X0.0813 Y1.9815 Z-0.0015
X0.0771 Y1.9803 Z0.0013
X0.0733 Y1.9793 Z0.0045
X0.0698 Y1.9783 Z0.0082
X0.0666 Y1.9774 Z0.0122
X0.064 Y1.9763 Z0.0165
X0.0619 Y1.9754 Z0.0211
X0.0601 Y1.9747 Z0.0259
X0.0589 Y1.9742 Z0.0308
X0.0582 Y1.9739 Z0.0359
X0.0579 Y1.9738 Z0.0411
G0 Z0.45
X4.263 Y1.9328
Z0.142
G1 Z0.067 F18
X4.2628 Y1.933 Z0.0605
X4.262 Y1.9334 Z0.054
X4.2608 Y1.9341 Z0.0476
X4.2591 Y1.9351 Z0.0413
X4.257 Y1.9364 Z0.0353
X4.2544 Y1.938 Z0.0295
X4.2514 Y1.9398 Z0.024
X4.2479 Y1.9418 Z0.0188
X4.2441 Y1.9441 Z0.014
X4.24 Y1.9465 Z0.0095
X4.2355 Y1.9492 Z0.0056
X4.2308 Y1.952 Z0.002
X4.2258 Y1.955 Z-0.001
X4.2206 Y1.9581 Z-0.0035
X4.2152 Y1.9612 Z-0.0054
X4.2097 Y1.9645 Z-0.0069
X4.2042 Y1.9678 Z-0.0077
X4.1985 Y1.9712 Z-0.008
G3 X4.1515 Y1.985 I-0.0505 J-0.0851
G1 X4.107 F54
X4.0783 Y1.9836
X4.0421 Y1.981
X4.0058 Y1.9777
X3.9696 Y1.9751
X3.9333 Y1.9734
X3.8969 Y1.9723
X3.8242 Y1.9713
X3.4607 Y1.971
X2.1155
X0.3341 Y1.9712
X0.2978 Y1.9722
X0.2616 Y1.9755
X0.2257 Y1.9817
X0.2166 Y1.9835
X0.2074 Y1.9846
X0.1981 Y1.985
X0.1596
X0.1545 Y1.9844 Z-0.0077 F18
X0.1495 Y1.9838 Z-0.0069
X0.1446 Y1.9833 Z-0.0056
X0.1399 Y1.9827 Z-0.0038
X0.1355 Y1.9815 Z-0.0015
X0.1313 Y1.9803 Z0.0013
X0.1275 Y1.9793 Z0.0045
X0.1239 Y1.9783 Z0.0082
X0.1208 Y1.9774 Z0.0122
X0.1182 Y1.9763 Z0.0165
X0.116 Y1.9754 Z0.0211
X0.1143 Y1.9747 Z0.0259
X0.1131 Y1.9742 Z0.0308
X0.1123 Y1.9739 Z0.0359
X0.1121 Y1.9738 Z0.0411
G0 Z0.45
X4.2185 Y1.9328
Z0.142
G1 Z0.067 F18
X4.2183 Y1.933 Z0.0605
X4.2176 Y1.9334 Z0.054
X4.2163 Y1.9341 Z0.0476
X4.2147 Y1.9351 Z0.0413
X4.2125 Y1.9364 Z0.0353
X4.2099 Y1.938 Z0.0295
X4.2069 Y1.9398 Z0.024
X4.2035 Y1.9418 Z0.0188
X4.1997 Y1.9441 Z0.014
X4.1955 Y1.9465 Z0.0095
X4.1911 Y1.9492 Z0.0056
X4.1863 Y1.952 Z0.002
X4.1813 Y1.955 Z-0.001
X4.1761 Y1.9581 Z-0.0035
X4.1708 Y1.9612 Z-0.0054
X4.1653 Y1.9645 Z-0.0069
X4.1597 Y1.9678 Z-0.0077
X4.1541 Y1.9712 Z-0.008
G3 X4.107 Y1.985 I-0.0506 J-0.0851
G1 X3.9711 F54
X3.9348 Y1.9832
X3.8989 Y1.9838
X3.7171 Y1.9831
X1.9721 Y1.983
X0.3725 Y1.9831
X0.3361 Y1.9834
X0.2978 Y1.985
X0.1981
X0.1931 Y1.9844 Z-0.0077 F18
X0.1881 Y1.9838 Z-0.0069
X0.1832 Y1.9833 Z-0.0056
X0.1785 Y1.9827 Z-0.0038
X0.174 Y1.9815 Z-0.0015
X0.1699 Y1.9803 Z0.0013
X0.166 Y1.9793 Z0.0045
X0.1625 Y1.9783 Z0.0082
X0.1594 Y1.9774 Z0.0122
X0.1568 Y1.9763 Z0.0165
X0.1546 Y1.9754 Z0.0211
X0.1529 Y1.9747 Z0.0259
X0.1517 Y1.9742 Z0.0308
X0.1509 Y1.9739 Z0.0359
X0.1507 Y1.9738 Z0.0411
G0 Z0.45
X4.0827 Y1.9328
Z0.142
G1 Z0.067 F18
X4.0824 Y1.933 Z0.0605
X4.0817 Y1.9334 Z0.054
X4.0805 Y1.9341 Z0.0476
X4.0788 Y1.9351 Z0.0413
X4.0766 Y1.9364 Z0.0353
X4.074 Y1.938 Z0.0295
X4.071 Y1.9398 Z0.024
X4.0676 Y1.9418 Z0.0188
X4.0638 Y1.9441 Z0.014
X4.0596 Y1.9465 Z0.0095
X4.0552 Y1.9492 Z0.0056
X4.0504 Y1.952 Z0.002
X4.0454 Y1.955 Z-0.001
X4.0402 Y1.9581 Z-0.0035
X4.0349 Y1.9612 Z-0.0054
X4.0294 Y1.9645 Z-0.0069
X4.0238 Y1.9678 Z-0.0077
X4.0182 Y1.9712 Z-0.008
G3 X3.9711 Y1.985 I-0.0506 J-0.0851
G1 X0.2978 F54
X0.2928 Y1.9844 Z-0.0077 F18
X0.2878 Y1.9838 Z-0.0069
X0.2829 Y1.9833 Z-0.0056
X0.2781 Y1.9827 Z-0.0038
X0.2737 Y1.9815 Z-0.0015
X0.2696 Y1.9803 Z0.0013
X0.2657 Y1.9793 Z0.0045
X0.2622 Y1.9783 Z0.0082
X0.2591 Y1.9774 Z0.0122
X0.2565 Y1.9763 Z0.0165
X0.2543 Y1.9754 Z0.0211
X0.2526 Y1.9747 Z0.0259
X0.2513 Y1.9742 Z0.0308
X0.2506 Y1.9739 Z0.0359
X0.2503 Y1.9738 Z0.0411
G0 Z0.45
X-0.1241 Y3.5425
Z0.142
G1 Z0.067 F18
X-0.1239 Z0.0605
X-0.123 Y3.5424 Z0.054
X-0.1216 Y3.5423 Z0.0476
X-0.1196 Y3.5422 Z0.0413
X-0.1171 Y3.542 Z0.0353
X-0.1141 Y3.5417 Z0.0295
X-0.1106 Y3.5414 Z0.024
X-0.1066 Y3.5411 Z0.0188
X-0.1022 Y3.5408 Z0.014
X-0.0974 Y3.5404 Z0.0095
X-0.0923 Y3.54 Z0.0056
X-0.0868 Y3.5395 Z0.002
X-0.081 Y3.5391 Z-0.001
X-0.0749 Y3.5386 Z-0.0035
X-0.0687 Y3.5381 Z-0.0054
X-0.0624 Y3.5376 Z-0.0069
X-0.0559 Y3.5371 Z-0.0077
X-0.0494 Y3.5365 Z-0.008
G3 X-0.001 Y3.5449 I0.0079 J0.0986
G1 X0.0011 Y3.5459 F54
X0.0024 Y3.5466
X0.0183 Y3.5793
X0.0422 Y3.6067
X0.0719 Y3.6277
X0.1052 Y3.6422
X0.1405 Y3.6509
X0.1766 Y3.6553
X0.2129 Y3.6572
X0.2493 Y3.6579
X0.4674 Y3.6583
X1.958
X3.9575
X4.1029
X4.138 Y3.6488
X4.1691 Y3.6299
X4.1943 Y3.6038
X4.2038 Y3.5881
X4.2133 Y3.5746
X4.2246 Y3.5627
X4.2376 Y3.5526
X4.252 Y3.5444
X4.2566 Y3.5425 Z-0.0077 F18
X4.2613 Y3.5405 Z-0.0069
X4.2658 Y3.5386 Z-0.0056
X4.2702 Y3.5368 Z-0.0038
X4.2747 Y3.5357 Z-0.0015
X4.2789 Y3.5346 Z0.0013
X4.2828 Y3.5337 Z0.0045
X4.2863 Y3.5328 Z0.0082
X4.2895 Y3.5321 Z0.0122
X4.2922 Y3.5317 Z0.0165
X4.2946 Y3.5314 Z0.0211
X4.2964 Y3.5312 Z0.0259
X4.2977 Y3.531 Z0.0308
X4.2985 Y3.5309 Z0.0359
X4.2988 Z0.0411
G0 Z0.45
X-0.122 Y3.5436
Z0.142
G1 Z0.067 F18
X-0.1217 Y3.5435 Z0.0605
X-0.1209 Z0.054
X-0.1195 Y3.5434 Z0.0476
X-0.1175 Y3.5432 Z0.0413
X-0.115 Y3.543 Z0.0353
X-0.112 Y3.5428 Z0.0295
X-0.1085 Y3.5425 Z0.024
X-0.1045 Y3.5422 Z0.0188
X-0.1001 Y3.5418 Z0.014
X-0.0953 Y3.5414 Z0.0095
X-0.0902 Y3.541 Z0.0056
X-0.0847 Y3.5406 Z0.002
X-0.0789 Y3.5401 Z-0.001
X-0.0728 Y3.5396 Z-0.0035
X-0.0666 Y3.5391 Z-0.0054
X-0.0603 Y3.5386 Z-0.0069
X-0.0538 Y3.5381 Z-0.0077
X-0.0473 Y3.5376 Z-0.008
G3 X0.0011 Y3.5459 I0.0079 J0.0986
G1 X0.0108 Y3.5503 F54
X0.0135 Y3.5513
X0.0372 Y3.5789
X0.0655 Y3.6017
X0.0974 Y3.6191
X0.1317 Y3.6313
X0.1673 Y3.6388
X0.2034 Y3.6429
X0.2397 Y3.6449
X0.276 Y3.6458
X0.3851 Y3.6463
X1.9847
X3.9842
X4.057
X4.093 Y3.6414
X4.1268 Y3.628
X4.1573 Y3.6082
X4.1847 Y3.5843
X4.1882 Y3.5794
X4.1961 Y3.5706
X4.2054 Y3.5633
X4.2159 Y3.5579
X4.2272 Y3.5545
X4.2322 Y3.5536 Z-0.0077 F18
X4.2371 Y3.5527 Z-0.0069
X4.242 Y3.5518 Z-0.0056
X4.2467 Y3.551 Z-0.0038
X4.251 Y3.5508 Z-0.0016
X4.2551 Y3.5506 Z0.001
X4.259 Y3.5504 Z0.004
X4.2627 Y3.5506 Z0.0076
X4.2661 Y3.5508 Z0.0117
X4.269 Y3.551 Z0.016
X4.2714 Y3.5512 Z0.0207
X4.2734 Y3.5513 Z0.0256
X4.2747 Y3.5514 Z0.0307
X4.2756 Y3.5515 Z0.0358
X4.2759 Z0.0411
G0 Z0.45
X-0.1115 Y3.5649
Z0.142
G1 Z0.067 F18
X-0.1112 Z0.0605
X-0.1104 Y3.5647 Z0.054
X-0.109 Y3.5644 Z0.0476
X-0.1071 Y3.5639 Z0.0413
X-0.1046 Y3.5634 Z0.0353
X-0.1017 Y3.5627 Z0.0295
X-0.0982 Y3.562 Z0.024
X-0.0943 Y3.5611 Z0.0188
X-0.09 Y3.5602 Z0.014
X-0.0853 Y3.5591 Z0.0095
X-0.0802 Y3.558 Z0.0056
X-0.0749 Y3.5568 Z0.002
X-0.0692 Y3.5555 Z-0.001
X-0.0633 Y3.5542 Z-0.0035
X-0.0572 Y3.5529 Z-0.0054
X-0.051 Y3.5515 Z-0.0069
X-0.0446 Y3.5501 Z-0.0077
X-0.0382 Y3.5487 Z-0.008
G3 X0.0108 Y3.5503 I0.0214 J0.0965
G1 X0.0238 Y3.5544 F54
X0.0265 Y3.5554
X0.0552 Y3.5777
X0.0864 Y3.5964
X0.1198 Y3.6108
X0.1547 Y3.6209
X0.1905 Y3.6273
X0.2267 Y3.6309
X0.263 Y3.6328
X0.2993 Y3.6337
X0.4084 Y3.6342
X2.008 Y3.6343
X4.0075
X4.0439 Y3.6334
X4.0796 Y3.6266
X4.1135 Y3.6135
X4.1447 Y3.5948
X4.1652 Y3.5791
X4.18 Y3.5695
X4.1961 Y3.5621
X4.2131 Y3.5573
X4.2182 Y3.5569 Z-0.0077 F18
X4.2232 Y3.5564 Z-0.0069
X4.2281 Y3.556 Z-0.0056
X4.2329 Y3.5556 Z-0.0038
X4.2336 Z-0.0035
X4.2383 Y3.556 Z-0.001
X4.2426 Y3.5563 Z0.0019
X4.2466 Y3.5566 Z0.0053
X4.2502 Y3.5569 Z0.0091
X4.2534 Y3.5572 Z0.0132
X4.2559 Y3.5577 Z0.0174
X4.2581 Y3.5581 Z0.0219
X4.2597 Y3.5584 Z0.0265
X4.2609 Y3.5587 Z0.0313
X4.2616 Y3.5588 Z0.0362
X4.2619 Y3.5589 Z0.0411
G0 Z0.45
X-0.0981 Y3.5721
Z0.142
G1 Z0.067 F18
X-0.0978 Y3.572 Z0.0605
X-0.097 Y3.5718 Z0.054
X-0.0956 Y3.5715 Z0.0476
X-0.0937 Y3.571 Z0.0413
X-0.0913 Y3.5704 Z0.0353
X-0.0883 Y3.5697 Z0.0295
X-0.0849 Y3.5688 Z0.024
X-0.0811 Y3.5679 Z0.0188
X-0.0768 Y3.5668 Z0.014
X-0.0721 Y3.5656 Z0.0095
X-0.0671 Y3.5644 Z0.0056
X-0.0617 Y3.563 Z0.002
X-0.0561 Y3.5617 Z-0.001
X-0.0502 Y3.5602 Z-0.0035
X-0.0441 Y3.5587 Z-0.0054
X-0.0379 Y3.5572 Z-0.0069
X-0.0316 Y3.5556 Z-0.0077
X-0.0253 Y3.554 Z-0.008
G3 X0.0238 Y3.5544 I0.0238 J0.096
G1 X0.032 Y3.5567 F54
X0.0389 Y3.5577
X0.0435 Y3.5586
X0.0753 Y3.5762
X0.1084 Y3.5912
X0.1429 Y3.6028
X0.1783 Y3.6109
X0.2143 Y3.6162
X0.2505 Y3.6193
X0.2868 Y3.6209
X0.3232 Y3.6217
X0.4323 Y3.6222
X2.0319 Y3.6223
X3.9951 Y3.6222
X4.0314 Y3.6202
X4.067 Y3.6131
X4.1011 Y3.6004
X4.1332 Y3.5834
X4.1464 Y3.5756
X4.1592 Y3.569
X4.1728 Y3.5641
X4.1869 Y3.5608
X4.2013 Y3.5594
X4.2019 F18
X4.2069 Y3.5598 Z-0.0077
X4.212 Y3.5602 Z-0.0068
X4.2169 Y3.5606 Z-0.0054
X4.2216 Y3.5609 Z-0.0036
X4.2261 Y3.562 Z-0.0012
X4.2303 Y3.5631 Z0.0017
X4.2342 Y3.564 Z0.0051
X4.2377 Y3.5649 Z0.0088
X4.2408 Y3.5656 Z0.0129
X4.2433 Y3.5665 Z0.0171
X4.2454 Y3.5673 Z0.0216
X4.2471 Y3.5679 Z0.0263
X4.2482 Y3.5683 Z0.0312
X4.2489 Y3.5686 Z0.0361
X4.2492 Y3.5687 Z0.0411
G0 Z0.45
X-0.0792 Y3.5927
Z0.142
G1 Z0.067 F18
X-0.0789 Y3.5926 Z0.0605
X-0.0781 Y3.5923 Z0.054
X-0.0768 Y3.5917 Z0.0476
X-0.075 Y3.591 Z0.0413
X-0.0727 Y3.59 Z0.0353
X-0.0699 Y3.5889 Z0.0295
X-0.0666 Y3.5876 Z0.024
X-0.0629 Y3.5861 Z0.0188
X-0.0588 Y3.5844 Z0.014
X-0.0543 Y3.5826 Z0.0095
X-0.0495 Y3.5806 Z0.0056
X-0.0444 Y3.5785 Z0.002
X-0.0391 Y3.5763 Z-0.001
X-0.0335 Y3.5741 Z-0.0035
X-0.0277 Y3.5717 Z-0.0054
X-0.0218 Y3.5693 Z-0.0069
X-0.0158 Y3.5668 Z-0.0077
X-0.0097 Y3.5644 Z-0.008
G3 X0.0389 Y3.5577 I0.0373 J0.0916
G1 X0.0568 Y3.56 F54
X0.0595 Y3.5602
X0.1281 Y3.5844
X0.1632 Y3.5938
X0.1989 Y3.6005
X0.235 Y3.6049
X0.2713 Y3.6075
X0.3076 Y3.609
X0.3803 Y3.61
X1.0347 Y3.6103
X2.0526
X3.9431
X3.9794 Y3.61
X4.0157 Y3.6077
X4.0515 Y3.6011
X4.086 Y3.5897
X4.1282 Y3.5708
X4.1438 Y3.565
X4.16 Y3.5615
X4.1766 Y3.5603
X4.1816 Y3.5609 Z-0.0077 F18
X4.1866 Y3.5614 Z-0.0069
X4.1915 Y3.562 Z-0.0056
X4.1963 Y3.5625 Z-0.0038
X4.2007 Y3.5638 Z-0.0015
X4.2048 Y3.5649 Z0.0013
X4.2087 Y3.566 Z0.0045
X4.2122 Y3.567 Z0.0082
X4.2153 Y3.5679 Z0.0122
X4.2179 Y3.5689 Z0.0165
X4.2201 Y3.5698 Z0.0211
X4.2218 Y3.5705 Z0.0259
X4.2231 Y3.571 Z0.0308
X4.2238 Y3.5714 Z0.0359
X4.2241 Y3.5715 Z0.0411
G0 Z0.45
X-0.0554 Y3.6107
Z0.142
G1 Z0.067 F18
X-0.0551 Y3.6106 Z0.0605
X-0.0544 Y3.6102 Z0.054
X-0.0532 Y3.6095 Z0.0476
X-0.0515 Y3.6085 Z0.0413
X-0.0493 Y3.6072 Z0.0353
X-0.0467 Y3.6057 Z0.0295
X-0.0436 Y3.6039 Z0.024
X-0.0402 Y3.602 Z0.0188
X-0.0364 Y3.5997 Z0.014
X-0.0322 Y3.5973 Z0.0095
X-0.0277 Y3.5947 Z0.0056
X-0.0229 Y3.592 Z0.002
X-0.0179 Y3.5891 Z-0.001
X-0.0127 Y3.5861 Z-0.0035
X-0.0073 Y3.5829 Z-0.0054
X-0.0017 Y3.5797 Z-0.0069
X0.0039 Y3.5765 Z-0.0077
X0.0096 Y3.5732 Z-0.008
G3 X0.0568 Y3.56 I0.0494 J0.0857
G1 X0.0745 Y3.5602 F54
X0.0799 Y3.5605
X0.092 Y3.5633
X0.1626 Y3.5805
X0.1984 Y3.5871
X0.2344 Y3.5917
X0.2707 Y3.5947
X0.307 Y3.5964
X0.3433 Y3.5974
X0.416 Y3.5981
X2.052 Y3.5983
X3.9425 Y3.5982
X3.9788 Y3.5973
X4.015 Y3.5937
X4.0505 Y3.586
X4.085 Y3.5745
X4.1045 Y3.5671
X4.1174 Y3.5633
X4.1306 Y3.561
X4.1439 Y3.5603
X4.149 Y3.5609 Z-0.0077 F18
X4.154 Y3.5614 Z-0.0069
X4.1589 Y3.562 Z-0.0056
X4.1636 Y3.5625 Z-0.0038
X4.168 Y3.5638 Z-0.0015
X4.1722 Y3.5649 Z0.0013
X4.176 Y3.566 Z0.0045
X4.1795 Y3.567 Z0.0082
X4.1827 Y3.5679 Z0.0122
X4.1853 Y3.5689 Z0.0165
X4.1874 Y3.5698 Z0.0211
X4.1892 Y3.5705 Z0.0259
X4.1904 Y3.571 Z0.0308
X4.1911 Y3.5714 Z0.0359
X4.1914 Y3.5715 Z0.0411
G0 Z0.45
X-0.0377 Y3.6111
Z0.142
G1 Z0.067 F18
X-0.0374 Y3.6109 Z0.0605
X-0.0367 Y3.6105 Z0.054
X-0.0355 Y3.6098 Z0.0476
X-0.0338 Y3.6088 Z0.0413
X-0.0316 Y3.6076 Z0.0353
X-0.029 Y3.6061 Z0.0295
X-0.0259 Y3.6043 Z0.024
X-0.0225 Y3.6023 Z0.0188
X-0.0187 Y3.6001 Z0.014
X-0.0145 Y3.5977 Z0.0095
X-0.01 Y3.5951 Z0.0056
X-0.0052 Y3.5923 Z0.002
X-0.0002 Y3.5894 Z-0.001
X0.005 Y3.5864 Z-0.0035
X0.0104 Y3.5832 Z-0.0054
X0.0159 Y3.58 Z-0.0069
X0.0216 Y3.5768 Z-0.0077
X0.0272 Y3.5735 Z-0.008
G3 X0.0745 Y3.5602 I0.0496 J0.0856
G1 X0.0968 Y3.5603 F54
X0.1147 Y3.5618
X0.1291 Y3.5637
X0.2009 Y3.5748
X0.237 Y3.5792
X0.2733 Y3.5821
X0.3096 Y3.584
X0.3459 Y3.5851
X0.4186 Y3.586
X0.9639 Y3.5863
X2.0909
X3.9087 Y3.5862
X3.9451 Y3.5859
X3.9814 Y3.584
X4.0174 Y3.5791
X4.0527 Y3.5706
X4.0757 Y3.5635
X4.0862 Y3.5607
X4.0906 Y3.5603
X4.1439
X4.149 Y3.5609 Z-0.0077 F18
X4.154 Y3.5614 Z-0.0069
X4.1589 Y3.562 Z-0.0056
X4.1636 Y3.5625 Z-0.0038
X4.168 Y3.5638 Z-0.0015
X4.1722 Y3.5649 Z0.0013
X4.176 Y3.566 Z0.0045
X4.1795 Y3.567 Z0.0082
X4.1827 Y3.5679 Z0.0122
X4.1853 Y3.5689 Z0.0165
X4.1874 Y3.5698 Z0.0211
X4.1892 Y3.5705 Z0.0259
X4.1904 Y3.571 Z0.0308
X4.1911 Y3.5714 Z0.0359
X4.1914 Y3.5715 Z0.0411
G0 Z0.45
X-0.0148 Y3.6124
Z0.142
G1 Z0.067 F18
X-0.0146 Y3.6123 Z0.0605
X-0.0138 Y3.6119 Z0.054
X-0.0126 Y3.6111 Z0.0476
X-0.0109 Y3.6101 Z0.0413
X-0.0088 Y3.6088 Z0.0353
X-0.0062 Y3.6073 Z0.0295
X-0.0032 Y3.6055 Z0.024
X0.0003 Y3.6035 Z0.0188
X0.0041 Y3.6012 Z0.014
X0.0082 Y3.5987 Z0.0095
X0.0127 Y3.5961 Z0.0056
X0.0174 Y3.5933 Z0.002
X0.0224 Y3.5903 Z-0.001
X0.0276 Y3.5872 Z-0.0035
X0.033 Y3.584 Z-0.0054
X0.0385 Y3.5808 Z-0.0069
X0.044 Y3.5774 Z-0.0077
X0.0497 Y3.5741 Z-0.008
G3 X0.0968 Y3.5603 I0.0505 J0.085
G1 X0.1426 F54
X0.1725 Y3.5618
X0.2088 Y3.5644
X0.245 Y3.5676
X0.2813 Y3.5702
X0.3176 Y3.5719
X0.3539 Y3.573
X0.4266 Y3.5739
X0.7902 Y3.5743
X2.1353
X3.9167 Y3.5741
X3.953 Y3.5731
X3.9892 Y3.5697
X4.0336 Y3.5617
X4.0423 Y3.5606
X4.051 Y3.5603
X4.0906
X4.0957 Y3.5609 Z-0.0077 F18
X4.1007 Y3.5614 Z-0.0069
X4.1056 Y3.562 Z-0.0056
X4.1103 Y3.5625 Z-0.0038
X4.1147 Y3.5638 Z-0.0015
X4.1189 Y3.5649 Z0.0013
X4.1228 Y3.566 Z0.0045
X4.1263 Y3.567 Z0.0082
X4.1294 Y3.5679 Z0.0122
X4.132 Y3.5689 Z0.0165
X4.1342 Y3.5698 Z0.0211
X4.1359 Y3.5705 Z0.0259
X4.1371 Y3.571 Z0.0308
X4.1379 Y3.5714 Z0.0359
X4.1381 Y3.5715 Z0.0411
G0 Z0.45
X0.031 Y3.6124
Z0.142
G1 Z0.067 F18
X0.0313 Y3.6123 Z0.0605
X0.032 Y3.6119 Z0.054
X0.0332 Y3.6111 Z0.0476
X0.0349 Y3.6101 Z0.0413
X0.0371 Y3.6088 Z0.0353
X0.0397 Y3.6073 Z0.0295
X0.0427 Y3.6055 Z0.024
X0.0461 Y3.6035 Z0.0188
X0.0499 Y3.6012 Z0.014
X0.0541 Y3.5987 Z0.0095
X0.0585 Y3.5961 Z0.0056
X0.0633 Y3.5933 Z0.002
X0.0683 Y3.5903 Z-0.001
X0.0735 Y3.5872 Z-0.0035
X0.0788 Y3.584 Z-0.0054
X0.0843 Y3.5808 Z-0.0069
X0.0899 Y3.5774 Z-0.0077
X0.0955 Y3.5741 Z-0.008
G3 X0.1426 Y3.5602 I0.0506 J0.085
G1 X0.2785 Y3.5603 F54
X0.3148 Y3.5621
X0.3499 Y3.5615
X0.568 Y3.5622
X2.2767 Y3.5623
X3.8763 Y3.5622
X3.9127 Y3.5619
X3.9536 Y3.5603
X4.051
X4.056 Y3.5609 Z-0.0077 F18
X4.061 Y3.5614 Z-0.0069
X4.0659 Y3.562 Z-0.0056
X4.0707 Y3.5625 Z-0.0038
X4.0751 Y3.5638 Z-0.0015
X4.0792 Y3.5649 Z0.0013
X4.0831 Y3.566 Z0.0045
X4.0866 Y3.567 Z0.0082
X4.0897 Y3.5679 Z0.0122
X4.0923 Y3.5689 Z0.0165
X4.0945 Y3.5698 Z0.0211
X4.0962 Y3.5705 Z0.0259
X4.0975 Y3.571 Z0.0308
X4.0982 Y3.5714 Z0.0359
X4.0985 Y3.5715 Z0.0411
G0 Z0.45
X0.1669 Y3.6124
Z0.142
G1 Z0.067 F18
X0.1672 Y3.6123 Z0.0605
X0.1679 Y3.6119 Z0.054
X0.1691 Y3.6111 Z0.0476
X0.1708 Y3.6101 Z0.0413
X0.173 Y3.6088 Z0.0353
X0.1756 Y3.6073 Z0.0295
X0.1786 Y3.6055 Z0.024
X0.182 Y3.6035 Z0.0188
X0.1858 Y3.6012 Z0.014
X0.19 Y3.5987 Z0.0095
X0.1944 Y3.5961 Z0.0056
X0.1992 Y3.5933 Z0.002
X0.2042 Y3.5903 Z-0.001
X0.2093 Y3.5872 Z-0.0035
X0.2147 Y3.584 Z-0.0054
X0.2202 Y3.5808 Z-0.0069
X0.2258 Y3.5774 Z-0.0077
X0.2314 Y3.5741 Z-0.008
G3 X0.2785 Y3.5603 I0.0505 J0.085
G1 X3.9536 F54
X3.9587 Y3.5609 Z-0.0077 F18
X3.9637 Y3.5614 Z-0.0069
X3.9686 Y3.562 Z-0.0056
X3.9733 Y3.5625 Z-0.0038
X3.9777 Y3.5638 Z-0.0015
X3.9819 Y3.5649 Z0.0013
X3.9858 Y3.566 Z0.0045
X3.9893 Y3.567 Z0.0082
X3.9924 Y3.5679 Z0.0122
X3.995 Y3.5689 Z0.0165
X3.9972 Y3.5698 Z0.0211
X3.9989 Y3.5705 Z0.0259
X4.0001 Y3.571 Z0.0308
X4.0009 Y3.5714 Z0.0359
X4.0011 Y3.5715 Z0.0411
G0 Z0.45
X2.0002 Y3.6263
Z0.142
G1 Z0.067 F18
Y3.6265 Z0.0605
X2.0003 Y3.6274 Z0.054
X2.0004 Y3.6288 Z0.0476
X2.0006 Y3.6308 Z0.0413
X2.0009 Y3.6333 Z0.0353
X2.0012 Y3.6363 Z0.0295
X2.0015 Y3.6398 Z0.024
X2.0019 Y3.6437 Z0.0188
X2.0024 Y3.6481 Z0.014
X2.0028 Y3.6529 Z0.0095
X2.0034 Y3.6581 Z0.0056
X2.0039 Y3.6636 Z0.002
X2.0045 Y3.6694 Z-0.001
X2.0051 Y3.6754 Z-0.0035
X2.0057 Y3.6816 Z-0.0054
X2.0063 Y3.6879 Z-0.0069
X2.007 Y3.6944 Z-0.0077
X2.0076 Y3.7009 Z-0.008
G3 X2.0002 Y3.7494 I-0.0984 J0.0098
G1 X1.9992 Y3.7515 F54
X1.9985 Y3.7529
X1.9658 Y3.7688
X1.9384 Y3.7928
X1.9175 Y3.8225
X1.9031 Y3.8558
X1.8944 Y3.8911
X1.8899 Y3.9272
X1.888 Y3.9635
X1.8873 Y3.9999
X1.887 Y4.218
Y5.7086
Y7.7081
Y7.8535
X1.8967 Y7.8886
X1.9157 Y7.9196
X1.9419 Y7.9447
X1.9558 Y7.953
X1.9694 Y7.9625
X1.9816 Y7.9738
X1.992 Y7.9868
X2.0005 Y8.001
X2.0022 Y8.0058 Z-0.0077 F18
X2.0039 Y8.0106 Z-0.0069
X2.0056 Y8.0152 Z-0.0056
X2.0073 Y8.0196 Z-0.0038
X2.0081 Y8.0242 Z-0.0015
X2.009 Y8.0284 Z0.0013
X2.0097 Y8.0323 Z0.0045
X2.0104 Y8.0359 Z0.0082
X2.011 Y8.0391 Z0.0122
X2.0113 Y8.0419 Z0.0165
X2.0114 Y8.0442 Z0.0211
X2.0116 Y8.0461 Z0.0259
X2.0117 Y8.0474 Z0.0308
Y8.0482 Z0.0359
X2.0118 Y8.0485 Z0.0411
G0 Z0.45
X1.9992 Y3.6284
Z0.142
G1 Z0.067 F18
Y3.6286 Z0.0605
X1.9993 Y3.6295 Z0.054
X1.9995 Y3.6309 Z0.0476
X1.9997 Y3.6329 Z0.0413
X1.9999 Y3.6354 Z0.0353
X2.0002 Y3.6384 Z0.0295
X2.0005 Y3.6419 Z0.024
X2.0009 Y3.6458 Z0.0188
X2.0014 Y3.6502 Z0.014
X2.0019 Y3.655 Z0.0095
X2.0024 Y3.6602 Z0.0056
X2.0029 Y3.6657 Z0.002
X2.0035 Y3.6715 Z-0.001
X2.0041 Y3.6775 Z-0.0035
X2.0047 Y3.6837 Z-0.0054
X2.0053 Y3.69 Z-0.0069
X2.006 Y3.6965 Z-0.0077
X2.0066 Y3.703 Z-0.008
G3 X1.9992 Y3.7515 I-0.0984 J0.0098
G1 X1.9951 Y3.7608 F54
X1.9932 Y3.7649
X1.9657 Y3.7886
X1.943 Y3.8171
X1.9257 Y3.849
X1.9137 Y3.8833
X1.9063 Y3.9189
X1.9023 Y3.9551
X1.9003 Y3.9914
X1.8995 Y4.0277
X1.899 Y4.1731
Y5.7364
Y7.7359
Y7.8086
X1.9043 Y7.8446
X1.918 Y7.8783
X1.938 Y7.9086
X1.9624 Y7.9363
X1.9721 Y7.9446
X1.9803 Y7.9544
X1.9867 Y7.9655
X1.991 Y7.9776
X1.9921 Y7.9826 Z-0.0077 F18
X1.9931 Y7.9875 Z-0.0069
X1.9941 Y7.9923 Z-0.0056
X1.9951 Y7.997 Z-0.0038
X1.9954 Y8.0014 Z-0.0016
X1.9957 Y8.0056 Z0.0011
X1.9959 Y8.0096 Z0.0043
X1.9962 Y8.0131 Z0.0078
X1.996 Y8.0165 Z0.0118
X1.9958 Y8.0194 Z0.0161
X1.9957 Y8.0218 Z0.0208
X1.9956 Y8.0237 Z0.0257
Y8.025 Z0.0307
X1.9955 Y8.0259 Z0.0359
Y8.0262 Z0.0411
G0 Z0.45
X1.9886 Y3.6378
Z0.142
G1 Z0.067 F18
Y3.6381 Z0.0605
X1.9888 Y3.6389 Z0.054
X1.989 Y3.6403 Z0.0476
X1.9893 Y3.6423 Z0.0413
X1.9897 Y3.6447 Z0.0353
X1.9901 Y3.6477 Z0.0295
X1.9906 Y3.6512 Z0.024
X1.9912 Y3.6551 Z0.0188
X1.9919 Y3.6595 Z0.014
X1.9926 Y3.6643 Z0.0095
X1.9934 Y3.6694 Z0.0056
X1.9943 Y3.6749 Z0.002
X1.9952 Y3.6806 Z-0.001
X1.9961 Y3.6866 Z-0.0035
X1.997 Y3.6927 Z-0.0054
X1.998 Y3.6991 Z-0.0069
X1.999 Y3.7055 Z-0.0077
X2 Y3.7119 Z-0.008
G3 X1.9952 Y3.7608 I-0.0978 J0.015
G1 X1.9908 Y3.7728 F54
X1.9905 Y3.7742
X1.9893 Y3.779
X1.9669 Y3.8076
X1.9482 Y3.8387
X1.9339 Y3.8722
X1.924 Y3.9072
X1.9178 Y3.943
X1.9142 Y3.9792
X1.9124 Y4.0155
X1.9116 Y4.0518
X1.911 Y4.1609
Y5.7605
Y7.76
X1.9121 Y7.7964
X1.9193 Y7.832
X1.9327 Y7.8658
X1.9516 Y7.8969
X1.967 Y7.9173
X1.9748 Y7.9292
X1.9811 Y7.942
X1.9858 Y7.9554
X1.9888 Y7.9693
X1.9893 Y7.9744 Z-0.0077 F18
X1.9898 Y7.9794 Z-0.0069
X1.9903 Y7.9843 Z-0.0056
X1.9907 Y7.989 Z-0.0038
X1.9908 Y7.9913 Z-0.0028
X1.9904 Y7.996 Z0
X1.99 Y8.0004 Z0.0032
X1.9897 Y8.0044 Z0.0069
X1.9894 Y8.0079 Z0.011
X1.9892 Y8.011 Z0.0155
X1.9887 Y8.0135 Z0.0202
X1.9883 Y8.0155 Z0.0252
X1.9881 Y8.0169 Z0.0304
X1.9879 Y8.0178 Z0.0357
X1.9878 Y8.0181 Z0.0411
G0 Z0.45
X1.9615 Y3.6545
Z0.142
G1 Z0.067 F18
X1.9616 Y3.6548 Z0.0605
X1.9619 Y3.6556 Z0.054
X1.9624 Y3.6569 Z0.0476
X1.963 Y3.6588 Z0.0413
X1.9638 Y3.6611 Z0.0353
X1.9648 Y3.664 Z0.0295
X1.966 Y3.6673 Z0.024
X1.9673 Y3.6711 Z0.0188
X1.9688 Y3.6752 Z0.014
X1.9704 Y3.6798 Z0.0095
X1.9721 Y3.6847 Z0.0056
X1.9739 Y3.6899 Z0.002
X1.9758 Y3.6954 Z-0.001
X1.9778 Y3.7011 Z-0.0035
X1.9799 Y3.707 Z-0.0054
X1.982 Y3.713 Z-0.0069
X1.9841 Y3.7191 Z-0.0077
X1.9863 Y3.7253 Z-0.008
G3 X1.9905 Y3.7742 I-0.0933 J0.0327
G1 X1.9872 Y3.7907 F54
X1.986 Y3.796
X1.9684 Y3.8278
X1.9535 Y3.861
X1.942 Y3.8955
X1.934 Y3.9309
X1.9289 Y3.9669
X1.9259 Y4.0032
X1.9243 Y4.0395
X1.9236 Y4.0758
X1.923 Y4.2212
Y5.7482
X1.9231 Y7.7477
X1.9254 Y7.784
X1.9328 Y7.8195
X1.9457 Y7.8536
X1.9629 Y7.8856
X1.969 Y7.8961
X1.9766 Y7.9114
X1.9821 Y7.9277
X1.9853 Y7.9445
X1.9855 Y7.9501 Z-0.0077 F18
X1.9858 Y7.9555 Z-0.0068
X1.9854 Y7.9608 Z-0.0052
X1.985 Y7.9659 Z-0.0031
X1.9846 Y7.9707 Z-0.0004
X1.9842 Y7.9752 Z0.0028
X1.9833 Y7.9792 Z0.0065
X1.9824 Y7.9827 Z0.0106
X1.9817 Y7.9858 Z0.0151
X1.9811 Y7.9884 Z0.0199
X1.9806 Y7.9904 Z0.025
X1.9803 Y7.9918 Z0.0302
X1.9801 Y7.9927 Z0.0356
X1.98 Y7.993 Z0.0411
G0 Z0.45
X1.956 Y3.6716
Z0.142
G1 Z0.067 F18
X1.9561 Y3.6719 Z0.0605
X1.9564 Y3.6727 Z0.054
X1.9569 Y3.674 Z0.0476
X1.9576 Y3.6758 Z0.0413
X1.9584 Y3.6782 Z0.0353
X1.9595 Y3.681 Z0.0295
X1.9607 Y3.6843 Z0.024
X1.9621 Y3.688 Z0.0188
X1.9636 Y3.6922 Z0.014
X1.9653 Y3.6967 Z0.0095
X1.9671 Y3.7016 Z0.0056
X1.969 Y3.7067 Z0.002
X1.9711 Y3.7122 Z-0.001
X1.9732 Y3.7179 Z-0.0035
X1.9753 Y3.7237 Z-0.0054
X1.9776 Y3.7297 Z-0.0069
X1.9798 Y3.7358 Z-0.0077
X1.9821 Y3.7419 Z-0.008
G3 X1.9872 Y3.7907 I-0.0927 J0.0344
G1 X1.9859 Y3.799 F54
X1.9856 Y3.8059
X1.9851 Y3.8112
X1.9726 Y3.8454
X1.9606 Y3.8797
X1.9513 Y3.9148
X1.9446 Y3.9506
X1.9403 Y3.9867
X1.9377 Y4.0229
X1.9363 Y4.0593
X1.9353 Y4.132
X1.935 Y4.8591
Y5.7679
Y7.6948
X1.9352 Y7.7311
X1.9377 Y7.7674
X1.9444 Y7.8031
X1.9559 Y7.8376
X1.9749 Y7.8801
X1.9804 Y7.8951
X1.9838 Y7.9107
X1.9851 Y7.9266
X1.9846 Y7.9316 Z-0.0077 F18
X1.984 Y7.9366 Z-0.0069
X1.9835 Y7.9415 Z-0.0056
X1.983 Y7.9463 Z-0.0038
X1.9819 Y7.9507 Z-0.0015
X1.9807 Y7.9549 Z0.0013
X1.9797 Y7.9588 Z0.0045
X1.9788 Y7.9623 Z0.0082
X1.9779 Y7.9654 Z0.0122
X1.9769 Y7.968 Z0.0165
X1.976 Y7.9702 Z0.0211
X1.9753 Y7.9719 Z0.0259
X1.9748 Y7.9732 Z0.0308
X1.9745 Y7.9739 Z0.0359
X1.9744 Y7.9742 Z0.0411
G0 Z0.45
X1.9379 Y3.6923
Z0.142
G1 Z0.067 F18
X1.938 Y3.6926 Z0.0605
X1.9384 Y3.6933 Z0.054
X1.9391 Y3.6946 Z0.0476
X1.94 Y3.6963 Z0.0413
X1.9412 Y3.6985 Z0.0353
X1.9427 Y3.7012 Z0.0295
X1.9443 Y3.7043 Z0.024
X1.9462 Y3.7078 Z0.0188
X1.9484 Y3.7117 Z0.014
X1.9507 Y3.7159 Z0.0095
X1.9531 Y3.7205 Z0.0056
X1.9558 Y3.7253 Z0.002
X1.9585 Y3.7304 Z-0.001
X1.9614 Y3.7357 Z-0.0035
X1.9644 Y3.7412 Z-0.0054
X1.9674 Y3.7468 Z-0.0069
X1.9705 Y3.7525 Z-0.0077
X1.9736 Y3.7583 Z-0.008
G3 X1.9855 Y3.8059 I-0.0869 J0.0471
G1 X1.985 Y3.8249 F54
X1.9847 Y3.8303
X1.9659 Y3.9082
X1.959 Y3.9439
X1.9541 Y3.98
X1.9509 Y4.0162
X1.949 Y4.0525
X1.948 Y4.0888
X1.9472 Y4.1615
X1.947 Y5.7975
Y7.688
X1.9478 Y7.7243
X1.9509 Y7.7605
X1.958 Y7.7962
X1.9689 Y7.8309
X1.9782 Y7.8554
X1.982 Y7.8682
X1.9842 Y7.8813
X1.985 Y7.8946
X1.9844 Y7.8997 Z-0.0077 F18
X1.9838 Y7.9047 Z-0.0069
X1.9833 Y7.9096 Z-0.0056
X1.9827 Y7.9143 Z-0.0038
X1.9815 Y7.9187 Z-0.0015
X1.9803 Y7.9229 Z0.0013
X1.9793 Y7.9267 Z0.0045
X1.9783 Y7.9302 Z0.0082
X1.9774 Y7.9334 Z0.0122
X1.9763 Y7.936 Z0.0165
X1.9754 Y7.9381 Z0.0211
X1.9747 Y7.9399 Z0.0259
X1.9742 Y7.9411 Z0.0308
X1.9739 Y7.9418 Z0.0359
X1.9738 Y7.9421 Z0.0411
G0 Z0.45
X1.9328 Y3.7133
Z0.142
G1 Z0.067 F18
X1.933 Y3.7136 Z0.0605
X1.9334 Y3.7143 Z0.054
X1.9341 Y3.7155 Z0.0476
X1.9351 Y3.7172 Z0.0413
X1.9364 Y3.7194 Z0.0353
X1.938 Y3.722 Z0.0295
X1.9398 Y3.725 Z0.024
X1.9418 Y3.7284 Z0.0188
X1.9441 Y3.7322 Z0.014
X1.9465 Y3.7364 Z0.0095
X1.9492 Y3.7408 Z0.0056
X1.952 Y3.7456 Z0.002
X1.955 Y3.7505 Z-0.001
X1.9581 Y3.7557 Z-0.0035
X1.9612 Y3.7611 Z-0.0054
X1.9645 Y3.7666 Z-0.0069
X1.9678 Y3.7722 Z-0.0077
X1.9712 Y3.7778 Z-0.008
G3 X1.985 Y3.8249 I-0.0851 J0.0505
G1 Y3.8485 F54
X1.9842 Y3.8595
X1.9807 Y3.886
X1.9695 Y3.9578
X1.9654 Y3.9939
X1.9627 Y4.0302
X1.961 Y4.0665
X1.96 Y4.1029
X1.9592 Y4.1756
X1.959 Y5.5207
Y5.8479
Y7.6656
X1.9595 Y7.702
X1.9619 Y7.7383
X1.9676 Y7.7742
X1.9765 Y7.8094
X1.982 Y7.8272
X1.9847 Y7.8372
X1.985 Y7.8404
Y7.8946
X1.9844 Y7.8997 Z-0.0077 F18
X1.9838 Y7.9047 Z-0.0069
X1.9833 Y7.9096 Z-0.0056
X1.9827 Y7.9143 Z-0.0038
X1.9815 Y7.9187 Z-0.0015
X1.9803 Y7.9229 Z0.0013
X1.9793 Y7.9267 Z0.0045
X1.9783 Y7.9302 Z0.0082
X1.9774 Y7.9334 Z0.0122
X1.9763 Y7.936 Z0.0165
X1.9754 Y7.9381 Z0.0211
X1.9747 Y7.9399 Z0.0259
X1.9742 Y7.9411 Z0.0308
X1.9739 Y7.9418 Z0.0359
X1.9738 Y7.9421 Z0.0411
G0 Z0.45
X1.9328 Y3.737
Z0.142
G1 Z0.067 F18
X1.933 Y3.7372 Z0.0605
X1.9334 Y3.738 Z0.054
X1.9341 Y3.7392 Z0.0476
X1.9351 Y3.7409 Z0.0413
X1.9364 Y3.743 Z0.0353
X1.938 Y3.7456 Z0.0295
X1.9398 Y3.7486 Z0.024
X1.9418 Y3.7521 Z0.0188
X1.9441 Y3.7559 Z0.014
X1.9465 Y3.76 Z0.0095
X1.9492 Y3.7645 Z0.0056
X1.952 Y3.7692 Z0.002
X1.955 Y3.7742 Z-0.001
X1.9581 Y3.7794 Z-0.0035
X1.9612 Y3.7848 Z-0.0054
X1.9645 Y3.7903 Z-0.0069
X1.9678 Y3.7958 Z-0.0077
X1.9712 Y3.8015 Z-0.008
G3 X1.985 Y3.8485 I-0.0851 J0.0505
G1 Y3.893 F54
X1.9836 Y3.9217
X1.981 Y3.9579
X1.9777 Y3.9942
X1.9751 Y4.0304
X1.9734 Y4.0667
X1.9723 Y4.1031
X1.9713 Y4.1758
X1.971 Y4.5393
Y5.8845
X1.9712 Y7.6659
X1.9722 Y7.7022
X1.9755 Y7.7384
X1.9817 Y7.7743
X1.9835 Y7.7834
X1.9846 Y7.7926
X1.985 Y7.8019
Y7.8404
X1.9844 Y7.8455 Z-0.0077 F18
X1.9838 Y7.8505 Z-0.0069
X1.9833 Y7.8554 Z-0.0056
X1.9827 Y7.8601 Z-0.0038
X1.9815 Y7.8645 Z-0.0015
X1.9803 Y7.8687 Z0.0013
X1.9793 Y7.8725 Z0.0045
X1.9783 Y7.8761 Z0.0082
X1.9774 Y7.8792 Z0.0122
X1.9763 Y7.8818 Z0.0165
X1.9754 Y7.884 Z0.0211
X1.9747 Y7.8857 Z0.0259
X1.9742 Y7.8869 Z0.0308
X1.9739 Y7.8877 Z0.0359
X1.9738 Y7.8879 Z0.0411
G0 Z0.45
X1.9328 Y3.7815
Z0.142
G1 Z0.067 F18
X1.933 Y3.7817 Z0.0605
X1.9334 Y3.7824 Z0.054
X1.9341 Y3.7837 Z0.0476
X1.9351 Y3.7853 Z0.0413
X1.9364 Y3.7875 Z0.0353
X1.938 Y3.7901 Z0.0295
X1.9398 Y3.7931 Z0.024
X1.9418 Y3.7965 Z0.0188
X1.9441 Y3.8003 Z0.014
X1.9465 Y3.8045 Z0.0095
X1.9492 Y3.8089 Z0.0056
X1.952 Y3.8137 Z0.002
X1.955 Y3.8187 Z-0.001
X1.9581 Y3.8239 Z-0.0035
X1.9612 Y3.8292 Z-0.0054
X1.9645 Y3.8347 Z-0.0069
X1.9678 Y3.8403 Z-0.0077
X1.9712 Y3.8459 Z-0.008
G3 X1.985 Y3.893 I-0.0851 J0.0506
G1 Y4.0289 F54
X1.9832 Y4.0652
X1.9838 Y4.1011
X1.9831 Y4.2829
X1.983 Y6.0279
X1.9831 Y7.6275
X1.9834 Y7.6639
X1.985 Y7.7022
Y7.8019
X1.9844 Y7.8069 Z-0.0077 F18
X1.9838 Y7.8119 Z-0.0069
X1.9833 Y7.8168 Z-0.0056
X1.9827 Y7.8215 Z-0.0038
X1.9815 Y7.826 Z-0.0015
X1.9803 Y7.8301 Z0.0013
X1.9793 Y7.834 Z0.0045
X1.9783 Y7.8375 Z0.0082
X1.9774 Y7.8406 Z0.0122
X1.9763 Y7.8432 Z0.0165
X1.9754 Y7.8454 Z0.0211
X1.9747 Y7.8471 Z0.0259
X1.9742 Y7.8483 Z0.0308
X1.9739 Y7.8491 Z0.0359
X1.9738 Y7.8493 Z0.0411
G0 Z0.45
X1.9328 Y3.9173
Z0.142
G1 Z0.067 F18
X1.933 Y3.9176 Z0.0605
X1.9334 Y3.9183 Z0.054
X1.9341 Y3.9195 Z0.0476
X1.9351 Y3.9212 Z0.0413
X1.9364 Y3.9234 Z0.0353
X1.938 Y3.926 Z0.0295
X1.9398 Y3.929 Z0.024
X1.9418 Y3.9324 Z0.0188
X1.9441 Y3.9362 Z0.014
X1.9465 Y3.9404 Z0.0095
X1.9492 Y3.9448 Z0.0056
X1.952 Y3.9496 Z0.002
X1.955 Y3.9546 Z-0.001
X1.9581 Y3.9598 Z-0.0035
X1.9612 Y3.9651 Z-0.0054
X1.9645 Y3.9706 Z-0.0069
X1.9678 Y3.9762 Z-0.0077
X1.9712 Y3.9818 Z-0.008
G3 X1.985 Y4.0289 I-0.0851 J0.0506
G1 Y7.7022 F54
X1.9844 Y7.7072 Z-0.0077 F18
X1.9838 Y7.7122 Z-0.0069
X1.9833 Y7.7171 Z-0.0056
X1.9827 Y7.7219 Z-0.0038
X1.9815 Y7.7263 Z-0.0015
X1.9803 Y7.7304 Z0.0013
X1.9793 Y7.7343 Z0.0045
X1.9783 Y7.7378 Z0.0082
X1.9774 Y7.7409 Z0.0122
X1.9763 Y7.7435 Z0.0165
X1.9754 Y7.7457 Z0.0211
X1.9747 Y7.7474 Z0.0259
X1.9742 Y7.7487 Z0.0308
X1.9739 Y7.7494 Z0.0359
X1.9738 Y7.7497 Z0.0411
G0 Z0.45
X1.6675 Y8.1241
Z0.142
G1 Z0.067 F18
Y8.1239 Z0.0605
X1.6674 Y8.123 Z0.054
X1.6673 Y8.1216 Z0.0476
X1.6672 Y8.1196 Z0.0413
X1.667 Y8.1171 Z0.0353
X1.6667 Y8.1141 Z0.0295
X1.6664 Y8.1106 Z0.024
X1.6661 Y8.1066 Z0.0188
X1.6658 Y8.1022 Z0.014
X1.6654 Y8.0974 Z0.0095
X1.665 Y8.0923 Z0.0056
X1.6645 Y8.0868 Z0.002
X1.6641 Y8.081 Z-0.001
X1.6636 Y8.0749 Z-0.0035
X1.6631 Y8.0687 Z-0.0054
X1.6626 Y8.0624 Z-0.0069
X1.6621 Y8.0559 Z-0.0077
X1.6615 Y8.0494 Z-0.008
G3 X1.6699 Y8.001 I0.0986 J-0.0079
G1 X1.6709 Y7.9989 F54
X1.6716 Y7.9976
X1.7043 Y7.9817
X1.7317 Y7.9578
X1.7527 Y7.9281
X1.7672 Y7.8948
X1.7759 Y7.8595
X1.7803 Y7.8234
X1.7822 Y7.7871
X1.7829 Y7.7507
X1.7833 Y7.5326
Y6.042
Y4.0425
Y3.8971
X1.7738 Y3.862
X1.7549 Y3.8309
X1.7288 Y3.8057
X1.71 Y3.7944
X1.6973 Y3.7853
X1.6861 Y3.7744
X1.6767 Y3.7619
X1.6694 Y3.748
X1.6676 Y3.7433 Z-0.0077 F18
X1.6658 Y3.7386 Z-0.0069
X1.664 Y3.734 Z-0.0056
X1.6622 Y3.7296 Z-0.0038
X1.6613 Y3.7251 Z-0.0015
X1.6603 Y3.7209 Z0.0013
X1.6595 Y3.717 Z0.0045
X1.6587 Y3.7134 Z0.0082
X1.658 Y3.7102 Z0.0122
X1.6578 Y3.7074 Z0.0165
X1.6575 Y3.7051 Z0.0211
X1.6574 Y3.7033 Z0.0259
X1.6572 Y3.7019 Z0.0308
Y3.7011 Z0.0359
X1.6571 Y3.7008 Z0.0411
G0 Z0.45
X1.6686 Y8.122
Z0.142
G1 Z0.067 F18
X1.6685 Y8.1217 Z0.0605
Y8.1209 Z0.054
X1.6684 Y8.1195 Z0.0476
X1.6682 Y8.1175 Z0.0413
X1.668 Y8.115 Z0.0353
X1.6678 Y8.112 Z0.0295
X1.6675 Y8.1085 Z0.024
X1.6672 Y8.1045 Z0.0188
X1.6668 Y8.1001 Z0.014
X1.6664 Y8.0953 Z0.0095
X1.666 Y8.0902 Z0.0056
X1.6656 Y8.0847 Z0.002
X1.6651 Y8.0789 Z-0.001
X1.6646 Y8.0728 Z-0.0035
X1.6641 Y8.0666 Z-0.0054
X1.6636 Y8.0603 Z-0.0069
X1.6631 Y8.0538 Z-0.0077
X1.6626 Y8.0473 Z-0.008
G3 X1.6709 Y7.9989 I0.0986 J-0.0079
G1 X1.6746 Y7.9908 F54
X1.6751 Y7.9893
X1.6771 Y7.9846
X1.7048 Y7.961
X1.7274 Y7.9326
X1.7447 Y7.9006
X1.7567 Y7.8663
X1.7641 Y7.8307
X1.7681 Y7.7945
X1.77 Y7.7582
X1.7708 Y7.7219
X1.7713 Y7.5765
Y6.0132
Y4.0137
Y3.9409
X1.7658 Y3.905
X1.752 Y3.8714
X1.7318 Y3.8411
X1.7076 Y3.8141
X1.6979 Y3.8058
X1.6898 Y3.7959
X1.6836 Y3.7848
X1.6795 Y3.7728
X1.6788 Y3.7677 Z-0.0077 F18
X1.6782 Y3.7627 Z-0.0069
X1.6775 Y3.7579 Z-0.0056
X1.6769 Y3.7531 Z-0.0038
X1.6768 Y3.7499 Z-0.0023
X1.6767 Y3.7468 Z-0.0005
X1.6771 Y3.7425 Z0.0026
X1.6774 Y3.7385 Z0.0062
X1.6777 Y3.735 Z0.0101
X1.6779 Y3.7318 Z0.0144
X1.6781 Y3.7292 Z0.019
X1.6783 Y3.7271 Z0.0239
X1.6785 Y3.7257 Z0.0281
X1.6787 Y3.7248 Z0.0323
X1.6788 Y3.7242 Z0.0367
Y3.724 Z0.0411
G0 Z0.45
X1.6849 Y8.1121
Z0.142
G1 Z0.067 F18
X1.6848 Y8.1118 Z0.0605
X1.6847 Y8.111 Z0.054
X1.6844 Y8.1096 Z0.0476
X1.6841 Y8.1076 Z0.0413
X1.6837 Y8.1052 Z0.0353
X1.6831 Y8.1022 Z0.0295
X1.6825 Y8.0987 Z0.024
X1.6818 Y8.0948 Z0.0188
X1.681 Y8.0905 Z0.014
X1.6801 Y8.0857 Z0.0095
X1.6792 Y8.0806 Z0.0056
X1.6782 Y8.0752 Z0.002
X1.6772 Y8.0695 Z-0.001
X1.6761 Y8.0635 Z-0.0035
X1.675 Y8.0574 Z-0.0054
X1.6739 Y8.0511 Z-0.0069
X1.6727 Y8.0447 Z-0.0077
X1.6716 Y8.0383 Z-0.008
G3 X1.6751 Y7.9893 I0.0973 J-0.0176
G1 X1.68 Y7.9751 F54
X1.681 Y7.9717
X1.7033 Y7.943
X1.722 Y7.9118
X1.7362 Y7.8783
X1.7461 Y7.8434
X1.7524 Y7.8076
X1.756 Y7.7714
X1.7579 Y7.7351
X1.7587 Y7.6987
X1.7592 Y7.5897
X1.7593 Y5.9901
Y3.9905
X1.7582 Y3.9542
X1.751 Y3.9185
X1.7376 Y3.8848
X1.7187 Y3.8537
X1.7034 Y3.8334
X1.694 Y3.8188
X1.6869 Y3.8029
X1.6822 Y3.7862
X1.6817 Y3.7811 Z-0.0077 F18
X1.6813 Y3.7761 Z-0.0069
X1.6809 Y3.7712 Z-0.0056
X1.6805 Y3.7665 Z-0.0038
Y3.7657 Z-0.0035
X1.6809 Y3.7611 Z-0.001
X1.6812 Y3.7567 Z0.0019
X1.6815 Y3.7527 Z0.0053
X1.6818 Y3.7491 Z0.0091
X1.6821 Y3.7459 Z0.0132
X1.6826 Y3.7434 Z0.0174
X1.683 Y3.7413 Z0.0219
X1.6833 Y3.7396 Z0.0265
X1.6835 Y3.7384 Z0.0313
X1.6837 Y3.7377 Z0.0362
Y3.7374 Z0.0411
G0 Z0.45
X1.7026 Y8.0961
Z0.142
G1 Z0.067 F18
X1.7025 Y8.0959 Z0.0605
X1.7022 Y8.095 Z0.054
X1.7018 Y8.0937 Z0.0476
X1.7013 Y8.0918 Z0.0413
X1.7006 Y8.0894 Z0.0353
X1.6997 Y8.0865 Z0.0295
X1.6988 Y8.0831 Z0.024
X1.6976 Y8.0793 Z0.0188
X1.6964 Y8.0751 Z0.014
X1.6951 Y8.0704 Z0.0095
X1.6936 Y8.0654 Z0.0056
X1.6921 Y8.0601 Z0.002
X1.6904 Y8.0546 Z-0.001
X1.6888 Y8.0488 Z-0.0035
X1.687 Y8.0428 Z-0.0054
X1.6852 Y8.0366 Z-0.0069
X1.6834 Y8.0304 Z-0.0077
X1.6816 Y8.0241 Z-0.008
G3 X1.68 Y7.9751 I0.0949 J-0.0276
G1 X1.6818 Y7.9668 F54
X1.6828 Y7.9602
X1.6837 Y7.9561
X1.7012 Y7.9242
X1.7162 Y7.8911
X1.7278 Y7.8566
X1.7359 Y7.8212
X1.7412 Y7.7852
X1.7443 Y7.749
X1.7459 Y7.7127
X1.7467 Y7.6764
X1.7472 Y7.5673
X1.7473 Y5.9677
X1.7472 Y4.0045
X1.7451 Y3.9682
X1.7379 Y3.9326
X1.7253 Y3.8985
X1.7083 Y3.8664
X1.7005 Y3.8532
X1.6939 Y3.8403
X1.689 Y3.8267
X1.6858 Y3.8127
X1.6844 Y3.7983
Y3.7978 F18
X1.6848 Y3.7927 Z-0.0077
X1.6852 Y3.7877 Z-0.0068
X1.6856 Y3.7828 Z-0.0054
X1.6859 Y3.778 Z-0.0036
X1.687 Y3.7736 Z-0.0012
X1.688 Y3.7693 Z0.0017
X1.689 Y3.7654 Z0.0051
X1.6898 Y3.7619 Z0.0088
X1.6906 Y3.7588 Z0.0129
X1.6915 Y3.7563 Z0.0171
X1.6923 Y3.7542 Z0.0216
X1.6929 Y3.7526 Z0.0263
X1.6933 Y3.7514 Z0.0312
X1.6936 Y3.7507 Z0.0361
X1.6937 Y3.7505 Z0.0411
G0 Z0.45
X1.7178 Y8.0783
Z0.142
G1 Z0.067 F18
X1.7177 Y8.0781 Z0.0605
X1.7174 Y8.0773 Z0.054
X1.7168 Y8.076 Z0.0476
X1.7161 Y8.0741 Z0.0413
X1.7152 Y8.0718 Z0.0353
X1.714 Y8.069 Z0.0295
X1.7127 Y8.0658 Z0.024
X1.7112 Y8.0621 Z0.0188
X1.7095 Y8.058 Z0.014
X1.7077 Y8.0535 Z0.0095
X1.7057 Y8.0487 Z0.0056
X1.7037 Y8.0436 Z0.002
X1.7015 Y8.0382 Z-0.001
X1.6992 Y8.0326 Z-0.0035
X1.6968 Y8.0269 Z-0.0054
X1.6944 Y8.0209 Z-0.0069
X1.692 Y8.0149 Z-0.0077
X1.6895 Y8.0089 Z-0.008
G3 X1.6828 Y7.9602 I0.0916 J-0.0374
G1 X1.685 Y7.9432 F54
X1.6852 Y7.9405
X1.7093 Y7.8719
X1.7187 Y7.8368
X1.7255 Y7.8011
X1.7299 Y7.765
X1.7325 Y7.7287
X1.734 Y7.6924
X1.735 Y7.6197
X1.7353 Y6.9653
Y5.9473
Y4.0569
X1.7351 Y4.0205
X1.7327 Y3.9842
X1.7261 Y3.9485
X1.7148 Y3.914
X1.6958 Y3.8716
X1.69 Y3.856
X1.6865 Y3.8397
X1.6853 Y3.8231
X1.6859 Y3.8181 Z-0.0077 F18
X1.6864 Y3.8131 Z-0.0069
X1.687 Y3.8082 Z-0.0056
X1.6875 Y3.8035 Z-0.0038
X1.6888 Y3.799 Z-0.0015
X1.6899 Y3.7949 Z0.0013
X1.691 Y3.791 Z0.0045
X1.692 Y3.7875 Z0.0082
X1.6929 Y3.7844 Z0.0122
X1.6939 Y3.7818 Z0.0165
X1.6948 Y3.7796 Z0.0211
X1.6955 Y3.7779 Z0.0259
X1.696 Y3.7767 Z0.0308
X1.6964 Y3.7759 Z0.0359
X1.6965 Y3.7757 Z0.0411
G0 Z0.45
X1.7357 Y8.0554
Z0.142
G1 Z0.067 F18
X1.7356 Y8.0551 Z0.0605
X1.7352 Y8.0544 Z0.054
X1.7345 Y8.0532 Z0.0476
X1.7335 Y8.0515 Z0.0413
X1.7322 Y8.0493 Z0.0353
X1.7307 Y8.0467 Z0.0295
X1.7289 Y8.0436 Z0.024
X1.727 Y8.0402 Z0.0188
X1.7247 Y8.0364 Z0.014
X1.7223 Y8.0322 Z0.0095
X1.7197 Y8.0277 Z0.0056
X1.717 Y8.0229 Z0.002
X1.7141 Y8.0179 Z-0.001
X1.7111 Y8.0127 Z-0.0035
X1.7079 Y8.0073 Z-0.0054
X1.7047 Y8.0017 Z-0.0069
X1.7015 Y7.9961 Z-0.0077
X1.6982 Y7.9904 Z-0.008
G3 X1.685 Y7.9432 I0.0857 J-0.0494
G1 X1.6852 Y7.9255 F54
X1.6855 Y7.9201
X1.7048 Y7.8401
X1.7116 Y7.8044
X1.7164 Y7.7683
X1.7195 Y7.7321
X1.7213 Y7.6958
X1.7223 Y7.6595
X1.7231 Y7.5868
X1.7233 Y5.9508
X1.7232 Y4.0603
X1.7224 Y4.024
X1.7191 Y3.9878
X1.7118 Y3.9522
X1.7006 Y3.9176
X1.6921 Y3.8952
X1.6883 Y3.8824
X1.686 Y3.8693
X1.6853 Y3.8559
X1.6859 Y3.8509 Z-0.0077 F18
X1.6864 Y3.8459 Z-0.0069
X1.687 Y3.841 Z-0.0056
X1.6875 Y3.8362 Z-0.0038
X1.6888 Y3.8318 Z-0.0015
X1.6899 Y3.8277 Z0.0013
X1.691 Y3.8238 Z0.0045
X1.692 Y3.8203 Z0.0082
X1.6929 Y3.8172 Z0.0122
X1.6939 Y3.8146 Z0.0165
X1.6948 Y3.8124 Z0.0211
X1.6955 Y3.8107 Z0.0259
X1.696 Y3.8094 Z0.0308
X1.6964 Y3.8087 Z0.0359
X1.6965 Y3.8084 Z0.0411
G0 Z0.45
X1.7361 Y8.0377
Z0.142
G1 Z0.067 F18
X1.7359 Y8.0374 Z0.0605
X1.7355 Y8.0367 Z0.054
X1.7348 Y8.0355 Z0.0476
X1.7338 Y8.0338 Z0.0413
X1.7326 Y8.0316 Z0.0353
X1.7311 Y8.029 Z0.0295
X1.7293 Y8.0259 Z0.024
X1.7273 Y8.0225 Z0.0188
X1.7251 Y8.0187 Z0.014
X1.7227 Y8.0145 Z0.0095
X1.7201 Y8.01 Z0.0056
X1.7173 Y8.0052 Z0.002
X1.7144 Y8.0002 Z-0.001
X1.7114 Y7.995 Z-0.0035
X1.7082 Y7.9896 Z-0.0054
X1.705 Y7.9841 Z-0.0069
X1.7018 Y7.9784 Z-0.0077
X1.6985 Y7.9728 Z-0.008
G3 X1.6852 Y7.9255 I0.0856 J-0.0496
G1 X1.6853 Y7.9019 F54
X1.6861 Y7.8908
X1.6896 Y7.8642
X1.7008 Y7.7924
X1.7049 Y7.7563
X1.7076 Y7.72
X1.7093 Y7.6837
X1.7103 Y7.6474
X1.711 Y7.5746
X1.7113 Y6.3386
Y5.9023
X1.7112 Y4.0846
X1.7108 Y4.0482
X1.7084 Y4.0119
X1.7027 Y3.976
X1.6937 Y3.9408
X1.6883 Y3.9234
X1.6856 Y3.9133
X1.6853 Y3.9099
Y3.8559
X1.6859 Y3.8509 Z-0.0077 F18
X1.6864 Y3.8459 Z-0.0069
X1.687 Y3.841 Z-0.0056
X1.6875 Y3.8362 Z-0.0038
X1.6888 Y3.8318 Z-0.0015
X1.6899 Y3.8277 Z0.0013
X1.691 Y3.8238 Z0.0045
X1.692 Y3.8203 Z0.0082
X1.6929 Y3.8172 Z0.0122
X1.6939 Y3.8146 Z0.0165
X1.6948 Y3.8124 Z0.0211
X1.6955 Y3.8107 Z0.0259
X1.696 Y3.8094 Z0.0308
X1.6964 Y3.8087 Z0.0359
X1.6965 Y3.8084 Z0.0411
G0 Z0.45
X1.7374 Y8.0134
Z0.142
G1 Z0.067 F18
X1.7373 Y8.0132 Z0.0605
X1.7369 Y8.0125 Z0.054
X1.7361 Y8.0112 Z0.0476
X1.7351 Y8.0095 Z0.0413
X1.7338 Y8.0074 Z0.0353
X1.7323 Y8.0048 Z0.0295
X1.7305 Y8.0018 Z0.024
X1.7285 Y7.9984 Z0.0188
X1.7262 Y7.9946 Z0.014
X1.7237 Y7.9904 Z0.0095
X1.7211 Y7.9859 Z0.0056
X1.7183 Y7.9812 Z0.002
X1.7153 Y7.9762 Z-0.001
X1.7122 Y7.971 Z-0.0035
X1.709 Y7.9657 Z-0.0054
X1.7058 Y7.9602 Z-0.0069
X1.7024 Y7.9546 Z-0.0077
X1.6991 Y7.949 Z-0.008
G3 X1.6852 Y7.9019 I0.085 J-0.0506
G1 X1.6853 Y7.8574 F54
X1.6867 Y7.8282
X1.6893 Y7.7919
X1.6926 Y7.7557
X1.6952 Y7.7195
X1.6969 Y7.6831
X1.698 Y7.6468
X1.6989 Y7.5741
X1.6993 Y7.2105
Y5.8654
X1.6991 Y4.084
X1.698 Y4.0477
X1.6947 Y4.0115
X1.6867 Y3.9668
X1.6856 Y3.9578
X1.6853 Y3.9488
Y3.9099
X1.6859 Y3.9048 Z-0.0077 F18
X1.6864 Y3.8998 Z-0.0069
X1.687 Y3.895 Z-0.0056
X1.6875 Y3.8902 Z-0.0038
X1.6888 Y3.8858 Z-0.0015
X1.6899 Y3.8816 Z0.0013
X1.691 Y3.8778 Z0.0045
X1.692 Y3.8743 Z0.0082
X1.6929 Y3.8712 Z0.0122
X1.6939 Y3.8685 Z0.0165
X1.6948 Y3.8664 Z0.0211
X1.6955 Y3.8647 Z0.0259
X1.696 Y3.8634 Z0.0308
X1.6964 Y3.8627 Z0.0359
X1.6965 Y3.8624 Z0.0411
G0 Z0.45
X1.7374 Y7.969
Z0.142
G1 Z0.067 F18
X1.7373 Y7.9687 Z0.0605
X1.7369 Y7.968 Z0.054
X1.7361 Y7.9668 Z0.0476
X1.7351 Y7.9651 Z0.0413
X1.7338 Y7.9629 Z0.0353
X1.7323 Y7.9603 Z0.0295
X1.7305 Y7.9573 Z0.024
X1.7285 Y7.9539 Z0.0188
X1.7262 Y7.9501 Z0.014
X1.7237 Y7.9459 Z0.0095
X1.7211 Y7.9415 Z0.0056
X1.7183 Y7.9367 Z0.002
X1.7153 Y7.9317 Z-0.001
X1.7122 Y7.9265 Z-0.0035
X1.709 Y7.9212 Z-0.0054
X1.7058 Y7.9157 Z-0.0069
X1.7024 Y7.9101 Z-0.0077
X1.6991 Y7.9045 Z-0.008
G3 X1.6852 Y7.8574 I0.085 J-0.0506
G1 X1.6853 Y7.7215 F54
X1.6871 Y7.6852
X1.6865 Y7.6498
X1.6873 Y7.4317
Y5.723
X1.6872 Y4.1234
X1.6868 Y4.087
X1.6853 Y4.0477
Y3.9488
X1.6859 Y3.9438 Z-0.0077 F18
X1.6864 Y3.9388 Z-0.0069
X1.687 Y3.9339 Z-0.0056
X1.6875 Y3.9291 Z-0.0038
X1.6888 Y3.9247 Z-0.0015
X1.6899 Y3.9205 Z0.0013
X1.691 Y3.9167 Z0.0045
X1.692 Y3.9132 Z0.0082
X1.6929 Y3.9101 Z0.0122
X1.6939 Y3.9075 Z0.0165
X1.6948 Y3.9053 Z0.0211
X1.6955 Y3.9036 Z0.0259
X1.696 Y3.9023 Z0.0308
X1.6964 Y3.9016 Z0.0359
X1.6965 Y3.9013 Z0.0411
G0 Z0.45
X1.7374 Y7.8331
Z0.142
G1 Z0.067 F18
X1.7373 Y7.8328 Z0.0605
X1.7369 Y7.8321 Z0.054
X1.7361 Y7.8309 Z0.0476
X1.7351 Y7.8292 Z0.0413
X1.7338 Y7.827 Z0.0353
X1.7323 Y7.8244 Z0.0295
X1.7305 Y7.8214 Z0.024
X1.7285 Y7.818 Z0.0188
X1.7262 Y7.8142 Z0.014
X1.7237 Y7.81 Z0.0095
X1.7211 Y7.8056 Z0.0056
X1.7183 Y7.8008 Z0.002
X1.7153 Y7.7958 Z-0.001
X1.7122 Y7.7907 Z-0.0035
X1.709 Y7.7853 Z-0.0054
X1.7058 Y7.7798 Z-0.0069
X1.7024 Y7.7742 Z-0.0077
X1.6991 Y7.7686 Z-0.008
G3 X1.6853 Y7.7215 I0.085 J-0.0505
G1 Y4.0477 F54
X1.6859 Y4.0427 Z-0.0077 F18
X1.6864 Y4.0377 Z-0.0069
X1.687 Y4.0328 Z-0.0056
X1.6875 Y4.028 Z-0.0038
X1.6888 Y4.0236 Z-0.0015
X1.6899 Y4.0195 Z0.0013
X1.691 Y4.0156 Z0.0045
X1.692 Y4.0121 Z0.0082
X1.6929 Y4.009 Z0.0122
X1.6939 Y4.0064 Z0.0165
X1.6948 Y4.0042 Z0.0211
X1.6955 Y4.0025 Z0.0259
X1.696 Y4.0012 Z0.0308
X1.6964 Y4.0005 Z0.0359
X1.6965 Y4.0002 Z0.0411
G0 Z0.45
X0.1246 Y3.6263
Z0.142
G1 Z0.067 F18
Y3.6265 Z0.0605
X0.1247 Y3.6274 Z0.054
X0.1249 Y3.6288 Z0.0476
X0.1251 Y3.6308 Z0.0413
X0.1253 Y3.6333 Z0.0353
X0.1256 Y3.6363 Z0.0295
X0.126 Y3.6398 Z0.024
X0.1264 Y3.6437 Z0.0188
X0.1269 Y3.6481 Z0.014
X0.1274 Y3.6529 Z0.0095
X0.1279 Y3.6581 Z0.0056
X0.1285 Y3.6636 Z0.002
X0.1291 Y3.6693 Z-0.001
X0.1297 Y3.6753 Z-0.0035
X0.1303 Y3.6816 Z-0.0054
X0.131 Y3.6879 Z-0.0069
X0.1317 Y3.6944 Z-0.0077
X0.1324 Y3.7009 Z-0.008
G3 X0.1252 Y3.7494 I-0.0984 J0.0102
G1 X0.1242 Y3.7515 F54
X0.1234 Y3.7529
X0.0908 Y3.7688
X0.0634 Y3.7928
X0.0425 Y3.8225
X0.0281 Y3.8559
X0.0194 Y3.8912
X0.0149 Y3.9273
X0.013 Y3.9636
X0.0123 Y3.9999
X0.012 Y4.218
Y5.7086
Y7.7081
Y7.8536
X0.0217 Y7.8886
X0.0407 Y7.9196
X0.0669 Y7.9447
X0.0808 Y7.953
X0.0945 Y7.9625
X0.1066 Y7.9738
X0.1171 Y7.9868
X0.1255 Y8.0011
X0.1273 Y8.0059 Z-0.0077 F18
X0.129 Y8.0106 Z-0.0069
X0.1307 Y8.0152 Z-0.0056
X0.1324 Y8.0197 Z-0.0038
X0.1332 Y8.0242 Z-0.0015
X0.1341 Y8.0284 Z0.0013
X0.1348 Y8.0324 Z0.0045
X0.1355 Y8.0359 Z0.0082
X0.1361 Y8.0391 Z0.0122
X0.1363 Y8.0419 Z0.0165
X0.1365 Y8.0443 Z0.0211
X0.1367 Y8.0461 Z0.0259
X0.1368 Y8.0475 Z0.0308
Y8.0483 Z0.0359
Y8.0485 Z0.0411
G0 Z0.45
X0.1236 Y3.6284
Z0.142
G1 Z0.067 F18
X0.1237 Y3.6286 Z0.0605
X0.1238 Y3.6295 Z0.054
X0.1239 Y3.6309 Z0.0476
X0.1241 Y3.6329 Z0.0413
X0.1244 Y3.6354 Z0.0353
X0.1247 Y3.6384 Z0.0295
X0.125 Y3.6419 Z0.024
X0.1255 Y3.6458 Z0.0188
X0.1259 Y3.6502 Z0.014
X0.1264 Y3.655 Z0.0095
X0.1269 Y3.6602 Z0.0056
X0.1275 Y3.6657 Z0.002
X0.1281 Y3.6714 Z-0.001
X0.1287 Y3.6774 Z-0.0035
X0.1294 Y3.6837 Z-0.0054
X0.13 Y3.69 Z-0.0069
X0.1307 Y3.6965 Z-0.0077
X0.1314 Y3.703 Z-0.008
G3 X0.1242 Y3.7515 I-0.0984 J0.0102
G1 X0.12 Y3.761 F54
X0.1181 Y3.7651
X0.0906 Y3.7888
X0.0679 Y3.8173
X0.0507 Y3.8493
X0.0387 Y3.8836
X0.0313 Y3.9192
X0.0272 Y3.9553
X0.0253 Y3.9916
X0.0245 Y4.028
X0.024 Y4.1734
Y5.7366
Y7.7362
Y7.8089
X0.0294 Y7.8448
X0.0431 Y7.8785
X0.0632 Y7.9088
X0.0873 Y7.9363
X0.0971 Y7.9446
X0.1053 Y7.9544
X0.1117 Y7.9655
X0.116 Y7.9776
X0.1171 Y7.9826 Z-0.0077 F18
X0.1181 Y7.9875 Z-0.0069
X0.1191 Y7.9923 Z-0.0056
X0.1201 Y7.997 Z-0.0038
X0.1204 Y8.0014 Z-0.0016
X0.1207 Y8.0056 Z0.0011
X0.1209 Y8.0096 Z0.0043
X0.1212 Y8.0131 Z0.0078
X0.121 Y8.0165 Z0.0118
X0.1208 Y8.0194 Z0.0161
X0.1207 Y8.0218 Z0.0208
X0.1206 Y8.0237 Z0.0257
Y8.025 Z0.0307
X0.1205 Y8.0259 Z0.0359
Y8.0262 Z0.0411
G0 Z0.45
X0.1132 Y3.638
Z0.142
G1 Z0.067 F18
X0.1133 Y3.6383 Z0.0605
X0.1134 Y3.6392 Z0.054
X0.1136 Y3.6406 Z0.0476
X0.1139 Y3.6425 Z0.0413
X0.1143 Y3.645 Z0.0353
X0.1148 Y3.648 Z0.0295
X0.1153 Y3.6514 Z0.024
X0.1159 Y3.6554 Z0.0188
X0.1166 Y3.6597 Z0.014
X0.1173 Y3.6645 Z0.0095
X0.1181 Y3.6696 Z0.0056
X0.119 Y3.6751 Z0.002
X0.1199 Y3.6808 Z-0.001
X0.1208 Y3.6868 Z-0.0035
X0.1218 Y3.693 Z-0.0054
X0.1227 Y3.6993 Z-0.0069
X0.1237 Y3.7057 Z-0.0077
X0.1247 Y3.7121 Z-0.008
G3 X0.12 Y3.761 I-0.0977 J0.0153
G1 X0.1158 Y3.7728 F54
X0.1155 Y3.7742
X0.1143 Y3.779
X0.0919 Y3.8076
X0.0732 Y3.8388
X0.059 Y3.8722
X0.0491 Y3.9072
X0.0428 Y3.943
X0.0392 Y3.9792
X0.0374 Y4.0155
X0.0366 Y4.0518
X0.036 Y4.1609
Y5.7605
Y7.7601
X0.0371 Y7.7964
X0.0443 Y7.832
X0.0578 Y7.8658
X0.0766 Y7.8969
X0.092 Y7.9174
X0.0998 Y7.9292
X0.1061 Y7.942
X0.1108 Y7.9554
X0.1138 Y7.9693
X0.1143 Y7.9744 Z-0.0077 F18
X0.1148 Y7.9794 Z-0.0069
X0.1153 Y7.9843 Z-0.0056
X0.1157 Y7.989 Z-0.0038
X0.1158 Y7.9913 Z-0.0028
X0.1154 Y7.996 Z0
X0.115 Y8.0004 Z0.0032
X0.1147 Y8.0044 Z0.0069
X0.1144 Y8.0079 Z0.011
X0.1142 Y8.011 Z0.0155
X0.1137 Y8.0135 Z0.0202
X0.1133 Y8.0155 Z0.0252
X0.1131 Y8.0169 Z0.0304
X0.1129 Y8.0178 Z0.0357
X0.1128 Y8.0181 Z0.0411
G0 Z0.45
X0.0865 Y3.6545
Z0.142
G1 Z0.067 F18
X0.0866 Y3.6548 Z0.0605
X0.0869 Y3.6556 Z0.054
X0.0874 Y3.6569 Z0.0476
X0.088 Y3.6588 Z0.0413
X0.0888 Y3.6611 Z0.0353
X0.0898 Y3.664 Z0.0295
X0.091 Y3.6673 Z0.024
X0.0923 Y3.6711 Z0.0188
X0.0938 Y3.6752 Z0.014
X0.0954 Y3.6798 Z0.0095
X0.0971 Y3.6847 Z0.0056
X0.0989 Y3.6899 Z0.002
X0.1008 Y3.6954 Z-0.001
X0.1028 Y3.7011 Z-0.0035
X0.1049 Y3.707 Z-0.0054
X0.107 Y3.713 Z-0.0069
X0.1091 Y3.7191 Z-0.0077
X0.1113 Y3.7253 Z-0.008
G3 X0.1155 Y3.7742 I-0.0933 J0.0327
G1 X0.1122 Y3.7907 F54
X0.111 Y3.796
X0.0934 Y3.8278
X0.0785 Y3.861
X0.0671 Y3.8955
X0.059 Y3.9309
X0.0539 Y3.9669
X0.0509 Y4.0032
X0.0493 Y4.0395
X0.0486 Y4.0758
X0.048 Y4.2212
Y5.7482
X0.0481 Y7.7477
X0.0504 Y7.784
X0.0578 Y7.8196
X0.0707 Y7.8536
X0.0878 Y7.8856
X0.094 Y7.8961
X0.1016 Y7.9114
X0.1071 Y7.9277
X0.1103 Y7.9445
X0.1105 Y7.9501 Z-0.0077 F18
X0.1108 Y7.9555 Z-0.0068
X0.1104 Y7.9608 Z-0.0052
X0.11 Y7.9659 Z-0.0031
X0.1096 Y7.9707 Z-0.0004
X0.1092 Y7.9752 Z0.0028
X0.1083 Y7.9792 Z0.0065
X0.1074 Y7.9827 Z0.0106
X0.1067 Y7.9858 Z0.0151
X0.1061 Y7.9884 Z0.0199
X0.1056 Y7.9904 Z0.025
X0.1053 Y7.9918 Z0.0302
X0.1051 Y7.9927 Z0.0356
X0.105 Y7.993 Z0.0411
G0 Z0.45
X0.081 Y3.6716
Z0.142
G1 Z0.067 F18
X0.0811 Y3.6719 Z0.0605
X0.0814 Y3.6727 Z0.054
X0.0819 Y3.674 Z0.0476
X0.0826 Y3.6758 Z0.0413
X0.0834 Y3.6782 Z0.0353
X0.0845 Y3.681 Z0.0295
X0.0857 Y3.6843 Z0.024
X0.0871 Y3.688 Z0.0188
X0.0886 Y3.6922 Z0.014
X0.0903 Y3.6967 Z0.0095
X0.0921 Y3.7016 Z0.0056
X0.094 Y3.7067 Z0.002
X0.0961 Y3.7122 Z-0.001
X0.0982 Y3.7179 Z-0.0035
X0.1003 Y3.7237 Z-0.0054
X0.1026 Y3.7297 Z-0.0069
X0.1048 Y3.7358 Z-0.0077
X0.1071 Y3.7419 Z-0.008
G3 X0.1122 Y3.7907 I-0.0927 J0.0344
G1 X0.1109 Y3.799 F54
X0.1106 Y3.8059
X0.1101 Y3.8112
X0.0976 Y3.8454
X0.0857 Y3.8797
X0.0763 Y3.9148
X0.0696 Y3.9506
X0.0653 Y3.9867
X0.0627 Y4.0229
X0.0613 Y4.0593
X0.0603 Y4.132
X0.06 Y4.8591
Y5.7679
Y7.6948
X0.0602 Y7.7311
X0.0627 Y7.7674
X0.0694 Y7.8031
X0.0809 Y7.8376
X0.0999 Y7.8801
X0.1054 Y7.8951
X0.1088 Y7.9107
X0.1101 Y7.9266
X0.1096 Y7.9316 Z-0.0077 F18
X0.109 Y7.9367 Z-0.0069
X0.1085 Y7.9415 Z-0.0056
X0.108 Y7.9463 Z-0.0038
X0.1069 Y7.9507 Z-0.0015
X0.1057 Y7.9549 Z0.0013
X0.1047 Y7.9588 Z0.0045
X0.1038 Y7.9623 Z0.0082
X0.1029 Y7.9654 Z0.0122
X0.1019 Y7.968 Z0.0165
X0.101 Y7.9702 Z0.0211
X0.1003 Y7.9719 Z0.0259
X0.0998 Y7.9732 Z0.0308
X0.0995 Y7.9739 Z0.0359
X0.0994 Y7.9742 Z0.0411
G0 Z0.45
X0.0629 Y3.6923
Z0.142
G1 Z0.067 F18
X0.063 Y3.6926 Z0.0605
X0.0634 Y3.6933 Z0.054
X0.0641 Y3.6946 Z0.0476
X0.065 Y3.6963 Z0.0413
X0.0662 Y3.6985 Z0.0353
X0.0677 Y3.7012 Z0.0295
X0.0693 Y3.7043 Z0.024
X0.0712 Y3.7078 Z0.0188
X0.0734 Y3.7117 Z0.014
X0.0757 Y3.7159 Z0.0095
X0.0781 Y3.7205 Z0.0056
X0.0808 Y3.7253 Z0.002
X0.0835 Y3.7304 Z-0.001
X0.0864 Y3.7357 Z-0.0035
X0.0894 Y3.7412 Z-0.0054
X0.0924 Y3.7468 Z-0.0069
X0.0955 Y3.7525 Z-0.0077
X0.0986 Y3.7583 Z-0.008
G3 X0.1105 Y3.8059 I-0.0869 J0.0471
G1 X0.11 Y3.8249 F54
X0.1097 Y3.8303
X0.0909 Y3.9082
X0.084 Y3.9439
X0.0791 Y3.9799
X0.0759 Y4.0162
X0.074 Y4.0525
X0.073 Y4.0888
X0.0722 Y4.1615
X0.072 Y5.7975
Y7.688
X0.0728 Y7.7243
X0.0759 Y7.7605
X0.083 Y7.7962
X0.0939 Y7.8308
X0.1032 Y7.8555
X0.107 Y7.8682
X0.1092 Y7.8813
X0.11 Y7.8946
X0.1094 Y7.8997 Z-0.0077 F18
X0.1088 Y7.9047 Z-0.0069
X0.1083 Y7.9096 Z-0.0056
X0.1077 Y7.9143 Z-0.0038
X0.1065 Y7.9187 Z-0.0015
X0.1053 Y7.9229 Z0.0013
X0.1043 Y7.9267 Z0.0045
X0.1033 Y7.9303 Z0.0082
X0.1024 Y7.9334 Z0.0122
X0.1013 Y7.936 Z0.0165
X0.1004 Y7.9382 Z0.0211
X0.0997 Y7.9399 Z0.0259
X0.0992 Y7.9411 Z0.0308
X0.0989 Y7.9419 Z0.0359
X0.0988 Y7.9421 Z0.0411
G0 Z0.45
X0.0578 Y3.7133
Z0.142
G1 Z0.067 F18
X0.058 Y3.7136 Z0.0605
X0.0584 Y3.7143 Z0.054
X0.0591 Y3.7155 Z0.0476
X0.0601 Y3.7172 Z0.0413
X0.0614 Y3.7194 Z0.0353
X0.063 Y3.722 Z0.0295
X0.0648 Y3.725 Z0.024
X0.0668 Y3.7284 Z0.0188
X0.0691 Y3.7322 Z0.014
X0.0715 Y3.7364 Z0.0095
X0.0742 Y3.7408 Z0.0056
X0.077 Y3.7456 Z0.002
X0.08 Y3.7505 Z-0.001
X0.0831 Y3.7557 Z-0.0035
X0.0862 Y3.7611 Z-0.0054
X0.0895 Y3.7666 Z-0.0069
X0.0928 Y3.7722 Z-0.0077
X0.0962 Y3.7778 Z-0.008
G3 X0.11 Y3.8249 I-0.0851 J0.0505
G1 Y3.8485 F54
X0.1092 Y3.8595
X0.1058 Y3.8857
X0.0946 Y3.9575
X0.0904 Y3.9936
X0.0877 Y4.0299
X0.086 Y4.0662
X0.085 Y4.1025
X0.0842 Y4.1752
X0.084 Y5.4477
Y5.8476
Y7.6653
X0.0845 Y7.7017
X0.0869 Y7.738
X0.0925 Y7.7739
X0.1014 Y7.8091
X0.107 Y7.8272
X0.1097 Y7.8372
X0.11 Y7.8405
Y7.8946
X0.1094 Y7.8997 Z-0.0077 F18
X0.1088 Y7.9047 Z-0.0069
X0.1083 Y7.9096 Z-0.0056
X0.1077 Y7.9143 Z-0.0038
X0.1065 Y7.9187 Z-0.0015
X0.1053 Y7.9229 Z0.0013
X0.1043 Y7.9267 Z0.0045
X0.1033 Y7.9303 Z0.0082
X0.1024 Y7.9334 Z0.0122
X0.1013 Y7.936 Z0.0165
X0.1004 Y7.9382 Z0.0211
X0.0997 Y7.9399 Z0.0259
X0.0992 Y7.9411 Z0.0308
X0.0989 Y7.9419 Z0.0359
X0.0988 Y7.9421 Z0.0411
G0 Z0.45
X0.0578 Y3.737
Z0.142
G1 Z0.067 F18
X0.058 Y3.7372 Z0.0605
X0.0584 Y3.738 Z0.054
X0.0591 Y3.7392 Z0.0476
X0.0601 Y3.7409 Z0.0413
X0.0614 Y3.743 Z0.0353
X0.063 Y3.7456 Z0.0295
X0.0648 Y3.7486 Z0.024
X0.0668 Y3.7521 Z0.0188
X0.0691 Y3.7559 Z0.014
X0.0715 Y3.76 Z0.0095
X0.0742 Y3.7645 Z0.0056
X0.077 Y3.7692 Z0.002
X0.08 Y3.7742 Z-0.001
X0.0831 Y3.7794 Z-0.0035
X0.0862 Y3.7848 Z-0.0054
X0.0895 Y3.7903 Z-0.0069
X0.0928 Y3.7958 Z-0.0077
X0.0962 Y3.8015 Z-0.008
G3 X0.11 Y3.8485 I-0.0851 J0.0505
G1 Y3.893 F54
X0.1086 Y3.9219
X0.1059 Y3.9582
X0.1027 Y3.9944
X0.1001 Y4.0306
X0.0984 Y4.0669
X0.0973 Y4.1033
X0.0963 Y4.176
X0.096 Y4.5395
Y5.8847
X0.0962 Y7.6661
X0.0972 Y7.7024
X0.1005 Y7.7386
X0.1085 Y7.7835
X0.1096 Y7.7927
X0.11 Y7.8019
Y7.8405
X0.1094 Y7.8455 Z-0.0077 F18
X0.1088 Y7.8505 Z-0.0069
X0.1083 Y7.8554 Z-0.0056
X0.1077 Y7.8602 Z-0.0038
X0.1065 Y7.8646 Z-0.0015
X0.1053 Y7.8687 Z0.0013
X0.1043 Y7.8726 Z0.0045
X0.1033 Y7.8761 Z0.0082
X0.1024 Y7.8792 Z0.0122
X0.1013 Y7.8818 Z0.0165
X0.1004 Y7.884 Z0.0211
X0.0997 Y7.8857 Z0.0259
X0.0992 Y7.887 Z0.0308
X0.0989 Y7.8877 Z0.0359
X0.0988 Y7.888 Z0.0411
G0 Z0.45
X0.0578 Y3.7815
Z0.142
G1 Z0.067 F18
X0.058 Y3.7817 Z0.0605
X0.0584 Y3.7824 Z0.054
X0.0591 Y3.7837 Z0.0476
X0.0601 Y3.7853 Z0.0413
X0.0614 Y3.7875 Z0.0353
X0.063 Y3.7901 Z0.0295
X0.0648 Y3.7931 Z0.024
X0.0668 Y3.7965 Z0.0188
X0.0691 Y3.8003 Z0.014
X0.0715 Y3.8045 Z0.0095
X0.0742 Y3.8089 Z0.0056
X0.077 Y3.8137 Z0.002
X0.08 Y3.8187 Z-0.001
X0.0831 Y3.8239 Z-0.0035
X0.0862 Y3.8292 Z-0.0054
X0.0895 Y3.8347 Z-0.0069
X0.0928 Y3.8403 Z-0.0077
X0.0962 Y3.8459 Z-0.008
G3 X0.11 Y3.893 I-0.0851 J0.0506
G1 Y4.0289 F54
X0.1082 Y4.0652
X0.1088 Y4.101
X0.1081 Y4.2828
X0.108 Y6.0278
X0.1081 Y7.6274
X0.1084 Y7.6638
X0.11 Y7.7023
Y7.8019
X0.1094 Y7.8069 Z-0.0077 F18
X0.1088 Y7.8119 Z-0.0069
X0.1083 Y7.8168 Z-0.0056
X0.1077 Y7.8216 Z-0.0038
X0.1065 Y7.826 Z-0.0015
X0.1053 Y7.8301 Z0.0013
X0.1043 Y7.834 Z0.0045
X0.1033 Y7.8375 Z0.0082
X0.1024 Y7.8406 Z0.0122
X0.1013 Y7.8432 Z0.0165
X0.1004 Y7.8454 Z0.0211
X0.0997 Y7.8471 Z0.0259
X0.0992 Y7.8484 Z0.0308
X0.0989 Y7.8491 Z0.0359
X0.0988 Y7.8494 Z0.0411
G0 Z0.45
X0.0578 Y3.9173
Z0.142
G1 Z0.067 F18
X0.058 Y3.9176 Z0.0605
X0.0584 Y3.9183 Z0.054
X0.0591 Y3.9195 Z0.0476
X0.0601 Y3.9212 Z0.0413
X0.0614 Y3.9234 Z0.0353
X0.063 Y3.926 Z0.0295
X0.0648 Y3.929 Z0.024
X0.0668 Y3.9324 Z0.0188
X0.0691 Y3.9362 Z0.014
X0.0715 Y3.9404 Z0.0095
X0.0742 Y3.9448 Z0.0056
X0.077 Y3.9496 Z0.002
X0.08 Y3.9546 Z-0.001
X0.0831 Y3.9598 Z-0.0035
X0.0862 Y3.9651 Z-0.0054
X0.0895 Y3.9706 Z-0.0069
X0.0928 Y3.9762 Z-0.0077
X0.0962 Y3.9818 Z-0.008
G3 X0.11 Y4.0289 I-0.0851 J0.0506
G1 Y7.7023 F54
X0.1094 Y7.7074 Z-0.0077 F18
X0.1088 Y7.7124 Z-0.0069
X0.1083 Y7.7173 Z-0.0056
X0.1077 Y7.722 Z-0.0038
X0.1065 Y7.7264 Z-0.0015
X0.1053 Y7.7306 Z0.0013
X0.1043 Y7.7344 Z0.0045
X0.1033 Y7.738 Z0.0082
X0.1024 Y7.7411 Z0.0122
X0.1013 Y7.7437 Z0.0165
X0.1004 Y7.7459 Z0.0211
X0.0997 Y7.7476 Z0.0259
X0.0992 Y7.7488 Z0.0308
X0.0989 Y7.7496 Z0.0359
X0.0988 Y7.7498 Z0.0411
G0 Z0.45
X3.5425 Y8.1241
Z0.142
G1 Z0.067 F18
Y8.1239 Z0.0605
X3.5424 Y8.123 Z0.054
X3.5423 Y8.1216 Z0.0476
X3.5422 Y8.1196 Z0.0413
X3.542 Y8.1171 Z0.0353
X3.5417 Y8.1141 Z0.0295
X3.5414 Y8.1106 Z0.024
X3.5411 Y8.1066 Z0.0188
X3.5408 Y8.1022 Z0.014
X3.5404 Y8.0974 Z0.0095
X3.54 Y8.0923 Z0.0056
X3.5395 Y8.0868 Z0.002
X3.5391 Y8.081 Z-0.001
X3.5386 Y8.0749 Z-0.0035
X3.5381 Y8.0687 Z-0.0054
X3.5376 Y8.0624 Z-0.0069
X3.5371 Y8.0559 Z-0.0077
X3.5365 Y8.0494 Z-0.008
G3 X3.5449 Y8.001 I0.0986 J-0.0079
G1 X3.5459 Y7.9989 F54
X3.5466 Y7.9976
X3.5793 Y7.9817
X3.6067 Y7.9578
X3.6277 Y7.9281
X3.6422 Y7.8948
X3.6509 Y7.8595
X3.6553 Y7.8234
X3.6572 Y7.7871
X3.6579 Y7.7507
X3.6583 Y7.5326
Y6.042
Y4.0425
Y3.8971
X3.6488 Y3.862
X3.6299 Y3.8309
X3.6038 Y3.8057
X3.5881 Y3.7962
X3.5746 Y3.7867
X3.5627 Y3.7754
X3.5526 Y3.7624
X3.5444 Y3.748
X3.5425 Y3.7434 Z-0.0077 F18
X3.5405 Y3.7387 Z-0.0069
X3.5386 Y3.7342 Z-0.0056
X3.5368 Y3.7298 Z-0.0038
X3.5357 Y3.7253 Z-0.0015
X3.5346 Y3.7211 Z0.0013
X3.5337 Y3.7172 Z0.0045
X3.5328 Y3.7137 Z0.0082
X3.5321 Y3.7105 Z0.0122
X3.5317 Y3.7078 Z0.0165
X3.5314 Y3.7054 Z0.0211
X3.5312 Y3.7036 Z0.0259
X3.531 Y3.7023 Z0.0308
X3.5309 Y3.7015 Z0.0359
Y3.7012 Z0.0411
G0 Z0.45
X3.5436 Y8.122
Z0.142
G1 Z0.067 F18
X3.5435 Y8.1217 Z0.0605
Y8.1209 Z0.054
X3.5434 Y8.1195 Z0.0476
X3.5432 Y8.1175 Z0.0413
X3.543 Y8.115 Z0.0353
X3.5428 Y8.112 Z0.0295
X3.5425 Y8.1085 Z0.024
X3.5422 Y8.1045 Z0.0188
X3.5418 Y8.1001 Z0.014
X3.5414 Y8.0953 Z0.0095
X3.541 Y8.0902 Z0.0056
X3.5406 Y8.0847 Z0.002
X3.5401 Y8.0789 Z-0.001
X3.5396 Y8.0728 Z-0.0035
X3.5391 Y8.0666 Z-0.0054
X3.5386 Y8.0603 Z-0.0069
X3.5381 Y8.0538 Z-0.0077
X3.5376 Y8.0473 Z-0.008
G3 X3.5459 Y7.9989 I0.0986 J-0.0079
G1 X3.5503 Y7.9892 F54
X3.5513 Y7.9865
X3.5789 Y7.9628
X3.6017 Y7.9345
X3.6191 Y7.9026
X3.6313 Y7.8683
X3.6388 Y7.8327
X3.6429 Y7.7966
X3.6449 Y7.7603
X3.6458 Y7.724
X3.6463 Y7.6149
Y6.0153
Y4.0158
Y3.943
X3.6414 Y3.907
X3.628 Y3.8732
X3.6082 Y3.8427
X3.5843 Y3.8153
X3.5794 Y3.8118
X3.5706 Y3.8039
X3.5633 Y3.7946
X3.5579 Y3.7841
X3.5545 Y3.7728
X3.5536 Y3.7678 Z-0.0077 F18
X3.5527 Y3.7629 Z-0.0069
X3.5518 Y3.758 Z-0.0056
X3.551 Y3.7533 Z-0.0038
X3.5508 Y3.749 Z-0.0016
X3.5506 Y3.7449 Z0.001
X3.5504 Y3.741 Z0.004
X3.5506 Y3.7373 Z0.0076
X3.5508 Y3.7339 Z0.0117
X3.551 Y3.731 Z0.016
X3.5512 Y3.7286 Z0.0207
X3.5513 Y3.7266 Z0.0256
X3.5514 Y3.7253 Z0.0307
X3.5515 Y3.7244 Z0.0358
Y3.7241 Z0.0411
G0 Z0.45
X3.5649 Y8.1115
Z0.142
G1 Z0.067 F18
Y8.1112 Z0.0605
X3.5647 Y8.1104 Z0.054
X3.5644 Y8.109 Z0.0476
X3.5639 Y8.1071 Z0.0413
X3.5634 Y8.1046 Z0.0353
X3.5627 Y8.1017 Z0.0295
X3.562 Y8.0982 Z0.024
X3.5611 Y8.0943 Z0.0188
X3.5602 Y8.09 Z0.014
X3.5591 Y8.0853 Z0.0095
X3.558 Y8.0802 Z0.0056
X3.5568 Y8.0749 Z0.002
X3.5555 Y8.0692 Z-0.001
X3.5542 Y8.0633 Z-0.0035
X3.5529 Y8.0572 Z-0.0054
X3.5515 Y8.051 Z-0.0069
X3.5501 Y8.0446 Z-0.0077
X3.5487 Y8.0382 Z-0.008
G3 X3.5503 Y7.9892 I0.0965 J-0.0214
G1 X3.5544 Y7.9762 F54
X3.5554 Y7.9735
X3.5777 Y7.9448
X3.5964 Y7.9136
X3.6108 Y7.8802
X3.6209 Y7.8453
X3.6273 Y7.8095
X3.6309 Y7.7733
X3.6328 Y7.737
X3.6337 Y7.7007
X3.6342 Y7.5916
X3.6343 Y5.992
Y3.9925
X3.6334 Y3.9561
X3.6266 Y3.9204
X3.6135 Y3.8865
X3.5948 Y3.8553
X3.5791 Y3.8348
X3.5695 Y3.82
X3.5621 Y3.8039
X3.5573 Y3.7869
X3.5569 Y3.7818 Z-0.0077 F18
X3.5564 Y3.7768 Z-0.0069
X3.556 Y3.7719 Z-0.0056
X3.5556 Y3.7671 Z-0.0038
Y3.7664 Z-0.0035
X3.556 Y3.7617 Z-0.001
X3.5563 Y3.7574 Z0.0019
X3.5566 Y3.7534 Z0.0053
X3.5569 Y3.7498 Z0.0091
X3.5572 Y3.7466 Z0.0132
X3.5577 Y3.7441 Z0.0174
X3.5581 Y3.7419 Z0.0219
X3.5584 Y3.7403 Z0.0265
X3.5587 Y3.7391 Z0.0313
X3.5588 Y3.7384 Z0.0362
X3.5589 Y3.7381 Z0.0411
G0 Z0.45
X3.5721 Y8.0981
Z0.142
G1 Z0.067 F18
X3.572 Y8.0978 Z0.0605
X3.5718 Y8.097 Z0.054
X3.5715 Y8.0956 Z0.0476
X3.571 Y8.0937 Z0.0413
X3.5704 Y8.0913 Z0.0353
X3.5697 Y8.0883 Z0.0295
X3.5688 Y8.0849 Z0.024
X3.5679 Y8.0811 Z0.0188
X3.5668 Y8.0768 Z0.014
X3.5656 Y8.0721 Z0.0095
X3.5644 Y8.0671 Z0.0056
X3.563 Y8.0617 Z0.002
X3.5617 Y8.0561 Z-0.001
X3.5602 Y8.0502 Z-0.0035
X3.5587 Y8.0441 Z-0.0054
X3.5572 Y8.0379 Z-0.0069
X3.5556 Y8.0316 Z-0.0077
X3.554 Y8.0253 Z-0.008
G3 X3.5544 Y7.9762 I0.096 J-0.0238
G1 X3.5567 Y7.968 F54
X3.5577 Y7.9611
X3.5586 Y7.9565
X3.5762 Y7.9247
X3.5912 Y7.8916
X3.6028 Y7.8571
X3.6109 Y7.8217
X3.6162 Y7.7857
X3.6193 Y7.7495
X3.6209 Y7.7132
X3.6217 Y7.6768
X3.6222 Y7.5677
X3.6223 Y5.9681
X3.6222 Y4.0049
X3.6202 Y3.9686
X3.6131 Y3.933
X3.6004 Y3.8989
X3.5834 Y3.8668
X3.5756 Y3.8536
X3.569 Y3.8408
X3.5641 Y3.8272
X3.5608 Y3.8131
X3.5594 Y3.7987
Y3.7981 F18
X3.5598 Y3.7931 Z-0.0077
X3.5602 Y3.788 Z-0.0068
X3.5606 Y3.7831 Z-0.0054
X3.5609 Y3.7784 Z-0.0036
X3.562 Y3.7739 Z-0.0012
X3.5631 Y3.7697 Z0.0017
X3.564 Y3.7658 Z0.0051
X3.5649 Y3.7623 Z0.0088
X3.5656 Y3.7592 Z0.0129
X3.5665 Y3.7567 Z0.0171
X3.5673 Y3.7546 Z0.0216
X3.5679 Y3.7529 Z0.0263
X3.5683 Y3.7518 Z0.0312
X3.5686 Y3.7511 Z0.0361
X3.5687 Y3.7508 Z0.0411
G0 Z0.45
X3.5927 Y8.0792
Z0.142
G1 Z0.067 F18
X3.5926 Y8.0789 Z0.0605
X3.5923 Y8.0781 Z0.054
X3.5917 Y8.0768 Z0.0476
X3.591 Y8.075 Z0.0413
X3.59 Y8.0727 Z0.0353
X3.5889 Y8.0699 Z0.0295
X3.5876 Y8.0666 Z0.024
X3.5861 Y8.0629 Z0.0188
X3.5844 Y8.0588 Z0.014
X3.5826 Y8.0543 Z0.0095
X3.5806 Y8.0495 Z0.0056
X3.5785 Y8.0444 Z0.002
X3.5763 Y8.0391 Z-0.001
X3.5741 Y8.0335 Z-0.0035
X3.5717 Y8.0277 Z-0.0054
X3.5693 Y8.0218 Z-0.0069
X3.5668 Y8.0158 Z-0.0077
X3.5644 Y8.0097 Z-0.008
G3 X3.5577 Y7.9611 I0.0916 J-0.0373
G1 X3.56 Y7.9432 F54
X3.5602 Y7.9405
X3.5844 Y7.8719
X3.5938 Y7.8368
X3.6005 Y7.8011
X3.6049 Y7.765
X3.6075 Y7.7287
X3.609 Y7.6924
X3.61 Y7.6197
X3.6103 Y6.9653
Y5.9474
Y4.0569
X3.61 Y4.0206
X3.6077 Y3.9843
X3.6011 Y3.9485
X3.5897 Y3.914
X3.5708 Y3.8718
X3.565 Y3.8562
X3.5615 Y3.84
X3.5603 Y3.8234
X3.5609 Y3.8184 Z-0.0077 F18
X3.5614 Y3.8134 Z-0.0069
X3.562 Y3.8085 Z-0.0056
X3.5625 Y3.8037 Z-0.0038
X3.5638 Y3.7993 Z-0.0015
X3.5649 Y3.7952 Z0.0013
X3.566 Y3.7913 Z0.0045
X3.567 Y3.7878 Z0.0082
X3.5679 Y3.7847 Z0.0122
X3.5689 Y3.7821 Z0.0165
X3.5698 Y3.7799 Z0.0211
X3.5705 Y3.7782 Z0.0259
X3.571 Y3.7769 Z0.0308
X3.5714 Y3.7762 Z0.0359
X3.5715 Y3.7759 Z0.0411
G0 Z0.45
X3.6107 Y8.0554
Z0.142
G1 Z0.067 F18
X3.6106 Y8.0551 Z0.0605
X3.6102 Y8.0544 Z0.054
X3.6095 Y8.0532 Z0.0476
X3.6085 Y8.0515 Z0.0413
X3.6072 Y8.0493 Z0.0353
X3.6057 Y8.0467 Z0.0295
X3.6039 Y8.0436 Z0.024
X3.602 Y8.0402 Z0.0188
X3.5997 Y8.0364 Z0.014
X3.5973 Y8.0322 Z0.0095
X3.5947 Y8.0277 Z0.0056
X3.592 Y8.0229 Z0.002
X3.5891 Y8.0179 Z-0.001
X3.5861 Y8.0127 Z-0.0035
X3.5829 Y8.0073 Z-0.0054
X3.5797 Y8.0017 Z-0.0069
X3.5765 Y7.9961 Z-0.0077
X3.5732 Y7.9904 Z-0.008
G3 X3.56 Y7.9432 I0.0857 J-0.0494
G1 X3.5602 Y7.9255 F54
X3.5605 Y7.9201
X3.5633 Y7.908
X3.5805 Y7.8374
X3.5871 Y7.8016
X3.5917 Y7.7656
X3.5947 Y7.7293
X3.5964 Y7.693
X3.5974 Y7.6567
X3.5981 Y7.584
X3.5983 Y5.948
X3.5982 Y4.0575
X3.5973 Y4.0212
X3.5937 Y3.985
X3.586 Y3.9495
X3.5745 Y3.915
X3.5671 Y3.8955
X3.5633 Y3.8826
X3.561 Y3.8694
X3.5603 Y3.8561
X3.5609 Y3.851 Z-0.0077 F18
X3.5614 Y3.846 Z-0.0069
X3.562 Y3.8411 Z-0.0056
X3.5625 Y3.8364 Z-0.0038
X3.5638 Y3.832 Z-0.0015
X3.5649 Y3.8278 Z0.0013
X3.566 Y3.824 Z0.0045
X3.567 Y3.8205 Z0.0082
X3.5679 Y3.8173 Z0.0122
X3.5689 Y3.8147 Z0.0165
X3.5698 Y3.8126 Z0.0211
X3.5705 Y3.8108 Z0.0259
X3.571 Y3.8096 Z0.0308
X3.5714 Y3.8089 Z0.0359
X3.5715 Y3.8086 Z0.0411
G0 Z0.45
X3.6111 Y8.0377
Z0.142
G1 Z0.067 F18
X3.6109 Y8.0374 Z0.0605
X3.6105 Y8.0367 Z0.054
X3.6098 Y8.0355 Z0.0476
X3.6088 Y8.0338 Z0.0413
X3.6076 Y8.0316 Z0.0353
X3.6061 Y8.029 Z0.0295
X3.6043 Y8.0259 Z0.024
X3.6023 Y8.0225 Z0.0188
X3.6001 Y8.0187 Z0.014
X3.5977 Y8.0145 Z0.0095
X3.5951 Y8.01 Z0.0056
X3.5923 Y8.0052 Z0.002
X3.5894 Y8.0002 Z-0.001
X3.5864 Y7.995 Z-0.0035
X3.5832 Y7.9896 Z-0.0054
X3.58 Y7.9841 Z-0.0069
X3.5768 Y7.9784 Z-0.0077
X3.5735 Y7.9728 Z-0.008
G3 X3.5602 Y7.9255 I0.0856 J-0.0496
G1 X3.5603 Y7.9032 F54
X3.5618 Y7.8853
X3.5637 Y7.8709
X3.5748 Y7.7991
X3.5792 Y7.763
X3.5821 Y7.7267
X3.584 Y7.6904
X3.5851 Y7.6541
X3.586 Y7.5814
X3.5863 Y7.0361
Y5.9091
X3.5862 Y4.0913
X3.5859 Y4.0549
X3.584 Y4.0186
X3.5791 Y3.9826
X3.5706 Y3.9473
X3.5635 Y3.9243
X3.5607 Y3.9138
X3.5603 Y3.9094
Y3.8561
X3.5609 Y3.851 Z-0.0077 F18
X3.5614 Y3.846 Z-0.0069
X3.562 Y3.8411 Z-0.0056
X3.5625 Y3.8364 Z-0.0038
X3.5638 Y3.832 Z-0.0015
X3.5649 Y3.8278 Z0.0013
X3.566 Y3.824 Z0.0045
X3.567 Y3.8205 Z0.0082
X3.5679 Y3.8173 Z0.0122
X3.5689 Y3.8147 Z0.0165
X3.5698 Y3.8126 Z0.0211
X3.5705 Y3.8108 Z0.0259
X3.571 Y3.8096 Z0.0308
X3.5714 Y3.8089 Z0.0359
X3.5715 Y3.8086 Z0.0411
G0 Z0.45
X3.6124 Y8.0148
Z0.142
G1 Z0.067 F18
X3.6123 Y8.0146 Z0.0605
X3.6119 Y8.0138 Z0.054
X3.6111 Y8.0126 Z0.0476
X3.6101 Y8.0109 Z0.0413
X3.6088 Y8.0088 Z0.0353
X3.6073 Y8.0062 Z0.0295
X3.6055 Y8.0032 Z0.024
X3.6035 Y7.9997 Z0.0188
X3.6012 Y7.9959 Z0.014
X3.5987 Y7.9918 Z0.0095
X3.5961 Y7.9873 Z0.0056
X3.5933 Y7.9826 Z0.002
X3.5903 Y7.9776 Z-0.001
X3.5872 Y7.9724 Z-0.0035
X3.584 Y7.967 Z-0.0054
X3.5808 Y7.9615 Z-0.0069
X3.5774 Y7.956 Z-0.0077
X3.5741 Y7.9503 Z-0.008
G3 X3.5603 Y7.9032 I0.085 J-0.0505
G1 Y7.8574 F54
X3.5618 Y7.8275
X3.5644 Y7.7912
X3.5676 Y7.755
X3.5702 Y7.7187
X3.5719 Y7.6824
X3.573 Y7.6461
X3.5739 Y7.5734
X3.5743 Y7.2098
Y5.8647
X3.5741 Y4.0833
X3.5731 Y4.047
X3.5697 Y4.0108
X3.5617 Y3.9664
X3.5606 Y3.9577
X3.5603 Y3.949
Y3.9094
X3.5609 Y3.9043 Z-0.0077 F18
X3.5614 Y3.8993 Z-0.0069
X3.562 Y3.8944 Z-0.0056
X3.5625 Y3.8897 Z-0.0038
X3.5638 Y3.8853 Z-0.0015
X3.5649 Y3.8811 Z0.0013
X3.566 Y3.8772 Z0.0045
X3.567 Y3.8737 Z0.0082
X3.5679 Y3.8706 Z0.0122
X3.5689 Y3.868 Z0.0165
X3.5698 Y3.8658 Z0.0211
X3.5705 Y3.8641 Z0.0259
X3.571 Y3.8629 Z0.0308
X3.5714 Y3.8621 Z0.0359
X3.5715 Y3.8619 Z0.0411
G0 Z0.45
X3.6124 Y7.969
Z0.142
G1 Z0.067 F18
X3.6123 Y7.9687 Z0.0605
X3.6119 Y7.968 Z0.054
X3.6111 Y7.9668 Z0.0476
X3.6101 Y7.9651 Z0.0413
X3.6088 Y7.9629 Z0.0353
X3.6073 Y7.9603 Z0.0295
X3.6055 Y7.9573 Z0.024
X3.6035 Y7.9539 Z0.0188
X3.6012 Y7.9501 Z0.014
X3.5987 Y7.9459 Z0.0095
X3.5961 Y7.9415 Z0.0056
X3.5933 Y7.9367 Z0.002
X3.5903 Y7.9317 Z-0.001
X3.5872 Y7.9265 Z-0.0035
X3.584 Y7.9212 Z-0.0054
X3.5808 Y7.9157 Z-0.0069
X3.5774 Y7.9101 Z-0.0077
X3.5741 Y7.9045 Z-0.008
G3 X3.5602 Y7.8574 I0.085 J-0.0506
G1 X3.5603 Y7.7215 F54
X3.5621 Y7.6852
X3.5615 Y7.6501
X3.5622 Y7.432
X3.5623 Y5.7233
X3.5622 Y4.1237
X3.5619 Y4.0873
X3.5603 Y4.0464
Y3.949
X3.5609 Y3.944 Z-0.0077 F18
X3.5614 Y3.939 Z-0.0069
X3.562 Y3.9341 Z-0.0056
X3.5625 Y3.9293 Z-0.0038
X3.5638 Y3.9249 Z-0.0015
X3.5649 Y3.9208 Z0.0013
X3.566 Y3.9169 Z0.0045
X3.567 Y3.9134 Z0.0082
X3.5679 Y3.9103 Z0.0122
X3.5689 Y3.9077 Z0.0165
X3.5698 Y3.9055 Z0.0211
X3.5705 Y3.9038 Z0.0259
X3.571 Y3.9025 Z0.0308
X3.5714 Y3.9018 Z0.0359
X3.5715 Y3.9015 Z0.0411
G0 Z0.45
X3.6124 Y7.8331
Z0.142
G1 Z0.067 F18
X3.6123 Y7.8328 Z0.0605
X3.6119 Y7.8321 Z0.054
X3.6111 Y7.8309 Z0.0476
X3.6101 Y7.8292 Z0.0413
X3.6088 Y7.827 Z0.0353
X3.6073 Y7.8244 Z0.0295
X3.6055 Y7.8214 Z0.024
X3.6035 Y7.818 Z0.0188
X3.6012 Y7.8142 Z0.014
X3.5987 Y7.81 Z0.0095
X3.5961 Y7.8056 Z0.0056
X3.5933 Y7.8008 Z0.002
X3.5903 Y7.7958 Z-0.001
X3.5872 Y7.7907 Z-0.0035
X3.584 Y7.7853 Z-0.0054
X3.5808 Y7.7798 Z-0.0069
X3.5774 Y7.7742 Z-0.0077
X3.5741 Y7.7686 Z-0.008
G3 X3.5603 Y7.7215 I0.085 J-0.0505
G1 Y4.0464 F54
G3 X3.5715 Y3.9989 I0.1249 J0.0043 F18
G1 X3.5742 Y3.9929 Z-0.0077
X3.5769 Y3.987 Z-0.0069
X3.5795 Y3.9812 Z-0.0054
X3.5821 Y3.9755 Z-0.0035
X3.5846 Y3.97 Z-0.001
X3.587 Y3.9648 Z0.002
X3.5893 Y3.9597 Z0.0056
X3.5914 Y3.955 Z0.0095
X3.5934 Y3.9506 Z0.014
X3.5953 Y3.9466 Z0.0188
X3.5969 Y3.943 Z0.024
X3.5984 Y3.9398 Z0.0295
X3.5996 Y3.937 Z0.0353
X3.6007 Y3.9347 Z0.0413
X3.6015 Y3.933 Z0.0476
X3.6021 Y3.9317 Z0.054
X3.6024 Y3.9309 Z0.0605
X3.6026 Y3.9306 Z0.067
G0 Z0.45
X3.6263 Y5.9998
Z0.142
G1 Z0.067 F18
X3.6265 Z0.0605
X3.6274 Y5.9997 Z0.054
X3.6288 Y5.9996 Z0.0476
X3.6308 Y5.9994 Z0.0413
X3.6333 Y5.9991 Z0.0353
X3.6363 Y5.9988 Z0.0295
X3.6398 Y5.9985 Z0.024
X3.6437 Y5.9981 Z0.0188
X3.6481 Y5.9976 Z0.014
X3.6529 Y5.9972 Z0.0095
X3.6581 Y5.9966 Z0.0056
X3.6636 Y5.9961 Z0.002
X3.6694 Y5.9955 Z-0.001
X3.6754 Y5.9949 Z-0.0035
X3.6816 Y5.9943 Z-0.0054
X3.6879 Y5.9937 Z-0.0069
X3.6944 Y5.993 Z-0.0077
X3.7009 Y5.9924 Z-0.008
G3 X3.7494 Y5.9998 I0.0098 J0.0984
G1 X3.7515 Y6.0008 F54
X3.7529 Y6.0015
X3.7688 Y6.0342
X3.7928 Y6.0616
X3.8225 Y6.0825
X3.8558 Y6.0969
X3.8911 Y6.1056
X3.9272 Y6.1101
X3.9635 Y6.112
X3.9999 Y6.1127
X4.218 Y6.113
X5.7086
X7.7081
X7.8535
X7.8886 Y6.1033
X7.9196 Y6.0843
X7.9447 Y6.0581
X7.953 Y6.0442
X7.9625 Y6.0306
X7.9738 Y6.0184
X7.9868 Y6.008
X8.001 Y5.9995
X8.0058 Y5.9978 Z-0.0077 F18
X8.0106 Y5.9961 Z-0.0069
X8.0152 Y5.9944 Z-0.0056
X8.0196 Y5.9927 Z-0.0038
X8.0242 Y5.9919 Z-0.0015
X8.0284 Y5.991 Z0.0013
X8.0323 Y5.9903 Z0.0045
X8.0359 Y5.9896 Z0.0082
X8.0391 Y5.989 Z0.0122
X8.0419 Y5.9887 Z0.0165
X8.0442 Y5.9886 Z0.0211
X8.0461 Y5.9884 Z0.0259
X8.0474 Y5.9883 Z0.0308
X8.0482 Z0.0359
X8.0485 Y5.9882 Z0.0411
G0 Z0.45
X3.6284 Y6.0008
Z0.142
G1 Z0.067 F18
X3.6286 Z0.0605
X3.6295 Y6.0007 Z0.054
X3.6309 Y6.0005 Z0.0476
X3.6329 Y6.0003 Z0.0413
X3.6354 Y6.0001 Z0.0353
X3.6384 Y5.9998 Z0.0295
X3.6419 Y5.9995 Z0.024
X3.6458 Y5.9991 Z0.0188
X3.6502 Y5.9986 Z0.014
X3.655 Y5.9981 Z0.0095
X3.6602 Y5.9976 Z0.0056
X3.6657 Y5.9971 Z0.002
X3.6715 Y5.9965 Z-0.001
X3.6775 Y5.9959 Z-0.0035
X3.6837 Y5.9953 Z-0.0054
X3.69 Y5.9947 Z-0.0069
X3.6965 Y5.994 Z-0.0077
X3.703 Y5.9934 Z-0.008
G3 X3.7515 Y6.0008 I0.0098 J0.0984
G1 X3.7608 Y6.0049 F54
X3.7649 Y6.0068
X3.7886 Y6.0343
X3.8171 Y6.057
X3.849 Y6.0743
X3.8833 Y6.0863
X3.9189 Y6.0937
X3.9551 Y6.0977
X3.9914 Y6.0997
X4.0277 Y6.1005
X4.1731 Y6.101
X5.7364
X7.7359
X7.8086
X7.8446 Y6.0957
X7.8783 Y6.082
X7.9086 Y6.062
X7.9363 Y6.0376
X7.9446 Y6.0279
X7.9544 Y6.0197
X7.9655 Y6.0133
X7.9776 Y6.009
X7.9826 Y6.0079 Z-0.0077 F18
X7.9875 Y6.0069 Z-0.0069
X7.9923 Y6.0059 Z-0.0056
X7.997 Y6.0049 Z-0.0038
X8.0014 Y6.0046 Z-0.0016
X8.0056 Y6.0043 Z0.0011
X8.0096 Y6.0041 Z0.0043
X8.0131 Y6.0038 Z0.0078
X8.0165 Y6.004 Z0.0118
X8.0194 Y6.0042 Z0.0161
X8.0218 Y6.0043 Z0.0208
X8.0237 Y6.0044 Z0.0257
X8.025 Z0.0307
X8.0259 Y6.0045 Z0.0359
X8.0262 Z0.0411
G0 Z0.45
X3.6378 Y6.0114
Z0.142
G1 Z0.067 F18
X3.6381 Z0.0605
X3.6389 Y6.0112 Z0.054
X3.6403 Y6.011 Z0.0476
X3.6423 Y6.0107 Z0.0413
X3.6447 Y6.0103 Z0.0353
X3.6477 Y6.0099 Z0.0295
X3.6512 Y6.0094 Z0.024
X3.6551 Y6.0088 Z0.0188
X3.6595 Y6.0081 Z0.014
X3.6643 Y6.0074 Z0.0095
X3.6694 Y6.0066 Z0.0056
X3.6749 Y6.0057 Z0.002
X3.6806 Y6.0048 Z-0.001
X3.6866 Y6.0039 Z-0.0035
X3.6927 Y6.003 Z-0.0054
X3.6991 Y6.002 Z-0.0069
X3.7055 Y6.001 Z-0.0077
X3.7119 Y6 Z-0.008
G3 X3.7608 Y6.0048 I0.015 J0.0978
G1 X3.7728 Y6.0092 F54
X3.7742 Y6.0095
X3.779 Y6.0107
X3.8076 Y6.0331
X3.8387 Y6.0518
X3.8722 Y6.0661
X3.9072 Y6.076
X3.943 Y6.0822
X3.9792 Y6.0858
X4.0155 Y6.0876
X4.0518 Y6.0884
X4.1609 Y6.089
X5.7605
X7.76
X7.7964 Y6.0879
X7.832 Y6.0807
X7.8658 Y6.0673
X7.8969 Y6.0484
X7.9173 Y6.033
X7.9292 Y6.0252
X7.942 Y6.0189
X7.9554 Y6.0142
X7.9693 Y6.0112
X7.9744 Y6.0107 Z-0.0077 F18
X7.9794 Y6.0102 Z-0.0069
X7.9843 Y6.0097 Z-0.0056
X7.989 Y6.0093 Z-0.0038
X7.9913 Y6.0092 Z-0.0028
X7.996 Y6.0096 Z0
X8.0004 Y6.01 Z0.0032
X8.0044 Y6.0103 Z0.0069
X8.0079 Y6.0106 Z0.011
X8.011 Y6.0108 Z0.0155
X8.0135 Y6.0113 Z0.0202
X8.0155 Y6.0117 Z0.0252
X8.0169 Y6.0119 Z0.0304
X8.0178 Y6.0121 Z0.0357
X8.0181 Y6.0122 Z0.0411
G0 Z0.45
X3.6545 Y6.0385
Z0.142
G1 Z0.067 F18
X3.6548 Y6.0384 Z0.0605
X3.6556 Y6.0381 Z0.054
X3.6569 Y6.0376 Z0.0476
X3.6588 Y6.037 Z0.0413
X3.6611 Y6.0362 Z0.0353
X3.664 Y6.0352 Z0.0295
X3.6673 Y6.034 Z0.024
X3.6711 Y6.0327 Z0.0188
X3.6752 Y6.0312 Z0.014
X3.6798 Y6.0296 Z0.0095
X3.6847 Y6.0279 Z0.0056
X3.6899 Y6.0261 Z0.002
X3.6954 Y6.0242 Z-0.001
X3.7011 Y6.0222 Z-0.0035
X3.707 Y6.0201 Z-0.0054
X3.713 Y6.018 Z-0.0069
X3.7191 Y6.0159 Z-0.0077
X3.7253 Y6.0137 Z-0.008
G3 X3.7742 Y6.0095 I0.0327 J0.0933
G1 X3.7907 Y6.0128 F54
X3.796 Y6.014
X3.8278 Y6.0316
X3.861 Y6.0465
X3.8955 Y6.058
X3.9309 Y6.066
X3.9669 Y6.0711
X4.0032 Y6.0741
X4.0395 Y6.0757
X4.0758 Y6.0764
X4.2212 Y6.077
X5.7482
X7.7477 Y6.0769
X7.784 Y6.0746
X7.8195 Y6.0672
X7.8536 Y6.0543
X7.8856 Y6.0371
X7.8961 Y6.031
X7.9114 Y6.0234
X7.9277 Y6.0179
X7.9445 Y6.0147
X7.9501 Y6.0145 Z-0.0077 F18
X7.9555 Y6.0142 Z-0.0068
X7.9608 Y6.0146 Z-0.0052
X7.9659 Y6.015 Z-0.0031
X7.9707 Y6.0154 Z-0.0004
X7.9752 Y6.0158 Z0.0028
X7.9792 Y6.0167 Z0.0065
X7.9827 Y6.0176 Z0.0106
X7.9858 Y6.0183 Z0.0151
X7.9884 Y6.0189 Z0.0199
X7.9904 Y6.0194 Z0.025
X7.9918 Y6.0197 Z0.0302
X7.9927 Y6.0199 Z0.0356
X7.993 Y6.02 Z0.0411
G0 Z0.45
X3.6716 Y6.044
Z0.142
G1 Z0.067 F18
X3.6719 Y6.0439 Z0.0605
X3.6727 Y6.0436 Z0.054
X3.674 Y6.0431 Z0.0476
X3.6758 Y6.0424 Z0.0413
X3.6782 Y6.0416 Z0.0353
X3.681 Y6.0405 Z0.0295
X3.6843 Y6.0393 Z0.024
X3.688 Y6.0379 Z0.0188
X3.6922 Y6.0364 Z0.014
X3.6967 Y6.0347 Z0.0095
X3.7016 Y6.0329 Z0.0056
X3.7067 Y6.031 Z0.002
X3.7122 Y6.0289 Z-0.001
X3.7179 Y6.0268 Z-0.0035
X3.7237 Y6.0247 Z-0.0054
X3.7297 Y6.0224 Z-0.0069
X3.7358 Y6.0202 Z-0.0077
X3.7419 Y6.0179 Z-0.008
G3 X3.7907 Y6.0128 I0.0344 J0.0928
G1 X3.799 Y6.0141 F54
X3.8059 Y6.0144
X3.8112 Y6.0149
X3.8454 Y6.0274
X3.8797 Y6.0394
X3.9148 Y6.0487
X3.9506 Y6.0554
X3.9867 Y6.0597
X4.0229 Y6.0623
X4.0593 Y6.0637
X4.132 Y6.0647
X4.8591 Y6.065
X5.7679
X7.6948
X7.7311 Y6.0648
X7.7674 Y6.0623
X7.8031 Y6.0556
X7.8376 Y6.0441
X7.8801 Y6.0251
X7.8951 Y6.0196
X7.9107 Y6.0162
X7.9266 Y6.0149
X7.9316 Y6.0154 Z-0.0077 F18
X7.9366 Y6.016 Z-0.0069
X7.9415 Y6.0165 Z-0.0056
X7.9463 Y6.017 Z-0.0038
X7.9507 Y6.0181 Z-0.0015
X7.9549 Y6.0193 Z0.0013
X7.9588 Y6.0203 Z0.0045
X7.9623 Y6.0212 Z0.0082
X7.9654 Y6.0221 Z0.0122
X7.968 Y6.0231 Z0.0165
X7.9702 Y6.024 Z0.0211
X7.9719 Y6.0247 Z0.0259
X7.9732 Y6.0252 Z0.0308
X7.9739 Y6.0255 Z0.0359
X7.9742 Y6.0256 Z0.0411
G0 Z0.45
X3.6923 Y6.0621
Z0.142
G1 Z0.067 F18
X3.6926 Y6.062 Z0.0605
X3.6933 Y6.0616 Z0.054
X3.6946 Y6.0609 Z0.0476
X3.6963 Y6.06 Z0.0413
X3.6985 Y6.0588 Z0.0353
X3.7012 Y6.0573 Z0.0295
X3.7043 Y6.0557 Z0.024
X3.7078 Y6.0538 Z0.0188
X3.7117 Y6.0516 Z0.014
X3.7159 Y6.0493 Z0.0095
X3.7205 Y6.0469 Z0.0056
X3.7253 Y6.0442 Z0.002
X3.7304 Y6.0415 Z-0.001
X3.7357 Y6.0386 Z-0.0035
X3.7412 Y6.0356 Z-0.0054
X3.7468 Y6.0326 Z-0.0069
X3.7525 Y6.0295 Z-0.0077
X3.7583 Y6.0264 Z-0.008
G3 X3.8059 Y6.0145 I0.0471 J0.0869
G1 X3.8249 Y6.015 F54
X3.8303 Y6.0153
X3.9082 Y6.0341
X3.9439 Y6.041
X3.98 Y6.0459
X4.0162 Y6.0491
X4.0525 Y6.051
X4.0888 Y6.052
X4.1615 Y6.0528
X5.7975 Y6.053
X7.688
X7.7243 Y6.0522
X7.7605 Y6.0491
X7.7962 Y6.042
X7.8309 Y6.0311
X7.8554 Y6.0218
X7.8682 Y6.018
X7.8813 Y6.0158
X7.8946 Y6.015
X7.8997 Y6.0156 Z-0.0077 F18
X7.9047 Y6.0162 Z-0.0069
X7.9096 Y6.0167 Z-0.0056
X7.9143 Y6.0173 Z-0.0038
X7.9187 Y6.0185 Z-0.0015
X7.9229 Y6.0197 Z0.0013
X7.9267 Y6.0207 Z0.0045
X7.9302 Y6.0217 Z0.0082
X7.9334 Y6.0226 Z0.0122
X7.936 Y6.0237 Z0.0165
X7.9381 Y6.0246 Z0.0211
X7.9399 Y6.0253 Z0.0259
X7.9411 Y6.0258 Z0.0308
X7.9418 Y6.0261 Z0.0359
X7.9421 Y6.0262 Z0.0411
G0 Z0.45
X3.7133 Y6.0672
Z0.142
G1 Z0.067 F18
X3.7136 Y6.067 Z0.0605
X3.7143 Y6.0666 Z0.054
X3.7155 Y6.0659 Z0.0476
X3.7172 Y6.0649 Z0.0413
X3.7194 Y6.0636 Z0.0353
X3.722 Y6.062 Z0.0295
X3.725 Y6.0602 Z0.024
X3.7284 Y6.0582 Z0.0188
X3.7322 Y6.0559 Z0.014
X3.7364 Y6.0535 Z0.0095
X3.7408 Y6.0508 Z0.0056
X3.7456 Y6.048 Z0.002
X3.7505 Y6.045 Z-0.001
X3.7557 Y6.0419 Z-0.0035
X3.7611 Y6.0388 Z-0.0054
X3.7666 Y6.0355 Z-0.0069
X3.7722 Y6.0322 Z-0.0077
X3.7778 Y6.0288 Z-0.008
G3 X3.8249 Y6.015 I0.0505 J0.0851
G1 X3.8485 F54
X3.8595 Y6.0158
X3.886 Y6.0193
X3.9578 Y6.0305
X3.9939 Y6.0346
X4.0302 Y6.0373
X4.0665 Y6.039
X4.1029 Y6.04
X4.1756 Y6.0408
X5.5207 Y6.041
X5.8479
X7.6656
X7.702 Y6.0405
X7.7383 Y6.0381
X7.7742 Y6.0324
X7.8094 Y6.0235
X7.8272 Y6.018
X7.8372 Y6.0153
X7.8404 Y6.015
X7.8946
X7.8997 Y6.0156 Z-0.0077 F18
X7.9047 Y6.0162 Z-0.0069
X7.9096 Y6.0167 Z-0.0056
X7.9143 Y6.0173 Z-0.0038
X7.9187 Y6.0185 Z-0.0015
X7.9229 Y6.0197 Z0.0013
X7.9267 Y6.0207 Z0.0045
X7.9302 Y6.0217 Z0.0082
X7.9334 Y6.0226 Z0.0122
X7.936 Y6.0237 Z0.0165
X7.9381 Y6.0246 Z0.0211
X7.9399 Y6.0253 Z0.0259
X7.9411 Y6.0258 Z0.0308
X7.9418 Y6.0261 Z0.0359
X7.9421 Y6.0262 Z0.0411
G0 Z0.45
X3.737 Y6.0672
Z0.142
G1 Z0.067 F18
X3.7372 Y6.067 Z0.0605
X3.738 Y6.0666 Z0.054
X3.7392 Y6.0659 Z0.0476
X3.7409 Y6.0649 Z0.0413
X3.743 Y6.0636 Z0.0353
X3.7456 Y6.062 Z0.0295
X3.7486 Y6.0602 Z0.024
X3.7521 Y6.0582 Z0.0188
X3.7559 Y6.0559 Z0.014
X3.76 Y6.0535 Z0.0095
X3.7645 Y6.0508 Z0.0056
X3.7692 Y6.048 Z0.002
X3.7742 Y6.045 Z-0.001
X3.7794 Y6.0419 Z-0.0035
X3.7848 Y6.0388 Z-0.0054
X3.7903 Y6.0355 Z-0.0069
X3.7958 Y6.0322 Z-0.0077
X3.8015 Y6.0288 Z-0.008
G3 X3.8485 Y6.015 I0.0505 J0.0851
G1 X3.893 F54
X3.9217 Y6.0164
X3.9579 Y6.019
X3.9942 Y6.0223
X4.0304 Y6.0249
X4.0667 Y6.0266
X4.1031 Y6.0277
X4.1758 Y6.0287
X4.5393 Y6.029
X5.8845
X7.6659 Y6.0288
X7.7022 Y6.0278
X7.7384 Y6.0245
X7.7743 Y6.0183
X7.7834 Y6.0165
X7.7926 Y6.0154
X7.8019 Y6.015
X7.8404
X7.8455 Y6.0156 Z-0.0077 F18
X7.8505 Y6.0162 Z-0.0069
X7.8554 Y6.0167 Z-0.0056
X7.8601 Y6.0173 Z-0.0038
X7.8645 Y6.0185 Z-0.0015
X7.8687 Y6.0197 Z0.0013
X7.8725 Y6.0207 Z0.0045
X7.8761 Y6.0217 Z0.0082
X7.8792 Y6.0226 Z0.0122
X7.8818 Y6.0237 Z0.0165
X7.884 Y6.0246 Z0.0211
X7.8857 Y6.0253 Z0.0259
X7.8869 Y6.0258 Z0.0308
X7.8877 Y6.0261 Z0.0359
X7.8879 Y6.0262 Z0.0411
G0 Z0.45
X3.7815 Y6.0672
Z0.142
G1 Z0.067 F18
X3.7817 Y6.067 Z0.0605
X3.7824 Y6.0666 Z0.054
X3.7837 Y6.0659 Z0.0476
X3.7853 Y6.0649 Z0.0413
X3.7875 Y6.0636 Z0.0353
X3.7901 Y6.062 Z0.0295
X3.7931 Y6.0602 Z0.024
X3.7965 Y6.0582 Z0.0188
X3.8003 Y6.0559 Z0.014
X3.8045 Y6.0535 Z0.0095
X3.8089 Y6.0508 Z0.0056
X3.8137 Y6.048 Z0.002
X3.8187 Y6.045 Z-0.001
X3.8239 Y6.0419 Z-0.0035
X3.8292 Y6.0388 Z-0.0054
X3.8347 Y6.0355 Z-0.0069
X3.8403 Y6.0322 Z-0.0077
X3.8459 Y6.0288 Z-0.008
G3 X3.893 Y6.015 I0.0506 J0.0851
G1 X4.0289 F54
X4.0652 Y6.0168
X4.1011 Y6.0162
X4.2829 Y6.0169
X6.0279 Y6.017
X7.6275 Y6.0169
X7.6639 Y6.0166
X7.7022 Y6.015
X7.8019
X7.8069 Y6.0156 Z-0.0077 F18
X7.8119 Y6.0162 Z-0.0069
X7.8168 Y6.0167 Z-0.0056
X7.8215 Y6.0173 Z-0.0038
X7.826 Y6.0185 Z-0.0015
X7.8301 Y6.0197 Z0.0013
X7.834 Y6.0207 Z0.0045
X7.8375 Y6.0217 Z0.0082
X7.8406 Y6.0226 Z0.0122
X7.8432 Y6.0237 Z0.0165
X7.8454 Y6.0246 Z0.0211
X7.8471 Y6.0253 Z0.0259
X7.8483 Y6.0258 Z0.0308
X7.8491 Y6.0261 Z0.0359
X7.8493 Y6.0262 Z0.0411
G0 Z0.45
X3.9173 Y6.0672
Z0.142
G1 Z0.067 F18
X3.9176 Y6.067 Z0.0605
X3.9183 Y6.0666 Z0.054
X3.9195 Y6.0659 Z0.0476
X3.9212 Y6.0649 Z0.0413
X3.9234 Y6.0636 Z0.0353
X3.926 Y6.062 Z0.0295
X3.929 Y6.0602 Z0.024
X3.9324 Y6.0582 Z0.0188
X3.9362 Y6.0559 Z0.014
X3.9404 Y6.0535 Z0.0095
X3.9448 Y6.0508 Z0.0056
X3.9496 Y6.048 Z0.002
X3.9546 Y6.045 Z-0.001
X3.9598 Y6.0419 Z-0.0035
X3.9651 Y6.0388 Z-0.0054
X3.9706 Y6.0355 Z-0.0069
X3.9762 Y6.0322 Z-0.0077
X3.9818 Y6.0288 Z-0.008
G3 X4.0289 Y6.015 I0.0506 J0.0851
G1 X7.7022 F54
X7.7072 Y6.0156 Z-0.0077 F18
X7.7122 Y6.0162 Z-0.0069
X7.7171 Y6.0167 Z-0.0056
X7.7219 Y6.0173 Z-0.0038
X7.7263 Y6.0185 Z-0.0015
X7.7304 Y6.0197 Z0.0013
X7.7343 Y6.0207 Z0.0045
X7.7378 Y6.0217 Z0.0082
X7.7409 Y6.0226 Z0.0122
X7.7435 Y6.0237 Z0.0165
X7.7457 Y6.0246 Z0.0211
X7.7474 Y6.0253 Z0.0259
X7.7487 Y6.0258 Z0.0308
X7.7494 Y6.0261 Z0.0359
X7.7497 Y6.0262 Z0.0411
G0 Z0.45
X8.1241 Y6.3325
Z0.142
G1 Z0.067 F18
X8.1239 Z0.0605
X8.123 Y6.3326 Z0.054
X8.1216 Y6.3327 Z0.0476
X8.1196 Y6.3328 Z0.0413
X8.1171 Y6.333 Z0.0353
X8.1141 Y6.3333 Z0.0295
X8.1106 Y6.3336 Z0.024
X8.1066 Y6.3339 Z0.0188
X8.1022 Y6.3342 Z0.014
